; generated by Slic3r 1.2.9 on 2020-11-24 at 12:25:07

; external perimeters extrusion width = 0.40mm
; perimeters extrusion width = 0.40mm
; infill extrusion width = 0.40mm
; solid infill extrusion width = 0.40mm
; top infill extrusion width = 0.40mm

M107
M83
T0
M116
G21 ; set units to millimeters
G90 ; use absolute coordinates
M83 ; use relative distances for extrusion
G1 E-4.20000 F1500.00000
G1 Z1.000 F15000.000
G1 X0.000 Y8.586 F15000.000
G1 Z0.300 F15000.000
G1 E4.20000 F1500.00000
G1 X-14.950 Y8.586 E1.15213 F960.000
G1 X-16.597 Y8.191 E0.13052
G1 X-17.887 Y7.093 E0.13052
G1 X-18.586 Y4.950 E0.17373
G1 X-18.586 Y-4.950 E0.76295
G1 X-18.191 Y-6.597 E0.13052
G1 X-17.093 Y-7.887 E0.13052
G1 X-14.950 Y-8.586 E0.17373
G1 X14.950 Y-8.586 E2.30426
G1 X16.597 Y-8.191 E0.13052
G1 X17.887 Y-7.093 E0.13052 F960.000
G1 X18.586 Y-4.950 E0.17373
G1 X18.586 Y4.950 E0.76295
G1 X18.191 Y6.597 E0.13052
G1 X17.093 Y7.887 E0.13052
G1 X14.950 Y8.586 E0.17373
G1 X0.060 Y8.586 E1.14751
G1 E-4.20000 F1500.00000
G1 Z1.300 F15000.000
G1 X-7.541 Y1.888 F15000.000
G1 Z0.300 F15000.000
G1 E4.20000 F1500.00000
G1 X-7.992 Y2.364 E0.05054 F600.000
G1 X-8.547 Y2.741 E0.05170
G1 X-9.170 Y2.989 E0.05170
G1 X-9.832 Y3.098 E0.05170
G1 X-10.502 Y3.061 E0.05170
G1 X-11.149 Y2.882 E0.05177
G1 X-11.753 Y2.558 E0.05277
G1 X-12.252 Y2.133 E0.05054
G1 X-12.658 Y1.599 E0.05170
G1 X-12.940 Y0.991 E0.05170
G1 X-13.084 Y0.335 E0.05170
G1 X-13.084 Y-0.335 E0.05170
G1 X-12.940 Y-0.991 E0.05170
G1 X-12.658 Y-1.599 E0.05170
G1 X-12.252 Y-2.133 E0.05170
G1 X-11.741 Y-2.568 E0.05170
G1 X-11.148 Y-2.882 E0.05177
G1 X-10.487 Y-3.062 E0.05277
G1 X-9.832 Y-3.098 E0.05054 F600.000
G1 X-9.170 Y-2.989 E0.05170
G1 X-8.547 Y-2.741 E0.05170
G1 X-7.992 Y-2.365 E0.05170
G1 X-7.530 Y-1.877 E0.05170
G1 X-7.184 Y-1.303 E0.05170
G1 X-6.970 Y-0.667 E0.05170
G1 X-6.898 Y-0.000 E0.05170
G1 X-6.970 Y0.667 E0.05170
G1 X-7.185 Y1.303 E0.05177
G1 X-7.509 Y1.837 E0.04814
G1 X-7.400 Y2.263 F15000.000
G1 E-4.20000 F1500.00000
G1 Z1.300 F15000.000
G1 X-13.660 Y-3.964 F15000.000
G1 Z0.300 F15000.000
G1 E4.20000 F1500.00000
G1 X-10.853 Y-3.964 E0.21636 F600.000
G1 X-10.808 Y-3.634 E0.02572
G1 X-11.383 Y-3.477 E0.04588 F600.000
G1 X-12.100 Y-3.097 E0.06255
G1 X-12.716 Y-2.573 E0.06235
G1 X-13.206 Y-1.929 E0.06235
G1 X-13.546 Y-1.195 E0.06235
G1 X-13.624 Y-0.839 E0.02810
G1 X-13.964 Y-0.876 E0.02637
G1 X-13.964 Y-3.964 E0.23804
G1 X-13.720 Y-3.964 E0.01883
G1 X-13.298 Y3.964 F15000.000
G1 X-13.964 Y3.964 E0.05138 F600.000
G1 X-13.964 Y0.876 E0.23804
G1 X-13.624 Y0.839 E0.02637
G1 X-13.546 Y1.195 E0.02810
G1 X-13.206 Y1.929 E0.06235 F600.000
G1 X-12.716 Y2.573 E0.06235
G1 X-12.113 Y3.086 E0.06107
G1 X-11.387 Y3.475 E0.06342
G1 X-10.814 Y3.634 E0.04586
G1 X-10.859 Y3.964 E0.02566
G1 X-13.238 Y3.964 E0.18332
G1 E-4.20000 F1500.00000
G1 Z1.300 F15000.000
G1 X-5.685 Y0.884 F15000.000
G1 Z0.300 F15000.000
G1 E4.20000 F1500.00000
G1 X-5.848 Y0.455 E0.03535 F600.000
G1 X-5.903 Y-0.000 E0.03535
G1 X-5.848 Y-0.455 E0.03535
G1 X-5.685 Y-0.884 E0.03535
G1 X-5.424 Y-1.262 E0.03535
G1 X-5.081 Y-1.566 E0.03535
G1 X-4.675 Y-1.779 E0.03535
G1 X-4.229 Y-1.889 E0.03535
G1 X-3.771 Y-1.889 E0.03535 F600.000
G1 X-3.325 Y-1.779 E0.03535
G1 X-2.919 Y-1.566 E0.03535
G1 X-2.576 Y-1.262 E0.03535
G1 X-2.315 Y-0.884 E0.03535
G1 X-2.152 Y-0.455 E0.03535
G1 X-2.097 Y-0.000 E0.03535
G1 X-2.152 Y0.455 E0.03535
G1 X-2.315 Y0.884 E0.03535
G1 X-2.576 Y1.262 E0.03535
G1 X-2.919 Y1.566 E0.03535
G1 X-3.325 Y1.779 E0.03535
G1 X-3.771 Y1.889 E0.03535
G1 X-4.229 Y1.889 E0.03535
G1 X-4.675 Y1.779 E0.03535
G1 X-5.081 Y1.566 E0.03535
G1 X-5.424 Y1.262 E0.03535
G1 X-5.651 Y0.934 E0.03073
G1 X-6.084 Y0.852 F15000.000
G1 E-4.20000 F1500.00000
G1 Z1.300 F15000.000
G1 X-0.860 Y0.352 F15000.000
G1 Z0.300 F15000.000
G1 E4.20000 F1500.00000
G1 X-0.903 Y-0.000 E0.02733 F600.000
G1 X-0.848 Y-0.455 E0.03535
G1 X-0.685 Y-0.884 E0.03535
G1 X-0.424 Y-1.262 E0.03535
G1 X-0.081 Y-1.566 E0.03535
G1 X0.325 Y-1.779 E0.03535
G1 X0.771 Y-1.889 E0.03535
G1 X1.229 Y-1.889 E0.03535 F600.000
G1 X1.675 Y-1.779 E0.03535
G1 X2.081 Y-1.566 E0.03535
G1 X2.424 Y-1.262 E0.03535
G1 X2.685 Y-0.884 E0.03535
G1 X2.848 Y-0.455 E0.03535
G1 X2.903 Y-0.000 E0.03535
G1 X2.848 Y0.455 E0.03535
G1 X2.685 Y0.884 E0.03535
G1 X2.424 Y1.262 E0.03535
G1 X2.081 Y1.566 E0.03535
G1 X1.675 Y1.779 E0.03535
G1 X1.229 Y1.889 E0.03535
G1 X0.771 Y1.889 E0.03535
G1 X0.325 Y1.779 E0.03535
G1 X-0.081 Y1.566 E0.03535
G1 X-0.424 Y1.262 E0.03535
G1 X-0.685 Y0.884 E0.03535
G1 X-0.853 Y0.412 E0.03867
G1 X-1.195 Y0.235 F15000.000
G1 E-4.20000 F1500.00000
G1 Z1.300 F15000.000
G1 X4.097 Y0.000 F15000.000
G1 Z0.300 F15000.000
G1 E4.20000 F1500.00000
G1 X4.152 Y-0.455 E0.03535 F600.000
G1 X4.315 Y-0.884 E0.03535
G1 X4.576 Y-1.262 E0.03535
G1 X4.919 Y-1.566 E0.03535
G1 X5.325 Y-1.779 E0.03535
G1 X5.771 Y-1.889 E0.03535
G1 X6.229 Y-1.889 E0.03535 F600.000
G1 X6.675 Y-1.779 E0.03535
G1 X7.081 Y-1.566 E0.03535
G1 X7.424 Y-1.262 E0.03535
G1 X7.685 Y-0.884 E0.03535
G1 X7.848 Y-0.455 E0.03535
G1 X7.903 Y-0.000 E0.03535
G1 X7.848 Y0.455 E0.03535
G1 X7.685 Y0.884 E0.03535
G1 X7.424 Y1.262 E0.03535
G1 X7.081 Y1.566 E0.03535
G1 X6.675 Y1.779 E0.03535
G1 X6.229 Y1.889 E0.03535
G1 X5.771 Y1.889 E0.03535
G1 X5.325 Y1.779 E0.03535
G1 X4.919 Y1.566 E0.03535
G1 X4.576 Y1.262 E0.03535
G1 X4.315 Y0.884 E0.03535
G1 X4.152 Y0.455 E0.03535
G1 X4.104 Y0.060 E0.03073
G1 X3.759 Y-0.214 F15000.000
G1 E-4.20000 F1500.00000
G1 Z1.300 F15000.000
G1 X9.097 Y0.000 F15000.000
G1 Z0.300 F15000.000
G1 E4.20000 F1500.00000
G1 X9.152 Y-0.455 E0.03535 F600.000
G1 X9.315 Y-0.884 E0.03535
G1 X9.576 Y-1.262 E0.03535
G1 X9.919 Y-1.566 E0.03535
G1 X10.325 Y-1.779 E0.03535
G1 X10.771 Y-1.889 E0.03535
G1 X11.229 Y-1.889 E0.03535 F600.000
G1 X11.675 Y-1.779 E0.03535
G1 X12.081 Y-1.566 E0.03535
G1 X12.424 Y-1.262 E0.03535
G1 X12.685 Y-0.884 E0.03535
G1 X12.848 Y-0.455 E0.03535
G1 X12.903 Y-0.000 E0.03535
G1 X12.848 Y0.455 E0.03535
G1 X12.685 Y0.884 E0.03535
G1 X12.424 Y1.262 E0.03535
G1 X12.081 Y1.566 E0.03535
G1 X11.675 Y1.779 E0.03535
G1 X11.229 Y1.889 E0.03535
G1 X10.771 Y1.889 E0.03535
G1 X10.325 Y1.779 E0.03535
G1 X9.919 Y1.566 E0.03535
G1 X9.576 Y1.262 E0.03535
G1 X9.315 Y0.884 E0.03535
G1 X9.152 Y0.455 E0.03535
G1 X9.104 Y0.060 E0.03073
G1 X8.759 Y-0.214 F15000.000
G1 X6.195 Y-3.964 F15000.000
G1 X13.964 Y-3.964 E0.59873 F720.000
G1 X13.964 Y3.964 E0.61103
G1 X-9.064 Y3.964 E1.77469 F720.000
G1 X-9.123 Y3.655 E0.02429
G1 X-8.247 Y3.306 E0.07267
G1 X-7.578 Y2.852 E0.06235
G1 X-7.033 Y2.277 E0.06107
G1 X-6.605 Y1.573 E0.06342
G1 X-6.400 Y0.967 E0.04934
G1 X-5.904 Y1.686 E0.06740
G1 X-5.445 Y2.093 E0.04725
G1 X-4.902 Y2.378 E0.04725
G1 X-4.307 Y2.525 E0.04725
G1 X-3.693 Y2.525 E0.04725
G1 X-3.098 Y2.378 E0.04725
G1 X-2.555 Y2.093 E0.04725
G1 X-2.096 Y1.686 E0.04725
G1 X-1.748 Y1.182 E0.04725
G1 X-1.500 Y0.528 E0.05392
G1 X-1.252 Y1.182 E0.05392
G1 X-0.904 Y1.686 E0.04725
G1 X-0.445 Y2.093 E0.04725
G1 X0.098 Y2.378 E0.04725
G1 X0.693 Y2.525 E0.04725
G1 X1.307 Y2.525 E0.04725
G1 X1.902 Y2.378 E0.04725
G1 X2.445 Y2.093 E0.04725
G1 X2.904 Y1.686 E0.04725
G1 X3.252 Y1.182 E0.04725
G1 X3.500 Y0.528 E0.05392
G1 X3.748 Y1.182 E0.05392
G1 X4.096 Y1.686 E0.04725
G1 X4.555 Y2.093 E0.04725
G1 X5.098 Y2.378 E0.04725
G1 X5.693 Y2.525 E0.04725
G1 X6.307 Y2.525 E0.04725
G1 X6.902 Y2.378 E0.04725
G1 X7.445 Y2.093 E0.04725
G1 X7.904 Y1.686 E0.04725
G1 X8.252 Y1.182 E0.04725
G1 X8.500 Y0.528 E0.05392
G1 X8.748 Y1.182 E0.05392
G1 X9.096 Y1.686 E0.04725
G1 X9.555 Y2.093 E0.04725
G1 X10.098 Y2.378 E0.04725
G1 X10.693 Y2.525 E0.04725
G1 X11.307 Y2.525 E0.04725
G1 X11.902 Y2.378 E0.04725
G1 X12.445 Y2.093 E0.04725
G1 X12.904 Y1.686 E0.04725
G1 X13.252 Y1.182 E0.04725
G1 X13.469 Y0.609 E0.04725
G1 X13.543 Y-0.000 E0.04725
G1 X13.469 Y-0.609 E0.04725
G1 X13.252 Y-1.182 E0.04725
G1 X12.904 Y-1.686 E0.04725
G1 X12.445 Y-2.093 E0.04725
G1 X11.902 Y-2.378 E0.04725
G1 X11.307 Y-2.525 E0.04725
G1 X10.693 Y-2.525 E0.04725
G1 X10.098 Y-2.378 E0.04725
G1 X9.555 Y-2.093 E0.04725
G1 X9.096 Y-1.686 E0.04725
G1 X8.748 Y-1.182 E0.04725
G1 X8.500 Y-0.528 E0.05392
G1 X8.252 Y-1.182 E0.05392
G1 X7.904 Y-1.686 E0.04725
G1 X7.445 Y-2.093 E0.04725
G1 X6.902 Y-2.378 E0.04725
G1 X6.307 Y-2.525 E0.04725
G1 X5.693 Y-2.525 E0.04725
G1 X5.098 Y-2.378 E0.04725
G1 X4.555 Y-2.093 E0.04725
G1 X4.096 Y-1.686 E0.04725
G1 X3.748 Y-1.182 E0.04725
G1 X3.500 Y-0.528 E0.05392
G1 X3.252 Y-1.182 E0.05392
G1 X2.904 Y-1.686 E0.04725
G1 X2.445 Y-2.093 E0.04725
G1 X1.902 Y-2.378 E0.04725
G1 X1.307 Y-2.525 E0.04725
G1 X0.693 Y-2.525 E0.04725
G1 X0.098 Y-2.378 E0.04725
G1 X-0.445 Y-2.093 E0.04725
G1 X-0.904 Y-1.686 E0.04725
G1 X-1.252 Y-1.182 E0.04725
G1 X-1.500 Y-0.528 E0.05392
G1 X-1.748 Y-1.182 E0.05392
G1 X-2.096 Y-1.686 E0.04725
G1 X-2.555 Y-2.093 E0.04725
G1 X-3.098 Y-2.378 E0.04725
G1 X-3.693 Y-2.525 E0.04725
G1 X-4.307 Y-2.525 E0.04725
G1 X-4.902 Y-2.378 E0.04725
G1 X-5.445 Y-2.093 E0.04725
G1 X-5.904 Y-1.686 E0.04725
G1 X-6.400 Y-0.967 E0.06740
G1 X-6.604 Y-1.571 E0.04915
G1 X-7.021 Y-2.264 E0.06235
G1 X-7.578 Y-2.852 E0.06235
G1 X-8.247 Y-3.306 E0.06235
G1 X-9.123 Y-3.655 E0.07267
G1 X-9.064 Y-3.964 E0.02429
G1 X6.135 Y-3.964 E1.17134
G1 X6.135 Y-4.600 F15000.000
G1 X14.600 Y-4.600 E0.65234 F720.000
G1 X14.600 Y4.600 E0.70900
G1 X-14.600 Y4.600 E2.25031 F720.000
G1 X-14.600 Y-4.600 E0.70900
G1 X6.075 Y-4.600 E1.59335
G1 X6.335 Y-4.254 F15000.000
G1 X6.734 Y-3.245 F15000.000
G1 X5.266 Y-3.245 E0.23776 F960.000
G1 X4.880 Y-3.269 F15000.000
G1 X4.571 Y-3.579 E0.03858 F960.000
G1 X3.543 Y-3.579 E0.09053
G1 X4.616 Y-2.507 E0.13360
G1 X4.028 Y-2.067 E0.06467
G1 X2.516 Y-3.579 E0.18842
G1 X2.120 Y-2.947 E0.06567
G1 X2.457 Y-2.610 E0.04201
G1 X1.734 Y-3.245 F15000.000
G1 X0.266 Y-3.245 E0.23776 F960.000
G1 X-0.120 Y-3.269 F15000.000
G1 X-0.429 Y-3.579 E0.03858 F960.000
G1 X-1.457 Y-3.579 E0.09053
G1 X-0.384 Y-2.507 E0.13360
G1 X-0.972 Y-2.067 E0.06467
G1 X-2.484 Y-3.579 E0.18842
G1 X-2.880 Y-2.947 E0.06567
G1 X-2.543 Y-2.610 E0.04201
G1 X-3.266 Y-3.245 F15000.000
G1 X-4.734 Y-3.245 E0.23776 F960.000
G1 X-5.120 Y-3.269 F15000.000
G1 X-5.429 Y-3.579 E0.04413 F960.000
G1 X-5.481 Y-2.456 E0.11331
G1 X-6.605 Y-3.579 E0.16007
G1 X-6.471 Y-2.270 E0.13257
G1 X-6.129 Y-1.928 E0.04880
G1 X-5.120 Y2.947 F15000.000
G1 X-5.457 Y2.610 E0.03838 F960.000
G1 X-5.427 Y3.579 E0.07800
G1 X-6.674 Y2.332 E0.14197
G1 X-7.109 Y2.836 E0.05357
G1 X-6.365 Y3.579 E0.08457
G1 X-7.304 Y3.579 E0.07555
G1 X-7.608 Y3.275 E0.03461
G1 X-4.734 Y3.245 F15000.000
G1 X-3.266 Y3.245 E0.23776 F960.000
G1 X-2.880 Y3.269 F15000.000
G1 X-2.571 Y3.579 E0.03858 F960.000
G1 X-1.543 Y3.579 E0.09053
G1 X-2.616 Y2.507 E0.13360
G1 X-2.028 Y2.067 E0.06467
G1 X-0.516 Y3.579 E0.18842
G1 X-0.457 Y2.610 E0.08550
G1 X-0.120 Y2.947 E0.04201
G1 X0.266 Y3.245 F15000.000
G1 X1.734 Y3.245 E0.23776 F960.000
G1 X2.120 Y3.269 F15000.000
G1 X2.429 Y3.579 E0.03858 F960.000
G1 X3.457 Y3.579 E0.09053
G1 X2.384 Y2.507 E0.13360
G1 X2.972 Y2.067 E0.06467
G1 X4.484 Y3.579 E0.18842
G1 X4.543 Y2.610 E0.08550
G1 X4.880 Y2.947 E0.04201
G1 X5.266 Y3.245 F15000.000
G1 X6.734 Y3.245 E0.23776 F960.000
G1 X7.120 Y3.269 F15000.000
G1 X7.429 Y3.579 E0.03858 F960.000
G1 X8.457 Y3.579 E0.09053
G1 X7.384 Y2.507 E0.13360
G1 X7.972 Y2.067 E0.06467
G1 X9.484 Y3.579 E0.18842
G1 X9.543 Y2.610 E0.08550
G1 X9.880 Y2.947 E0.04201
G1 X10.266 Y3.245 F15000.000
G1 X11.734 Y3.245 E0.23776 F960.000
G1 X12.120 Y3.269 F15000.000
G1 X12.429 Y3.579 E0.05051 F960.000
G1 X13.579 Y3.383 E0.13450
G1 X12.593 Y2.397 E0.16085
G1 X13.275 Y1.734 E0.10971
G1 X13.579 Y2.038 E0.04959
G1 X12.120 Y-2.947 F15000.000
G1 X12.457 Y-2.610 E0.07283 F960.000
G1 X13.269 Y-3.579 E0.19309
G1 X13.579 Y-3.269 E0.06688
G1 X11.734 Y-3.245 F15000.000
G1 X10.266 Y-3.245 E0.23776 F960.000
G1 X9.880 Y-3.269 F15000.000
G1 X9.571 Y-3.579 E0.03858 F960.000
G1 X8.543 Y-3.579 E0.09053
G1 X9.616 Y-2.507 E0.13360
G1 X9.028 Y-2.067 E0.06467
G1 X7.516 Y-3.579 E0.18842
G1 X7.120 Y-2.947 E0.06567
G1 X7.457 Y-2.610 E0.04201
G1 X-12.414 Y-3.289 F15000.000
G1 X-12.704 Y-3.579 E0.04056 F960.000
G1 X-13.263 Y-2.983 E0.08090
G1 X-13.579 Y-3.299 E0.04424
G1 X-13.456 Y-2.598 F15000.000
G1 X-13.630 Y-1.809 E0.06228 F960.000
G1 X-13.630 Y1.809 F15000.000
G1 X-13.456 Y2.598 E0.06228 F960.000
G1 X-12.858 Y3.115 F15000.000
G1 X-12.414 Y3.559 E0.04838 F960.000
G1 E-4.20000 F1500.00000
G1 Z1.300 F15000.000
G1 X-11.858 Y2.740 F15000.000
G1 Z0.500 F15000.000
G1 E4.20000 F1500.00000
G1 X-12.404 Y2.277 E0.02066 F2400.000
G1 X-12.837 Y1.707 E0.02066
G1 X-13.137 Y1.057 E0.02066
G1 X-13.291 Y0.358 E0.02066
G1 X-13.291 Y-0.358 E0.02066
G1 X-13.137 Y-1.057 E0.02066
G1 X-12.837 Y-1.707 E0.02066
G1 X-12.404 Y-2.277 E0.02066
G1 X-11.858 Y-2.740 E0.02066
G1 X-11.223 Y-3.077 E0.02074
G1 X-10.504 Y-3.269 E0.02148
G1 X-9.821 Y-3.306 E0.01975 F2400.000
G1 X-9.114 Y-3.190 E0.02066
G1 X-8.449 Y-2.925 E0.02066
G1 X-7.857 Y-2.523 E0.02066
G1 X-7.364 Y-2.004 E0.02066
G1 X-6.995 Y-1.390 E0.02066
G1 X-6.767 Y-0.712 E0.02066
G1 X-6.689 Y-0.000 E0.02066
G1 X-6.767 Y0.712 E0.02066
G1 X-6.996 Y1.393 E0.02074
G1 X-7.386 Y2.026 E0.02148
G1 X-7.857 Y2.523 E0.01975
G1 X-8.449 Y2.925 E0.02066
G1 X-9.114 Y3.190 E0.02066
G1 X-9.821 Y3.306 E0.02066
G1 X-10.536 Y3.267 E0.02066
G1 X-11.225 Y3.076 E0.02066
G1 X-11.805 Y2.768 E0.01893
G1 X-11.638 Y2.453 F15000.000
G1 X-12.143 Y2.030 E0.01902 F2400.000
G1 X-12.529 Y1.522 E0.01842
G1 X-12.797 Y0.942 E0.01842
G1 X-12.934 Y0.319 E0.01842
G1 X-12.934 Y-0.319 E0.01842
G1 X-12.797 Y-0.942 E0.01842
G1 X-12.529 Y-1.522 E0.01842
G1 X-12.143 Y-2.030 E0.01842
G1 X-11.656 Y-2.443 E0.01842
G1 X-11.092 Y-2.742 E0.01845
G1 X-10.448 Y-2.914 E0.01923
G1 X-9.840 Y-2.947 E0.01756 F2400.000
G1 X-9.210 Y-2.844 E0.01842
G1 X-8.618 Y-2.608 E0.01842
G1 X-8.089 Y-2.250 E0.01842
G1 X-7.650 Y-1.786 E0.01842
G1 X-7.321 Y-1.239 E0.01842
G1 X-7.118 Y-0.634 E0.01842
G1 X-7.049 Y-0.000 E0.01842
G1 X-7.118 Y0.634 E0.01842
G1 X-7.322 Y1.240 E0.01845
G1 X-7.671 Y1.808 E0.01923
G1 X-8.089 Y2.249 E0.01756
G1 X-8.618 Y2.608 E0.01842
G1 X-9.210 Y2.844 E0.01842
G1 X-9.840 Y2.947 E0.01842
G1 X-10.477 Y2.913 E0.01842
G1 X-11.092 Y2.742 E0.01842
G1 X-11.585 Y2.481 E0.01608
G1 X-12.003 Y2.616 F15000.000
G1 E-4.20000 F1500.00000
G1 Z1.500 F15000.000
G1 X-6.050 Y0.505 F15000.000
G1 Z0.500 F15000.000
G1 E4.20000 F1500.00000
G1 X-6.112 Y0.000 E0.01469 F2400.000
G1 X-6.050 Y-0.505 E0.01469
G1 X-5.870 Y-0.981 E0.01469
G1 X-5.581 Y-1.400 E0.01469
G1 X-5.199 Y-1.738 E0.01469
G1 X-4.749 Y-1.974 E0.01469
G1 X-4.255 Y-2.096 E0.01469
G1 X-3.745 Y-2.096 E0.01469 F2400.000
G1 X-3.248 Y-1.973 E0.01479
G1 X-2.783 Y-1.722 E0.01527
G1 X-2.419 Y-1.400 E0.01400
G1 X-2.130 Y-0.981 E0.01469
G1 X-1.950 Y-0.505 E0.01469
G1 X-1.888 Y0.000 E0.01469
G1 X-1.950 Y0.505 E0.01469
G1 X-2.130 Y0.981 E0.01469
G1 X-2.419 Y1.400 E0.01469
G1 X-2.801 Y1.738 E0.01469
G1 X-3.251 Y1.974 E0.01469
G1 X-3.745 Y2.096 E0.01469
G1 X-4.255 Y2.096 E0.01469
G1 X-4.752 Y1.973 E0.01479
G1 X-5.218 Y1.722 E0.01527
G1 X-5.581 Y1.400 E0.01400
G1 X-5.870 Y0.981 E0.01469
G1 X-6.029 Y0.561 E0.01296
G1 X-5.695 Y0.435 F15000.000
G1 X-5.752 Y0.000 E0.01266 F2400.000
G1 X-5.701 Y-0.419 E0.01219
G1 X-5.551 Y-0.814 E0.01219
G1 X-5.311 Y-1.162 E0.01219
G1 X-4.995 Y-1.442 E0.01219
G1 X-4.621 Y-1.638 E0.01219
G1 X-4.211 Y-1.739 E0.01219
G1 X-3.789 Y-1.739 E0.01219 F2400.000
G1 X-3.378 Y-1.638 E0.01223
G1 X-2.989 Y-1.427 E0.01277
G1 X-2.689 Y-1.162 E0.01156
G1 X-2.449 Y-0.814 E0.01219
G1 X-2.299 Y-0.419 E0.01219
G1 X-2.248 Y0.000 E0.01219
G1 X-2.299 Y0.419 E0.01219
G1 X-2.449 Y0.814 E0.01219
G1 X-2.689 Y1.162 E0.01219
G1 X-3.005 Y1.442 E0.01219
G1 X-3.379 Y1.638 E0.01219
G1 X-3.789 Y1.739 E0.01219
G1 X-4.211 Y1.739 E0.01219
G1 X-4.622 Y1.638 E0.01223
G1 X-5.011 Y1.427 E0.01277
G1 X-5.311 Y1.162 E0.01156
G1 X-5.551 Y0.814 E0.01219
G1 X-5.674 Y0.491 E0.00998
G1 X-6.075 Y0.310 F15000.000
G1 E-4.20000 F1500.00000
G1 Z1.500 F15000.000
G1 X-1.112 Y-0.000 F15000.000
G1 Z0.500 F15000.000
G1 E4.20000 F1500.00000
G1 X-1.050 Y-0.505 E0.01469 F2400.000
G1 X-0.870 Y-0.981 E0.01469
G1 X-0.581 Y-1.400 E0.01469
G1 X-0.199 Y-1.738 E0.01469
