; generated by Slic3r 1.2.9 on 2020-11-24 at 11:01:04

; external perimeters extrusion width = 0.40mm
; perimeters extrusion width = 0.40mm
; infill extrusion width = 0.40mm
; solid infill extrusion width = 0.40mm
; top infill extrusion width = 0.40mm

M107
M83
T0
M116
G21 ; set units to millimeters
G90 ; use absolute coordinates
M83 ; use relative distances for extrusion
G1 E-4.20000 F1500.00000
G1 Z1.000 F15000.000
G1 X0.000 Y13.586 F15000.000
G1 Z0.300 F15000.000
G1 E4.20000 F1500.00000
G1 X-14.950 Y13.586 E1.15213 F960.000
G1 X-16.597 Y13.191 E0.13052
G1 X-17.887 Y12.093 E0.13052
G1 X-18.586 Y9.968 E0.17244
G1 X-18.639 Y-1.075 E0.85102
G1 X-18.639 Y-10.993 E0.76430
G1 X-18.245 Y-12.640 E0.13052
G1 X-17.147 Y-13.929 E0.13052
G1 X-15.003 Y-14.628 E0.17373
G1 X14.897 Y-14.628 E2.30426
G1 X16.544 Y-14.234 E0.13052
G1 X17.833 Y-13.136 E0.13052 F960.000
G1 X18.532 Y-11.010 E0.17244
G1 X18.586 Y0.032 E0.85102
G1 X18.586 Y9.950 E0.76430
G1 X18.191 Y11.597 E0.13052
G1 X17.093 Y12.887 E0.13052
G1 X14.950 Y13.586 E0.17373
G1 X0.060 Y13.586 E1.14751
G1 E-4.20000 F1500.00000
G1 Z1.300 F15000.000
G1 X-11.985 Y8.964 F15000.000
G1 Z0.300 F15000.000
G1 E4.20000 F1500.00000
G1 X-13.964 Y8.964 E0.15256 F720.000
G1 X-13.964 Y1.036 E0.61103
G1 X13.964 Y1.036 E2.15234
G1 X13.964 Y8.964 E0.61103
G1 X-11.925 Y8.964 E1.99516 F720.000
G1 X-11.925 Y9.600 F15000.000
G1 X-14.600 Y9.600 E0.20617 F720.000
G1 X-14.600 Y0.400 E0.70900
G1 X14.600 Y0.400 E2.25031
G1 X14.600 Y9.600 E0.70900
G1 X-11.865 Y9.600 E2.03952 F720.000
G1 X-12.125 Y9.254 F15000.000
G1 X-13.269 Y8.579 F15000.000
G1 X-13.579 Y8.269 E0.03419 F960.000
G1 X-13.579 Y7.359 E0.07111
G1 X-12.359 Y8.579 E0.13475
G1 X-11.448 Y8.579 E0.07111
G1 X-13.579 Y6.448 E0.23531
G1 X-13.579 Y5.537 E0.07111
G1 X-10.537 Y8.579 E0.33587
G1 X-9.626 Y8.579 E0.07111
G1 X-13.579 Y4.626 E0.43643
G1 X-13.579 Y3.716 E0.07111
G1 X-8.716 Y8.579 E0.53700
G1 X-7.805 Y8.579 E0.07111
G1 X-13.579 Y2.805 E0.63756
G1 X-13.579 Y1.894 E0.07111
G1 X-6.894 Y8.579 E0.73812
G1 X-5.984 Y8.579 E0.07111
G1 X-13.142 Y1.421 E0.79037
G1 X-12.231 Y1.421 E0.07111
G1 X-5.073 Y8.579 E0.79037
G1 X-4.162 Y8.579 E0.07111
G1 X-11.320 Y1.421 E0.79037
G1 X-10.409 Y1.421 E0.07111
G1 X-3.251 Y8.579 E0.79037
G1 X-2.341 Y8.579 E0.07111
G1 X-9.499 Y1.421 E0.79037
G1 X-8.588 Y1.421 E0.07111
G1 X-1.430 Y8.579 E0.79037
G1 X-0.519 Y8.579 E0.07111
G1 X-7.677 Y1.421 E0.79037
G1 X-6.766 Y1.421 E0.07111
G1 X0.391 Y8.579 E0.79037
G1 X1.302 Y8.579 E0.07111
G1 X-5.856 Y1.421 E0.79037
G1 X-4.945 Y1.421 E0.07111
G1 X2.213 Y8.579 E0.79037
G1 X3.124 Y8.579 E0.07111
G1 X-4.034 Y1.421 E0.79037
G1 X-3.124 Y1.421 E0.07111
G1 X4.034 Y8.579 E0.79037
G1 X4.945 Y8.579 E0.07111
G1 X-2.213 Y1.421 E0.79037
G1 X-1.302 Y1.421 E0.07111
G1 X5.856 Y8.579 E0.79037
G1 X6.766 Y8.579 E0.07111
G1 X-0.391 Y1.421 E0.79037
G1 X0.519 Y1.421 E0.07111
G1 X7.677 Y8.579 E0.79037
G1 X8.588 Y8.579 E0.07111
G1 X1.430 Y1.421 E0.79037
G1 X2.341 Y1.421 E0.07111
G1 X9.499 Y8.579 E0.79037
G1 X10.409 Y8.579 E0.07111
G1 X3.251 Y1.421 E0.79037
G1 X4.162 Y1.421 E0.07111
G1 X11.320 Y8.579 E0.79037
G1 X12.231 Y8.579 E0.07111
G1 X5.073 Y1.421 E0.79037
G1 X5.984 Y1.421 E0.07111
G1 X13.141 Y8.579 E0.79037
G1 X13.579 Y8.106 E0.05032
G1 X6.894 Y1.421 E0.73812
G1 X7.805 Y1.421 E0.07111
G1 X13.579 Y7.195 E0.63756
G1 X13.579 Y6.284 E0.07111
G1 X8.716 Y1.421 E0.53700
G1 X9.626 Y1.421 E0.07111
G1 X13.579 Y5.374 E0.43644
G1 X13.579 Y4.463 E0.07111
G1 X10.537 Y1.421 E0.33588
G1 X11.448 Y1.421 E0.07111
G1 X13.579 Y3.552 E0.23532
G1 X13.579 Y2.641 E0.07111
G1 X12.359 Y1.421 E0.13475
G1 X13.269 Y1.421 E0.07111
G1 X13.579 Y1.731 E0.03419
G1 E-4.20000 F1500.00000
G1 Z1.300 F15000.000
G1 Z0.300 F15000.000
G1 Z1.300 F15000.000
G1 X-7.078 Y-5.168 F15000.000
G1 Z0.300 F15000.000
G1 E4.20000 F1500.00000
G1 X-7.237 Y-4.746 E0.03481 F600.000
G1 X-7.445 Y-4.366 E0.03333
G1 X-7.710 Y-4.012 E0.03410
G1 X-8.023 Y-3.699 E0.03410
G1 X-8.377 Y-3.434 E0.03410
G1 X-8.765 Y-3.222 E0.03410
G1 X-9.180 Y-3.067 E0.03410
G1 X-9.612 Y-2.973 E0.03410
G1 X-10.053 Y-2.942 E0.03410
G1 X-10.495 Y-2.973 E0.03410
G1 X-10.927 Y-3.067 E0.03410
G1 X-11.342 Y-3.222 E0.03410
G1 X-11.730 Y-3.434 E0.03410
G1 X-12.084 Y-3.699 E0.03410
G1 X-12.397 Y-4.012 E0.03414
G1 X-12.667 Y-4.375 E0.03481
G1 X-12.874 Y-4.754 E0.03333
G1 X-13.029 Y-5.169 E0.03410
G1 X-13.123 Y-5.601 E0.03410
G1 X-13.154 Y-6.043 E0.03410
G1 X-13.123 Y-6.484 E0.03410
G1 X-13.029 Y-6.916 E0.03410
G1 X-12.874 Y-7.331 E0.03410
G1 X-12.662 Y-7.719 E0.03410
G1 X-12.397 Y-8.073 E0.03410
G1 X-12.084 Y-8.386 E0.03410
G1 X-11.730 Y-8.651 E0.03410
G1 X-11.342 Y-8.863 E0.03410
G1 X-10.927 Y-9.018 E0.03414
G1 X-10.485 Y-9.113 E0.03481
G1 X-10.053 Y-9.144 E0.03333 F600.000
G1 X-9.612 Y-9.112 E0.03410
G1 X-9.180 Y-9.018 E0.03410
G1 X-8.765 Y-8.863 E0.03410
G1 X-8.377 Y-8.651 E0.03410
G1 X-8.023 Y-8.386 E0.03410
G1 X-7.709 Y-8.073 E0.03414
G1 X-7.440 Y-7.711 E0.03481
G1 X-7.233 Y-7.331 E0.03333
G1 X-7.078 Y-6.916 E0.03410
G1 X-6.984 Y-6.484 E0.03410
G1 X-6.952 Y-6.043 E0.03410
G1 X-6.984 Y-5.601 E0.03410
G1 X-7.065 Y-5.227 E0.02952
G1 X-6.810 Y-4.872 F15000.000
G1 E-4.20000 F1500.00000
G1 Z1.300 F15000.000
G1 X-11.759 Y-10.007 F15000.000
G1 Z0.300 F15000.000
G1 E4.20000 F1500.00000
G1 X-10.974 Y-10.007 E0.06046 F600.000
G1 X-10.938 Y-9.666 E0.02644
G1 X-11.105 Y-9.630 E0.01316 F600.000
G1 X-11.606 Y-9.443 E0.04123
G1 X-12.074 Y-9.188 E0.04110
G1 X-12.501 Y-8.868 E0.04110
G1 X-12.879 Y-8.491 E0.04110
G1 X-13.198 Y-8.064 E0.04110
G1 X-13.454 Y-7.596 E0.04110
G1 X-13.640 Y-7.096 E0.04110
G1 X-13.677 Y-6.926 E0.01339
G1 X-14.018 Y-6.963 E0.02640
G1 X-14.018 Y-10.007 E0.23462
G1 X-11.819 Y-10.007 E0.16947
G1 X-14.018 Y-2.397 F15000.000
G1 X-14.018 Y-5.123 E0.21002 F600.000
G1 X-13.677 Y-5.159 E0.02640
G1 X-13.640 Y-4.990 E0.01339
G1 X-13.454 Y-4.490 E0.04111 F600.000
G1 X-13.203 Y-4.031 E0.04026
G1 X-12.880 Y-3.596 E0.04182
G1 X-12.501 Y-3.218 E0.04123
G1 X-12.074 Y-2.898 E0.04110
G1 X-11.606 Y-2.642 E0.04110
G1 X-11.107 Y-2.456 E0.04110
G1 X-10.937 Y-2.419 E0.01339
G1 X-10.973 Y-2.078 E0.02640
G1 X-14.018 Y-2.078 E0.23462
G1 X-14.018 Y-2.337 E0.01997
G1 E-4.20000 F1500.00000
G1 Z1.300 F15000.000
G1 X-6.147 Y-5.362 F15000.000
G1 Z0.300 F15000.000
G1 E4.20000 F1500.00000
G1 X-6.228 Y-5.699 E0.02668 F600.000
G1 X-6.254 Y-6.052 E0.02724
G1 X-6.228 Y-6.387 E0.02593
G1 X-6.147 Y-6.723 E0.02662
G1 X-6.015 Y-7.042 E0.02662
G1 X-5.834 Y-7.337 E0.02662
G1 X-5.610 Y-7.599 E0.02662
G1 X-5.347 Y-7.824 E0.02662
G1 X-5.053 Y-8.004 E0.02662
G1 X-4.733 Y-8.136 E0.02668
G1 X-4.389 Y-8.218 E0.02724
G1 X-4.053 Y-8.244 E0.02593 F600.000
G1 X-3.709 Y-8.217 E0.02662
G1 X-3.373 Y-8.136 E0.02662
G1 X-3.054 Y-8.004 E0.02662
G1 X-2.760 Y-7.824 E0.02662
G1 X-2.497 Y-7.599 E0.02662
G1 X-2.273 Y-7.337 E0.02662
G1 X-2.092 Y-7.042 E0.02662
G1 X-1.960 Y-6.723 E0.02662
G1 X-1.879 Y-6.387 E0.02662
G1 X-1.852 Y-6.043 E0.02662
G1 X-1.879 Y-5.698 E0.02662
G1 X-1.960 Y-5.362 E0.02662
G1 X-2.092 Y-5.043 E0.02662
G1 X-2.273 Y-4.749 E0.02662
G1 X-2.497 Y-4.486 E0.02668
G1 X-2.767 Y-4.257 E0.02724
G1 X-3.054 Y-4.081 E0.02593
G1 X-3.373 Y-3.949 E0.02662
G1 X-3.709 Y-3.869 E0.02662
G1 X-4.053 Y-3.841 E0.02662
G1 X-4.399 Y-3.869 E0.02668
G1 X-4.742 Y-3.953 E0.02724
G1 X-5.053 Y-4.081 E0.02593
G1 X-5.348 Y-4.262 E0.02668
G1 X-5.616 Y-4.493 E0.02724
G1 X-5.834 Y-4.749 E0.02593
G1 X-6.015 Y-5.043 E0.02662
G1 X-6.124 Y-5.307 E0.02200
G1 X-6.483 Y-5.443 F15000.000
G1 E-4.20000 F1500.00000
G1 Z1.300 F15000.000
G1 X-1.228 Y-5.699 F15000.000
G1 Z0.300 F15000.000
G1 E4.20000 F1500.00000
G1 X-1.254 Y-6.052 E0.02724 F600.000
G1 X-1.228 Y-6.387 E0.02593
G1 X-1.147 Y-6.723 E0.02662
G1 X-1.015 Y-7.042 E0.02662
G1 X-0.834 Y-7.337 E0.02662
G1 X-0.610 Y-7.599 E0.02662
G1 X-0.347 Y-7.824 E0.02662
G1 X-0.053 Y-8.004 E0.02662
G1 X0.267 Y-8.136 E0.02668
G1 X0.611 Y-8.218 E0.02724
G1 X0.947 Y-8.244 E0.02593 F600.000
G1 X1.291 Y-8.217 E0.02662
G1 X1.627 Y-8.136 E0.02662
G1 X1.946 Y-8.004 E0.02662
G1 X2.241 Y-7.823 E0.02668
G1 X2.509 Y-7.592 E0.02724
G1 X2.727 Y-7.337 E0.02593
G1 X2.908 Y-7.042 E0.02662
G1 X3.040 Y-6.723 E0.02662
G1 X3.121 Y-6.387 E0.02662
G1 X3.148 Y-6.043 E0.02662
G1 X3.121 Y-5.698 E0.02662
G1 X3.040 Y-5.362 E0.02662
G1 X2.908 Y-5.043 E0.02662
G1 X2.727 Y-4.749 E0.02662
G1 X2.503 Y-4.486 E0.02668
G1 X2.233 Y-4.257 E0.02724
G1 X1.946 Y-4.081 E0.02593
G1 X1.627 Y-3.949 E0.02662
G1 X1.291 Y-3.869 E0.02662
G1 X0.947 Y-3.841 E0.02662
G1 X0.601 Y-3.869 E0.02668
G1 X0.258 Y-3.953 E0.02724
G1 X-0.053 Y-4.081 E0.02593
G1 X-0.348 Y-4.262 E0.02668
G1 X-0.616 Y-4.493 E0.02724
G1 X-0.834 Y-4.749 E0.02593
G1 X-1.015 Y-5.043 E0.02662
G1 X-1.147 Y-5.362 E0.02662
G1 X-1.214 Y-5.641 E0.02205
G1 X-1.554 Y-5.835 F15000.000
G1 E-4.20000 F1500.00000
G1 Z1.300 F15000.000
G1 X3.746 Y-6.031 F15000.000
G1 Z0.300 F15000.000
G1 E4.20000 F1500.00000
G1 X3.772 Y-6.387 E0.02751 F600.000
G1 X3.853 Y-6.723 E0.02662
G1 X3.985 Y-7.042 E0.02662
G1 X4.166 Y-7.337 E0.02662
G1 X4.390 Y-7.599 E0.02662
G1 X4.653 Y-7.824 E0.02662
G1 X4.947 Y-8.004 E0.02662
G1 X5.267 Y-8.136 E0.02668
G1 X5.611 Y-8.218 E0.02724
G1 X5.947 Y-8.244 E0.02593 F600.000
G1 X6.291 Y-8.217 E0.02662
G1 X6.627 Y-8.136 E0.02662
G1 X6.946 Y-8.004 E0.02662
G1 X7.241 Y-7.823 E0.02668
G1 X7.509 Y-7.592 E0.02724
G1 X7.727 Y-7.337 E0.02593
G1 X7.908 Y-7.042 E0.02662
G1 X8.040 Y-6.723 E0.02662
G1 X8.121 Y-6.387 E0.02662
G1 X8.148 Y-6.043 E0.02662
G1 X8.121 Y-5.698 E0.02662
G1 X8.040 Y-5.362 E0.02662
G1 X7.908 Y-5.043 E0.02662
G1 X7.727 Y-4.749 E0.02662
G1 X7.503 Y-4.486 E0.02668
G1 X7.233 Y-4.257 E0.02724
G1 X6.946 Y-4.081 E0.02593
G1 X6.627 Y-3.949 E0.02662
G1 X6.291 Y-3.869 E0.02662
G1 X5.947 Y-3.841 E0.02662
G1 X5.601 Y-3.869 E0.02668
G1 X5.258 Y-3.953 E0.02724
G1 X4.947 Y-4.081 E0.02593
G1 X4.652 Y-4.262 E0.02668
G1 X4.384 Y-4.493 E0.02724
G1 X4.166 Y-4.749 E0.02593
G1 X3.985 Y-5.043 E0.02662
G1 X3.853 Y-5.362 E0.02662
G1 X3.772 Y-5.698 E0.02662
G1 X3.751 Y-5.971 E0.02110
G1 X3.441 Y-6.217 F15000.000
G1 E-4.20000 F1500.00000
G1 Z1.300 F15000.000
G1 X8.745 Y-6.043 F15000.000
G1 Z0.300 F15000.000
G1 E4.20000 F1500.00000
G1 X8.772 Y-6.387 E0.02662 F600.000
G1 X8.853 Y-6.723 E0.02662
G1 X8.985 Y-7.042 E0.02662
G1 X9.166 Y-7.337 E0.02662
G1 X9.390 Y-7.599 E0.02662
G1 X9.653 Y-7.824 E0.02662
G1 X9.947 Y-8.004 E0.02662
G1 X10.267 Y-8.136 E0.02668
G1 X10.611 Y-8.218 E0.02724
G1 X10.947 Y-8.244 E0.02593 F600.000
G1 X11.291 Y-8.217 E0.02662
G1 X11.627 Y-8.136 E0.02662
G1 X11.946 Y-8.004 E0.02662
G1 X12.241 Y-7.823 E0.02668
G1 X12.509 Y-7.592 E0.02724
G1 X12.727 Y-7.337 E0.02593
G1 X12.908 Y-7.042 E0.02662
G1 X13.040 Y-6.723 E0.02662
G1 X13.121 Y-6.387 E0.02662
G1 X13.148 Y-6.043 E0.02662
G1 X13.121 Y-5.698 E0.02662
G1 X13.040 Y-5.362 E0.02662
G1 X12.908 Y-5.043 E0.02662
G1 X12.727 Y-4.749 E0.02662
G1 X12.503 Y-4.486 E0.02668
G1 X12.233 Y-4.257 E0.02724
G1 X11.946 Y-4.081 E0.02593
G1 X11.627 Y-3.949 E0.02662
G1 X11.291 Y-3.869 E0.02662
G1 X10.947 Y-3.841 E0.02662
G1 X10.601 Y-3.869 E0.02668
G1 X10.258 Y-3.953 E0.02724
G1 X9.947 Y-4.081 E0.02593
G1 X9.652 Y-4.262 E0.02668
G1 X9.384 Y-4.493 E0.02724
G1 X9.166 Y-4.749 E0.02593
G1 X8.985 Y-5.043 E0.02662
G1 X8.853 Y-5.362 E0.02662
G1 X8.772 Y-5.698 E0.02662
G1 X8.750 Y-5.983 E0.02199
G1 X8.451 Y-6.223 F15000.000
G1 E-4.20000 F1500.00000
G1 Z1.300 F15000.000
G1 X-6.544 Y-7.395 F15000.000
G1 Z0.300 F15000.000
G1 E4.20000 F1500.00000
G1 X-6.903 Y-8.054 E0.05784 F720.000
G1 X-7.227 Y-8.490 E0.04182
G1 X-7.605 Y-8.868 E0.04123
G1 X-8.032 Y-9.188 E0.04110
G1 X-8.500 Y-9.443 E0.04110
G1 X-9.000 Y-9.630 E0.04111
G1 X-9.170 Y-9.666 E0.01339
G1 X-9.133 Y-10.007 E0.02640
G1 X13.911 Y-10.007 E1.77593
G1 X13.911 Y-7.084 E0.22531
G1 X13.604 Y-7.022 E0.02412 F720.000
G1 X13.476 Y-7.332 E0.02578
G1 X13.243 Y-7.711 E0.03433
G1 X12.961 Y-8.042 E0.03354
G1 X12.617 Y-8.338 E0.03495
G1 X12.235 Y-8.572 E0.03449
G1 X11.824 Y-8.743 E0.03433
G1 X11.391 Y-8.847 E0.03433
G1 X10.947 Y-8.882 E0.03433
G1 X10.513 Y-8.847 E0.03354
G1 X10.071 Y-8.743 E0.03495
G1 X9.658 Y-8.572 E0.03449
G1 X9.278 Y-8.339 E0.03433
G1 X8.939 Y-8.050 E0.03433
G1 X8.650 Y-7.711 E0.03433
G1 X8.447 Y-7.379 E0.02999
G1 X8.243 Y-7.711 E0.02999
G1 X7.961 Y-8.042 E0.03354
G1 X7.617 Y-8.338 E0.03495
G1 X7.235 Y-8.572 E0.03449
G1 X6.824 Y-8.743 E0.03433
G1 X6.391 Y-8.847 E0.03433
G1 X5.947 Y-8.882 E0.03433
G1 X5.513 Y-8.847 E0.03354
G1 X5.071 Y-8.743 E0.03495
G1 X4.658 Y-8.572 E0.03449
G1 X4.278 Y-8.339 E0.03433
G1 X3.939 Y-8.050 E0.03433
G1 X3.650 Y-7.711 E0.03433
G1 X3.447 Y-7.379 E0.02999
G1 X3.243 Y-7.711 E0.02999
G1 X2.961 Y-8.042 E0.03354
G1 X2.617 Y-8.338 E0.03495
G1 X2.235 Y-8.572 E0.03449
G1 X1.824 Y-8.743 E0.03433
G1 X1.391 Y-8.847 E0.03433
G1 X0.947 Y-8.882 E0.03433
G1 X0.513 Y-8.847 E0.03354
G1 X0.071 Y-8.743 E0.03495
G1 X-0.342 Y-8.572 E0.03449
G1 X-0.722 Y-8.339 E0.03433
G1 X-1.061 Y-8.050 E0.03433
G1 X-1.350 Y-7.711 E0.03433
G1 X-1.553 Y-7.379 E0.02999
G1 X-1.757 Y-7.711 E0.02999
G1 X-2.046 Y-8.050 E0.03433
G1 X-2.385 Y-8.339 E0.03433
G1 X-2.765 Y-8.572 E0.03433
G1 X-3.176 Y-8.743 E0.03433
G1 X-3.609 Y-8.847 E0.03433
G1 X-4.053 Y-8.882 E0.03433
G1 X-4.487 Y-8.847 E0.03354
G1 X-4.929 Y-8.743 E0.03495
G1 X-5.342 Y-8.572 E0.03449
G1 X-5.722 Y-8.339 E0.03433
G1 X-6.061 Y-8.050 E0.03433
G1 X-6.350 Y-7.711 E0.03433
G1 X-6.512 Y-7.447 E0.02393
G1 E-4.20000 F1500.00000
G1 Z1.300 F15000.000
G1 X13.604 Y-5.063 F15000.000
G1 Z0.300 F15000.000
G1 E4.20000 F1500.00000
G1 X13.911 Y-5.002 E0.02412 F720.000
G1 X13.911 Y-2.078 E0.22531 F720.000
G1 X-9.133 Y-2.078 E1.77593
G1 X-9.170 Y-2.419 E0.02640
G1 X-9.000 Y-2.456 E0.01339
G1 X-8.500 Y-2.642 E0.04111
G1 X-8.032 Y-2.898 E0.04110
G1 X-7.605 Y-3.218 E0.04110
G1 X-7.228 Y-3.595 E0.04110
G1 X-6.909 Y-4.022 E0.04110
G1 X-6.544 Y-4.690 E0.05868
G1 X-6.350 Y-4.374 E0.02855
G1 X-6.067 Y-4.043 E0.03354
G1 X-5.724 Y-3.747 E0.03495
G1 X-5.342 Y-3.513 E0.03449
G1 X-4.940 Y-3.347 E0.03354
G1 X-4.500 Y-3.239 E0.03495
G1 X-4.053 Y-3.204 E0.03449
G1 X-3.609 Y-3.239 E0.03433
G1 X-3.176 Y-3.343 E0.03433
G1 X-2.765 Y-3.513 E0.03433
G1 X-2.394 Y-3.741 E0.03354
G1 X-2.047 Y-4.034 E0.03495
G1 X-1.757 Y-4.374 E0.03449
G1 X-1.553 Y-4.706 E0.02999
G1 X-1.350 Y-4.374 E0.02999
G1 X-1.067 Y-4.043 E0.03354
G1 X-0.724 Y-3.747 E0.03495
G1 X-0.342 Y-3.513 E0.03449
G1 X0.060 Y-3.347 E0.03354
G1 X0.500 Y-3.239 E0.03495
G1 X0.947 Y-3.204 E0.03449
G1 X1.391 Y-3.239 E0.03433
G1 X1.824 Y-3.343 E0.03433
G1 X2.235 Y-3.513 E0.03433
G1 X2.606 Y-3.741 E0.03354
G1 X2.953 Y-4.034 E0.03495
G1 X3.243 Y-4.374 E0.03449
G1 X3.447 Y-4.706 E0.02999
G1 X3.650 Y-4.374 E0.02999
G1 X3.933 Y-4.043 E0.03354
G1 X4.276 Y-3.747 E0.03495
G1 X4.658 Y-3.513 E0.03449
G1 X5.060 Y-3.347 E0.03354
G1 X5.500 Y-3.239 E0.03495
G1 X5.947 Y-3.204 E0.03449
G1 X6.391 Y-3.239 E0.03433
G1 X6.824 Y-3.343 E0.03433
G1 X7.235 Y-3.513 E0.03433
G1 X7.606 Y-3.741 E0.03354
G1 X7.953 Y-4.034 E0.03495
G1 X8.243 Y-4.374 E0.03449
G1 X8.447 Y-4.706 E0.02999
G1 X8.650 Y-4.374 E0.02999
G1 X8.933 Y-4.043 E0.03354
G1 X9.276 Y-3.747 E0.03495
G1 X9.658 Y-3.513 E0.03449
G1 X10.060 Y-3.347 E0.03354
G1 X10.500 Y-3.239 E0.03495
G1 X10.947 Y-3.204 E0.03449
G1 X11.391 Y-3.239 E0.03433
G1 X11.824 Y-3.343 E0.03433
G1 X12.235 Y-3.513 E0.03433
G1 X12.606 Y-3.741 E0.03354
G1 X12.953 Y-4.034 E0.03495
G1 X13.243 Y-4.374 E0.03449
G1 X13.476 Y-4.754 E0.03433
G1 X13.581 Y-5.008 E0.02115
G1 X14.547 Y-5.008 F15000.000
G1 X14.547 Y-1.443 E0.27472 F720.000
G1 X-14.653 Y-1.443 E2.25031 F720.000
G1 X-14.653 Y-10.643 E0.70900
G1 X14.547 Y-10.643 E2.25031
G1 X14.547 Y-5.068 E0.42966
G1 X14.200 Y-4.808 F15000.000
G1 X13.821 Y-5.344 F15000.000
G1 X13.847 Y-6.073 E0.11810 F960.000
G1 X13.821 Y-6.742 E0.10840
G1 X13.018 Y-8.650 F15000.000
G1 X12.670 Y-8.999 E0.04936 F960.000
G1 X13.216 Y-9.622 E0.08302
G1 X13.526 Y-9.312 E0.04389
G1 X12.335 Y-9.323 F15000.000
G1 X11.503 Y-9.422 E0.13573 F960.000
G1 X10.966 Y-9.444 E0.08708
G1 X10.402 Y-9.422 E0.09131
G1 X9.558 Y-9.324 E0.13773
G1 X9.155 Y-9.309 F15000.000
G1 X8.842 Y-9.622 E0.06801 F960.000
G1 X8.018 Y-8.650 E0.19604
G1 X7.670 Y-8.999 E0.07580
G1 X7.335 Y-9.323 F15000.000
G1 X6.503 Y-9.422 E0.13573 F960.000
G1 X5.966 Y-9.444 E0.08708
