; pcb2gcode 2.0.0 
; Software-independent Gcode 

; This file uses only one drill bit. Forced by 'onedrill' option 

G94       ;Millimeters per minute feed rate.
G21       ;Units == Millimeters.
G90       ;Absolute coordinates.
;G1 F3000 S10000     ;RPM spindle speed.

G1 F3000 Z3.00000 ;Retract
;T1
;M5      ;Spindle stop.
;G04 P1.00000
;MSG, Change tool bit to drill size 0.9 mm
;M6      ;Tool change.
;M0      ;Temporary machine stop.
;M3      ;Spindle on clockwise.
G1 F3000 Z3.00000
;G04 P1.00000

;F1000.00000
G1 F3000 X7.76500 Y10.81300
G1 F300 Z-2.50000
G1 F300 Z3.00000
G1 F3000 X7.25700 Y13.60700
G1 F300 Z-2.50000
G1 F300 Z3.00000
G1 F3000 X14.87700 Y17.41700
G1 F300 Z-2.50000
G1 F300 Z3.00000
G1 F3000 X15.76300 Y9.16500
G1 F300 Z-2.50000
G1 F300 Z3.00000
G1 F3000 X14.01100 Y2.61900
G1 F300 Z-2.50000
G1 F300 Z3.00000
G1 F3000 X18.94100 Y8.52700
G1 F300 Z-2.50000
G1 F300 Z3.00000
G1 F3000 X27.57700 Y9.79700
G1 F300 Z-2.50000
G1 F300 Z3.00000
G1 F3000 X28.33900 Y6.74900
G1 F300 Z-2.50000
G1 F300 Z3.00000
G1 F3000 X27.98100 Y2.61900
G1 F300 Z-2.50000
G1 F300 Z3.00000
G1 F3000 X30.52100 Y2.61900
G1 F300 Z-2.50000
G1 F300 Z3.00000
G1 F3000 X33.06100 Y2.61900
G1 F300 Z-2.50000
G1 F300 Z3.00000
G1 F3000 X35.60100 Y2.61900
G1 F300 Z-2.50000
G1 F300 Z3.00000
G1 F3000 X38.14100 Y2.61900
G1 F300 Z-2.50000
G1 F300 Z3.00000
G1 F3000 X40.68100 Y2.61900
G1 F300 Z-2.50000
G1 F300 Z3.00000
G1 F3000 X43.22100 Y2.61900
G1 F300 Z-2.50000
G1 F300 Z3.00000
G1 F3000 X45.76100 Y2.61900
G1 F300 Z-2.50000
G1 F300 Z3.00000
G1 F3000 X50.84100 Y2.61900
G1 F300 Z-2.50000
G1 F300 Z3.00000
G1 F3000 X53.38100 Y2.61900
G1 F300 Z-2.50000
G1 F300 Z3.00000
G1 F3000 X55.92100 Y2.61900
G1 F300 Z-2.50000
G1 F300 Z3.00000
G1 F3000 X58.46100 Y2.61900
G1 F300 Z-2.50000
G1 F300 Z3.00000
G1 F3000 X61.00100 Y2.61900
G1 F300 Z-2.50000
G1 F300 Z3.00000
G1 F3000 X63.54100 Y2.61900
G1 F300 Z-2.50000
G1 F300 Z3.00000
G1 F3000 X66.08100 Y2.61900
G1 F300 Z-2.50000
G1 F300 Z3.00000
G1 F3000 X68.62100 Y2.61900
G1 F300 Z-2.50000
G1 F300 Z3.00000
G1 F3000 X73.70100 Y2.61900
G1 F300 Z-2.50000
G1 F300 Z3.00000
G1 F3000 X76.24100 Y2.61900
G1 F300 Z-2.50000
G1 F300 Z3.00000
G1 F3000 X78.78100 Y2.61900
G1 F300 Z-2.50000
G1 F300 Z3.00000
G1 F3000 X81.32100 Y2.61900
G1 F300 Z-2.50000
G1 F300 Z3.00000
G1 F3000 X83.86100 Y2.61900
G1 F300 Z-2.50000
G1 F300 Z3.00000
G1 F3000 X86.40100 Y2.61900
G1 F300 Z-2.50000
G1 F300 Z3.00000
G1 F3000 X88.94100 Y2.61900
G1 F300 Z-2.50000
G1 F300 Z3.00000
G1 F3000 X91.48100 Y2.61900
G1 F300 Z-2.50000
G1 F300 Z3.00000
G1 F3000 X96.56100 Y2.61900
G1 F300 Z-2.50000
G1 F300 Z3.00000
G1 F3000 X96.56100 Y7.69900
G1 F300 Z-2.50000
G1 F300 Z3.00000
G1 F3000 X94.02100 Y7.69900
G1 F300 Z-2.50000
G1 F300 Z3.00000
G1 F3000 X96.56100 Y10.23900
G1 F300 Z-2.50000
G1 F300 Z3.00000
G1 F3000 X96.56100 Y12.77900
G1 F300 Z-2.50000
G1 F300 Z3.00000
G1 F3000 X96.56100 Y15.31900
G1 F300 Z-2.50000
G1 F300 Z3.00000
G1 F3000 X96.56100 Y17.85900
G1 F300 Z-2.50000
G1 F300 Z3.00000
G1 F3000 X96.56100 Y20.39900
G1 F300 Z-2.50000
G1 F300 Z3.00000
G1 F3000 X96.56100 Y22.93900
G1 F300 Z-2.50000
G1 F300 Z3.00000
G1 F3000 X96.56100 Y25.47900
G1 F300 Z-2.50000
G1 F300 Z3.00000
G1 F3000 X94.02100 Y25.47900
G1 F300 Z-2.50000
G1 F300 Z3.00000
G1 F3000 X94.02100 Y22.93900
G1 F300 Z-2.50000
G1 F300 Z3.00000
G1 F3000 X94.02100 Y20.39900
G1 F300 Z-2.50000
G1 F300 Z3.00000
G1 F3000 X94.02100 Y17.85900
G1 F300 Z-2.50000
G1 F300 Z3.00000
G1 F3000 X94.02100 Y15.31900
G1 F300 Z-2.50000
G1 F300 Z3.00000
G1 F3000 X94.02100 Y12.77900
G1 F300 Z-2.50000
G1 F300 Z3.00000
G1 F3000 X94.02100 Y10.23900
G1 F300 Z-2.50000
G1 F300 Z3.00000
G1 F3000 X80.66300 Y8.27300
G1 F300 Z-2.50000
G1 F300 Z3.00000
G1 F3000 X75.32900 Y8.52700
G1 F300 Z-2.50000
G1 F300 Z3.00000
G1 F3000 X73.04300 Y13.35300
G1 F300 Z-2.50000
G1 F300 Z3.00000
G1 F3000 X70.50300 Y13.35300
G1 F300 Z-2.50000
G1 F300 Z3.00000
G1 F3000 X67.96300 Y15.89300
G1 F300 Z-2.50000
G1 F300 Z3.00000
G1 F3000 X63.89900 Y14.36900
G1 F300 Z-2.50000
G1 F300 Z3.00000
G1 F3000 X57.99100 Y12.52500
G1 F300 Z-2.50000
G1 F300 Z3.00000
G1 F3000 X53.48500 Y5.73300
G1 F300 Z-2.50000
G1 F300 Z3.00000
G1 F3000 X50.94500 Y5.73300
G1 F300 Z-2.50000
G1 F300 Z3.00000
G1 F3000 X46.37300 Y10.05100
G1 F300 Z-2.50000
G1 F300 Z3.00000
G1 F3000 X40.53100 Y8.52700
G1 F300 Z-2.50000
G1 F300 Z3.00000
G1 F3000 X37.48300 Y8.01900
G1 F300 Z-2.50000
G1 F300 Z3.00000
G1 F3000 X29.35500 Y13.09900
G1 F300 Z-2.50000
G1 F300 Z3.00000
G1 F3000 X31.64100 Y16.90900
G1 F300 Z-2.50000
G1 F300 Z3.00000
G1 F3000 X23.51300 Y22.24300
G1 F300 Z-2.50000
G1 F300 Z3.00000
G1 F3000 X24.52900 Y31.13300
G1 F300 Z-2.50000
G1 F300 Z3.00000
G1 F3000 X40.53100 Y31.13300
G1 F300 Z-2.50000
G1 F300 Z3.00000
G1 F3000 X39.26100 Y17.41700
G1 F300 Z-2.50000
G1 F300 Z3.00000
G1 F3000 X43.83300 Y19.70300
G1 F300 Z-2.50000
G1 F300 Z3.00000
G1 F3000 X49.16700 Y19.44900
G1 F300 Z-2.50000
G1 F300 Z3.00000
G1 F3000 X53.99300 Y15.89300
G1 F300 Z-2.50000
G1 F300 Z3.00000
G1 F3000 X57.29500 Y16.90900
G1 F300 Z-2.50000
G1 F300 Z3.00000
G1 F3000 X57.29500 Y20.71900
G1 F300 Z-2.50000
G1 F300 Z3.00000
G1 F3000 X60.34300 Y20.71900
G1 F300 Z-2.50000
G1 F300 Z3.00000
G1 F3000 X66.94700 Y23.76700
G1 F300 Z-2.50000
G1 F300 Z3.00000
G1 F3000 X67.96300 Y18.43300
G1 F300 Z-2.50000
G1 F300 Z3.00000
G1 F3000 X70.50300 Y20.97300
G1 F300 Z-2.50000
G1 F300 Z3.00000
G1 F3000 X73.04300 Y20.97300
G1 F300 Z-2.50000
G1 F300 Z3.00000
G1 F3000 X75.58300 Y18.43300
G1 F300 Z-2.50000
G1 F300 Z3.00000
G1 F3000 X75.58300 Y15.89300
G1 F300 Z-2.50000
G1 F300 Z3.00000
G1 F3000 X79.13900 Y15.89300
G1 F300 Z-2.50000
G1 F300 Z3.00000
G1 F3000 X80.40900 Y20.71900
G1 F300 Z-2.50000
G1 F300 Z3.00000
G1 F3000 X87.01300 Y23.00500
G1 F300 Z-2.50000
G1 F300 Z3.00000
G1 F3000 X94.02100 Y28.01900
G1 F300 Z-2.50000
G1 F300 Z3.00000
G1 F3000 X96.56100 Y28.01900
G1 F300 Z-2.50000
G1 F300 Z3.00000
G1 F3000 X96.56100 Y30.55900
G1 F300 Z-2.50000
G1 F300 Z3.00000
G1 F3000 X94.02100 Y30.55900
G1 F300 Z-2.50000
G1 F300 Z3.00000
G1 F3000 X94.02100 Y33.09900
G1 F300 Z-2.50000
G1 F300 Z3.00000
G1 F3000 X96.56100 Y33.09900
G1 F300 Z-2.50000
G1 F300 Z3.00000
G1 F3000 X96.56100 Y35.63900
G1 F300 Z-2.50000
G1 F300 Z3.00000
G1 F3000 X94.02100 Y35.63900
G1 F300 Z-2.50000
G1 F300 Z3.00000
G1 F3000 X94.02100 Y38.17900
G1 F300 Z-2.50000
G1 F300 Z3.00000
G1 F3000 X96.56100 Y38.17900
G1 F300 Z-2.50000
G1 F300 Z3.00000
G1 F3000 X96.56100 Y40.71900
G1 F300 Z-2.50000
G1 F300 Z3.00000
G1 F3000 X94.02100 Y40.71900
G1 F300 Z-2.50000
G1 F300 Z3.00000
G1 F3000 X94.02100 Y43.25900
G1 F300 Z-2.50000
G1 F300 Z3.00000
G1 F3000 X96.56100 Y43.25900
G1 F300 Z-2.50000
G1 F300 Z3.00000
G1 F3000 X96.56100 Y45.79900
G1 F300 Z-2.50000
G1 F300 Z3.00000
G1 F3000 X96.56100 Y48.33900
G1 F300 Z-2.50000
G1 F300 Z3.00000
G1 F3000 X96.56100 Y50.87900
G1 F300 Z-2.50000
G1 F300 Z3.00000
G1 F3000 X94.02100 Y50.87900
G1 F300 Z-2.50000
G1 F300 Z3.00000
G1 F3000 X94.02100 Y48.33900
G1 F300 Z-2.50000
G1 F300 Z3.00000
G1 F3000 X94.02100 Y45.79900
G1 F300 Z-2.50000
G1 F300 Z3.00000
G1 F3000 X90.21100 Y50.87900
G1 F300 Z-2.50000
G1 F300 Z3.00000
G1 F3000 X86.40100 Y50.87900
G1 F300 Z-2.50000
G1 F300 Z3.00000
G1 F3000 X83.86100 Y50.87900
G1 F300 Z-2.50000
G1 F300 Z3.00000
G1 F3000 X81.32100 Y50.87900
G1 F300 Z-2.50000
G1 F300 Z3.00000
G1 F3000 X78.78100 Y50.87900
G1 F300 Z-2.50000
G1 F300 Z3.00000
G1 F3000 X76.24100 Y50.87900
G1 F300 Z-2.50000
G1 F300 Z3.00000
G1 F3000 X73.70100 Y50.87900
G1 F300 Z-2.50000
G1 F300 Z3.00000
G1 F3000 X71.16100 Y50.87900
G1 F300 Z-2.50000
G1 F300 Z3.00000
G1 F3000 X68.62100 Y50.87900
G1 F300 Z-2.50000
G1 F300 Z3.00000
G1 F3000 X63.54100 Y50.87900
G1 F300 Z-2.50000
G1 F300 Z3.00000
G1 F3000 X61.00100 Y50.87900
G1 F300 Z-2.50000
G1 F300 Z3.00000
G1 F3000 X58.46100 Y50.87900
G1 F300 Z-2.50000
G1 F300 Z3.00000
G1 F3000 X55.92100 Y50.87900
G1 F300 Z-2.50000
G1 F300 Z3.00000
G1 F3000 X53.38100 Y50.87900
G1 F300 Z-2.50000
G1 F300 Z3.00000
G1 F3000 X50.84100 Y50.87900
G1 F300 Z-2.50000
G1 F300 Z3.00000
G1 F3000 X48.30100 Y50.87900
G1 F300 Z-2.50000
G1 F300 Z3.00000
G1 F3000 X45.76100 Y50.87900
G1 F300 Z-2.50000
G1 F300 Z3.00000
G1 F3000 X41.69700 Y50.87900
G1 F300 Z-2.50000
G1 F300 Z3.00000
G1 F3000 X39.15700 Y50.87900
G1 F300 Z-2.50000
G1 F300 Z3.00000
G1 F3000 X36.61700 Y50.87900
G1 F300 Z-2.50000
G1 F300 Z3.00000
G1 F3000 X34.07700 Y50.87900
G1 F300 Z-2.50000
G1 F300 Z3.00000
G1 F3000 X31.53700 Y50.87900
G1 F300 Z-2.50000
G1 F300 Z3.00000
G1 F3000 X28.99700 Y50.87900
G1 F300 Z-2.50000
G1 F300 Z3.00000
G1 F3000 X26.45700 Y50.87900
G1 F300 Z-2.50000
G1 F300 Z3.00000
G1 F3000 X23.91700 Y50.87900
G1 F300 Z-2.50000
G1 F300 Z3.00000
G1 F3000 X21.37700 Y50.87900
G1 F300 Z-2.50000
G1 F300 Z3.00000
G1 F3000 X18.83700 Y50.87900
G1 F300 Z-2.50000
G1 F300 Z3.00000
G1 F3000 X15.28100 Y50.87900
G1 F300 Z-2.50000
G1 F300 Z3.00000

G1 F3000 Z3.000 ; All done -- retract 

;M5      ;Spindle off.
;G04 P1.000000
;M9      ;Coolant off.
M0      ;Program end.

