; pcb2gcode 2.0.0 
; Software-independent Gcode 

G94 ; Millimeters per minute feed rate. 
G21 ; Units == Millimeters. 

G90 ; Absolute coordinates. 
;G1 F3000 S10000 ; RPM spindle speed. 
G1 F300 F600.00000 ; Feedrate. 


G1 F3000 Z3.00000 ;Retract to tool change height
;T0
;M5      ;Spindle stop.
;G04 P1.00000 ;Wait for spindle to stop
;MSG, Change tool bit to mill diameter 0.12000mm
;M6      ;Tool change.
;M0      ;Temporary machine stop.
;M3 ; Spindle on clockwise. 
;G04 P1.00000 ;Wait for spindle to get up to speed
;G04 P0 ; dwell for no time -- G64 should not smooth over this point 
G1 F3000 Z3.00000 ; retract 

G1 F3000 X17.91372 Y50.87274 ; rapid move to begin. 
G1 F300 F300.00000
G1 F300 Z-0.07000
;G04 P0 ; dwell for no time -- G64 should not smooth over this point 
G1 F300 F600.00000
G1 F300 X17.91372 Y50.87274
G1 F300 X17.93356 Y50.68699
G1 F300 X17.99322 Y50.50334
G1 F300 X18.08637 Y50.34139
G1 F300 X18.21898 Y50.19265
G1 F300 X18.38078 Y50.07629
G1 F300 X18.55157 Y50.00063
G1 F300 X18.73424 Y49.96146
G1 F300 X18.92726 Y49.96014
G1 F300 X19.12241 Y50.00063
G1 F300 X19.29320 Y50.07629
G1 F300 X19.45499 Y50.19265
G1 F300 X19.58024 Y50.33126
G1 F300 X19.68075 Y50.50334
G1 F300 X19.73879 Y50.68092
G1 F300 X19.76025 Y50.88528
G1 F300 X19.74041 Y51.07103
G1 F300 X19.68075 Y51.25468
G1 F300 X19.58761 Y51.41663
G1 F300 X19.45499 Y51.56537
G1 F300 X19.29320 Y51.68173
G1 F300 X19.12241 Y51.75742
G1 F300 X18.93973 Y51.79656
G1 F300 X18.74672 Y51.79788
G1 F300 X18.55157 Y51.75742
G1 F300 X18.38078 Y51.68173
G1 F300 X18.21453 Y51.56095
G1 F300 X18.08637 Y51.41663
G1 F300 X17.99322 Y51.25468
G1 F300 X17.93356 Y51.07103
G1 F300 X17.91372 Y50.87274
;G04 P0 ; dwell for no time -- G64 should not smooth over this point 
G1 F3000 Z3.00000 ; retract 

G1 F3000 X20.45372 Y50.87274 ; rapid move to begin. 
G1 F300 F300.00000
G1 F300 Z-0.07000
;G04 P0 ; dwell for no time -- G64 should not smooth over this point 
G1 F300 F600.00000
G1 F300 X20.45372 Y50.87274
G1 F300 X20.47356 Y50.68699
G1 F300 X20.53322 Y50.50334
G1 F300 X20.62637 Y50.34139
G1 F300 X20.75898 Y50.19265
G1 F300 X20.92078 Y50.07629
G1 F300 X21.09157 Y50.00063
G1 F300 X21.27424 Y49.96146
G1 F300 X21.46726 Y49.96014
G1 F300 X21.66241 Y50.00063
G1 F300 X21.83320 Y50.07629
G1 F300 X21.99499 Y50.19265
G1 F300 X22.12024 Y50.33126
G1 F300 X22.22075 Y50.50334
G1 F300 X22.27879 Y50.68092
G1 F300 X22.30025 Y50.88528
G1 F300 X22.28041 Y51.07103
G1 F300 X22.22075 Y51.25468
G1 F300 X22.12761 Y51.41663
G1 F300 X21.99499 Y51.56537
G1 F300 X21.83320 Y51.68173
G1 F300 X21.66241 Y51.75742
G1 F300 X21.47973 Y51.79656
G1 F300 X21.28672 Y51.79788
G1 F300 X21.09157 Y51.75742
G1 F300 X20.92078 Y51.68173
G1 F300 X20.75453 Y51.56095
G1 F300 X20.62637 Y51.41663
G1 F300 X20.53322 Y51.25468
G1 F300 X20.47356 Y51.07103
G1 F300 X20.45372 Y50.87274
;G04 P0 ; dwell for no time -- G64 should not smooth over this point 
G1 F3000 Z3.00000 ; retract 

G1 F3000 X22.99372 Y50.87274 ; rapid move to begin. 
G1 F300 F300.00000
G1 F300 Z-0.07000
;G04 P0 ; dwell for no time -- G64 should not smooth over this point 
G1 F300 F600.00000
G1 F300 X22.99372 Y50.87274
G1 F300 X23.01356 Y50.68699
G1 F300 X23.07322 Y50.50334
G1 F300 X23.16637 Y50.34139
G1 F300 X23.29898 Y50.19265
G1 F300 X23.46078 Y50.07629
G1 F300 X23.63157 Y50.00063
G1 F300 X23.81424 Y49.96146
G1 F300 X24.00726 Y49.96014
G1 F300 X24.20241 Y50.00063
G1 F300 X24.37320 Y50.07629
G1 F300 X24.53499 Y50.19265
G1 F300 X24.66024 Y50.33126
G1 F300 X24.76075 Y50.50334
G1 F300 X24.81879 Y50.68092
G1 F300 X24.84025 Y50.88528
G1 F300 X24.82041 Y51.07103
G1 F300 X24.76075 Y51.25468
G1 F300 X24.66761 Y51.41663
G1 F300 X24.53499 Y51.56537
G1 F300 X24.37320 Y51.68173
G1 F300 X24.20241 Y51.75742
G1 F300 X24.01973 Y51.79656
G1 F300 X23.82672 Y51.79788
G1 F300 X23.63157 Y51.75742
G1 F300 X23.46078 Y51.68173
G1 F300 X23.29453 Y51.56095
G1 F300 X23.16637 Y51.41663
G1 F300 X23.07322 Y51.25468
G1 F300 X23.01356 Y51.07103
G1 F300 X22.99372 Y50.87274
;G04 P0 ; dwell for no time -- G64 should not smooth over this point 
G1 F3000 Z3.00000 ; retract 

G1 F3000 X28.07372 Y50.87274 ; rapid move to begin. 
G1 F300 F300.00000
G1 F300 Z-0.07000
;G04 P0 ; dwell for no time -- G64 should not smooth over this point 
G1 F300 F600.00000
G1 F300 X28.07372 Y50.87274
G1 F300 X28.09356 Y50.68699
G1 F300 X28.15322 Y50.50334
G1 F300 X28.25373 Y50.33126
G1 F300 X28.37898 Y50.19265
G1 F300 X28.43697 Y50.15011
G1 F300 X28.43697 Y26.51769
G1 F300 X28.38914 Y26.46047
G1 F300 X28.34596 Y26.35021
G1 F300 X28.34129 Y25.80339
G1 F300 X28.36211 Y25.69857
G1 F300 X28.42600 Y25.59885
G1 F300 X28.48104 Y25.55369
G1 F300 X28.57977 Y25.51277
G1 F300 X29.12401 Y25.49377
G1 F300 X29.56310 Y25.50581
G1 F300 X29.66793 Y25.52666
G1 F300 X29.73072 Y25.56021
G1 F300 X29.80628 Y25.63578
G1 F300 X29.83986 Y25.69857
G1 F300 X29.86097 Y25.80926
G1 F300 X29.86097 Y26.29676
G1 F300 X29.83534 Y26.41833
G1 F300 X29.76765 Y26.51551
G1 F300 X29.66793 Y26.57936
G1 F300 X29.55698 Y26.60052
G1 F300 X29.55698 Y50.15008
G1 F300 X29.61499 Y50.19265
G1 F300 X29.74024 Y50.33126
G1 F300 X29.84075 Y50.50334
G1 F300 X29.90041 Y50.68699
G1 F300 X29.92025 Y50.88528
G1 F300 X29.90041 Y51.07103
G1 F300 X29.84075 Y51.25468
G1 F300 X29.74758 Y51.41663
G1 F300 X29.61499 Y51.56537
G1 F300 X29.45320 Y51.68173
G1 F300 X29.28241 Y51.75742
G1 F300 X29.09351 Y51.79755
G1 F300 X28.90669 Y51.79788
G1 F300 X28.71157 Y51.75742
G1 F300 X28.54078 Y51.68173
G1 F300 X28.37453 Y51.56095
G1 F300 X28.24637 Y51.41663
G1 F300 X28.15322 Y51.25468
G1 F300 X28.09356 Y51.07103
G1 F300 X28.07372 Y50.87274
;G04 P0 ; dwell for no time -- G64 should not smooth over this point 
G1 F3000 Z3.00000 ; retract 

G1 F3000 X30.61372 Y50.87274 ; rapid move to begin. 
G1 F300 F300.00000
G1 F300 Z-0.07000
;G04 P0 ; dwell for no time -- G64 should not smooth over this point 
G1 F300 F600.00000
G1 F300 X30.61372 Y50.87274
G1 F300 X30.63356 Y50.68699
G1 F300 X30.69320 Y50.50334
G1 F300 X30.79373 Y50.33126
G1 F300 X30.91898 Y50.19265
G1 F300 X30.97694 Y50.15011
G1 F300 X30.97694 Y26.51767
G1 F300 X30.92914 Y26.46047
G1 F300 X30.88596 Y26.35021
G1 F300 X30.88129 Y25.80339
G1 F300 X30.90211 Y25.69857
G1 F300 X30.96597 Y25.59885
G1 F300 X31.02104 Y25.55369
G1 F300 X31.11977 Y25.51277
G1 F300 X31.66401 Y25.49377
G1 F300 X32.10313 Y25.50581
G1 F300 X32.20793 Y25.52666
G1 F300 X32.27072 Y25.56021
G1 F300 X32.34628 Y25.63578
G1 F300 X32.37986 Y25.69857
G1 F300 X32.40099 Y25.80926
G1 F300 X32.40099 Y26.29676
G1 F300 X32.37534 Y26.41833
G1 F300 X32.30765 Y26.51551
G1 F300 X32.20793 Y26.57936
G1 F300 X32.09698 Y26.60052
G1 F300 X32.09698 Y50.15008
G1 F300 X32.15499 Y50.19265
G1 F300 X32.28024 Y50.33126
G1 F300 X32.38075 Y50.50334
G1 F300 X32.44041 Y50.68699
G1 F300 X32.46025 Y50.88528
G1 F300 X32.44041 Y51.07103
G1 F300 X32.38075 Y51.25468
G1 F300 X32.28761 Y51.41663
G1 F300 X32.15499 Y51.56537
G1 F300 X31.99320 Y51.68173
G1 F300 X31.82241 Y51.75742
G1 F300 X31.63353 Y51.79755
G1 F300 X31.44672 Y51.79788
G1 F300 X31.25157 Y51.75742
G1 F300 X31.08078 Y51.68173
G1 F300 X30.91453 Y51.56095
G1 F300 X30.78637 Y51.41663
G1 F300 X30.69320 Y51.25468
G1 F300 X30.63356 Y51.07103
G1 F300 X30.61372 Y50.87274
;G04 P0 ; dwell for no time -- G64 should not smooth over this point 
G1 F3000 Z3.00000 ; retract 

G1 F3000 X33.15372 Y50.87274 ; rapid move to begin. 
G1 F300 F300.00000
G1 F300 Z-0.07000
;G04 P0 ; dwell for no time -- G64 should not smooth over this point 
G1 F300 F600.00000
G1 F300 X33.15372 Y50.87274
G1 F300 X33.17356 Y50.68699
G1 F300 X33.23322 Y50.50334
G1 F300 X33.33373 Y50.33126
G1 F300 X33.45898 Y50.19265
G1 F300 X33.51697 Y50.15011
G1 F300 X33.51697 Y26.51767
G1 F300 X33.46914 Y26.46047
G1 F300 X33.42596 Y26.35021
G1 F300 X33.42129 Y25.80339
G1 F300 X33.44211 Y25.69857
G1 F300 X33.50599 Y25.59885
G1 F300 X33.56104 Y25.55369
G1 F300 X33.65977 Y25.51277
G1 F300 X34.20401 Y25.49377
G1 F300 X34.64313 Y25.50581
G1 F300 X34.74793 Y25.52666
G1 F300 X34.81072 Y25.56021
G1 F300 X34.88628 Y25.63578
G1 F300 X34.91986 Y25.69857
G1 F300 X34.94099 Y25.80926
G1 F300 X34.94099 Y26.29676
G1 F300 X34.91534 Y26.41833
G1 F300 X34.84765 Y26.51551
G1 F300 X34.74793 Y26.57936
G1 F300 X34.63698 Y26.60052
G1 F300 X34.63698 Y50.15008
G1 F300 X34.69499 Y50.19265
G1 F300 X34.82024 Y50.33126
G1 F300 X34.92075 Y50.50334
G1 F300 X34.98041 Y50.68699
G1 F300 X35.00025 Y50.88528
G1 F300 X34.98041 Y51.07103
G1 F300 X34.92075 Y51.25468
G1 F300 X34.82761 Y51.41663
G1 F300 X34.69499 Y51.56537
G1 F300 X34.53320 Y51.68173
G1 F300 X34.36241 Y51.75742
G1 F300 X34.17353 Y51.79755
G1 F300 X33.98672 Y51.79788
G1 F300 X33.79157 Y51.75742
G1 F300 X33.62078 Y51.68173
G1 F300 X33.45453 Y51.56095
G1 F300 X33.32637 Y51.41663
G1 F300 X33.23322 Y51.25468
G1 F300 X33.17356 Y51.07103
G1 F300 X33.15372 Y50.87274
;G04 P0 ; dwell for no time -- G64 should not smooth over this point 
G1 F3000 Z3.00000 ; retract 

G1 F3000 X35.69372 Y50.87274 ; rapid move to begin. 
G1 F300 F300.00000
G1 F300 Z-0.07000
;G04 P0 ; dwell for no time -- G64 should not smooth over this point 
G1 F300 F600.00000
G1 F300 X35.69372 Y50.87274
G1 F300 X35.71356 Y50.68699
G1 F300 X35.77322 Y50.50334
G1 F300 X35.87373 Y50.33126
G1 F300 X35.99898 Y50.19265
G1 F300 X36.05697 Y50.15011
G1 F300 X36.05699 Y26.51769
G1 F300 X36.00914 Y26.46047
G1 F300 X35.96596 Y26.35021
G1 F300 X35.96129 Y25.80339
G1 F300 X35.98211 Y25.69857
G1 F300 X36.04599 Y25.59885
G1 F300 X36.10104 Y25.55369
G1 F300 X36.19977 Y25.51277
G1 F300 X36.74401 Y25.49377
G1 F300 X37.18313 Y25.50581
G1 F300 X37.28793 Y25.52666
G1 F300 X37.35072 Y25.56021
G1 F300 X37.42628 Y25.63578
G1 F300 X37.45986 Y25.69857
G1 F300 X37.48099 Y25.80926
G1 F300 X37.48099 Y26.29676
G1 F300 X37.45534 Y26.41833
G1 F300 X37.38765 Y26.51551
G1 F300 X37.28793 Y26.57936
G1 F300 X37.17698 Y26.60052
G1 F300 X37.17698 Y50.15008
G1 F300 X37.23499 Y50.19265
G1 F300 X37.36024 Y50.33126
G1 F300 X37.46075 Y50.50334
G1 F300 X37.52041 Y50.68699
G1 F300 X37.54025 Y50.88528
G1 F300 X37.52041 Y51.07103
G1 F300 X37.46075 Y51.25468
G1 F300 X37.36761 Y51.41663
G1 F300 X37.23499 Y51.56537
G1 F300 X37.07320 Y51.68173
G1 F300 X36.90241 Y51.75742
G1 F300 X36.71353 Y51.79755
G1 F300 X36.52672 Y51.79788
G1 F300 X36.33157 Y51.75742
G1 F300 X36.16078 Y51.68173
G1 F300 X35.99453 Y51.56095
G1 F300 X35.86637 Y51.41663
G1 F300 X35.77322 Y51.25468
G1 F300 X35.71356 Y51.07103
G1 F300 X35.69372 Y50.87274
;G04 P0 ; dwell for no time -- G64 should not smooth over this point 
G1 F3000 Z3.00000 ; retract 

G1 F3000 X38.23372 Y50.87274 ; rapid move to begin. 
G1 F300 F300.00000
G1 F300 Z-0.07000
;G04 P0 ; dwell for no time -- G64 should not smooth over this point 
G1 F300 F600.00000
G1 F300 X38.23372 Y50.87274
G1 F300 X38.25356 Y50.68699
G1 F300 X38.31322 Y50.50334
G1 F300 X38.40637 Y50.34139
G1 F300 X38.53898 Y50.19265
G1 F300 X38.70078 Y50.07629
G1 F300 X38.87157 Y50.00063
G1 F300 X39.06044 Y49.96047
G1 F300 X39.24726 Y49.96014
G1 F300 X39.44241 Y50.00063
G1 F300 X39.61320 Y50.07629
G1 F300 X39.77499 Y50.19265
G1 F300 X39.90024 Y50.33126
G1 F300 X40.00075 Y50.50334
G1 F300 X40.05879 Y50.68092
G1 F300 X40.08025 Y50.88528
G1 F300 X40.06041 Y51.07103
G1 F300 X40.00075 Y51.25468
G1 F300 X39.90761 Y51.41663
G1 F300 X39.77499 Y51.56537
G1 F300 X39.61320 Y51.68173
G1 F300 X39.44241 Y51.75742
G1 F300 X39.25353 Y51.79755
G1 F300 X39.06672 Y51.79788
G1 F300 X38.87157 Y51.75742
G1 F300 X38.70078 Y51.68173
G1 F300 X38.53453 Y51.56095
G1 F300 X38.40637 Y51.41663
G1 F300 X38.31322 Y51.25468
G1 F300 X38.25356 Y51.07103
G1 F300 X38.23372 Y50.87274
;G04 P0 ; dwell for no time -- G64 should not smooth over this point 
G1 F3000 Z3.00000 ; retract 

G1 F3000 X40.77372 Y50.87274 ; rapid move to begin. 
G1 F300 F300.00000
G1 F300 Z-0.07000
;G04 P0 ; dwell for no time -- G64 should not smooth over this point 
G1 F300 F600.00000
G1 F300 X40.77372 Y50.87274
G1 F300 X40.79356 Y50.68699
G1 F300 X40.85322 Y50.50334
G1 F300 X40.94637 Y50.34139
G1 F300 X41.07898 Y50.19265
G1 F300 X41.24078 Y50.07629
G1 F300 X41.41157 Y50.00063
G1 F300 X41.60044 Y49.96047
G1 F300 X41.78726 Y49.96014
G1 F300 X41.98241 Y50.00063
G1 F300 X42.15320 Y50.07629
G1 F300 X42.31499 Y50.19265
G1 F300 X42.44024 Y50.33126
G1 F300 X42.54075 Y50.50334
G1 F300 X42.59879 Y50.68092
G1 F300 X42.62025 Y50.88528
G1 F300 X42.60041 Y51.07103
G1 F300 X42.54075 Y51.25468
G1 F300 X42.44761 Y51.41663
G1 F300 X42.31499 Y51.56537
G1 F300 X42.15320 Y51.68173
G1 F300 X41.98241 Y51.75742
G1 F300 X41.79353 Y51.79755
G1 F300 X41.60672 Y51.79788
G1 F300 X41.41157 Y51.75742
G1 F300 X41.24078 Y51.68173
G1 F300 X41.07453 Y51.56095
G1 F300 X40.94637 Y51.41663
G1 F300 X40.85322 Y51.25468
G1 F300 X40.79356 Y51.07103
G1 F300 X40.77372 Y50.87274
;G04 P0 ; dwell for no time -- G64 should not smooth over this point 
G1 F3000 Z3.00000 ; retract 

G1 F3000 X44.44938 Y50.74983 ; rapid move to begin. 
G1 F300 F300.00000
G1 F300 Z-0.07000
;G04 P0 ; dwell for no time -- G64 should not smooth over this point 
G1 F300 F600.00000
G1 F300 X44.44938 Y50.74983
G1 F300 X44.44938 Y51.00822
G1 F300 X44.49978 Y51.26161
G1 F300 X44.59863 Y51.50027
G1 F300 X44.74219 Y51.71510
G1 F300 X44.92487 Y51.89778
G1 F300 X45.13970 Y52.04134
G1 F300 X45.37841 Y52.14022
G1 F300 X45.63178 Y52.19062
G1 F300 X45.89017 Y52.19062
G1 F300 X46.14354 Y52.14022
G1 F300 X46.38225 Y52.04134
G1 F300 X46.59705 Y51.89780
G1 F300 X46.78003 Y51.71485
G1 F300 X46.89901 Y51.54325
G1 F300 X46.95941 Y51.50299
G1 F300 X47.03099 Y51.48874
G1 F300 X47.10254 Y51.50299
G1 F300 X47.16294 Y51.54325
G1 F300 X47.28191 Y51.71485
G1 F300 X47.46492 Y51.89783
G1 F300 X47.67973 Y52.04137
G1 F300 X47.91839 Y52.14022
G1 F300 X48.17178 Y52.19062
G1 F300 X48.43017 Y52.19062
G1 F300 X48.68354 Y52.14022
G1 F300 X48.92225 Y52.04134
G1 F300 X49.13708 Y51.89780
G1 F300 X49.32003 Y51.71485
G1 F300 X49.43901 Y51.54325
G1 F300 X49.49941 Y51.50299
G1 F300 X49.57099 Y51.48874
G1 F300 X49.64254 Y51.50299
G1 F300 X49.70294 Y51.54325
G1 F300 X49.82191 Y51.71485
G1 F300 X50.00492 Y51.89783
G1 F300 X50.21973 Y52.04137
G1 F300 X50.45839 Y52.14022
G1 F300 X50.71178 Y52.19062
G1 F300 X50.97017 Y52.19062
G1 F300 X51.22356 Y52.14022
G1 F300 X51.46222 Y52.04137
G1 F300 X51.67703 Y51.89783
G1 F300 X51.86001 Y51.71487
G1 F300 X51.97901 Y51.54325
G1 F300 X52.03941 Y51.50299
G1 F300 X52.11099 Y51.48874
G1 F300 X52.18254 Y51.50299
G1 F300 X52.24294 Y51.54325
G1 F300 X52.36194 Y51.71485
G1 F300 X52.54487 Y51.89778
G1 F300 X52.75970 Y52.04134
G1 F300 X52.99841 Y52.14022
G1 F300 X53.25178 Y52.19062
G1 F300 X53.51017 Y52.19062
G1 F300 X53.76354 Y52.14022
G1 F300 X54.00225 Y52.04134
G1 F300 X54.21703 Y51.89783
G1 F300 X54.40004 Y51.71485
G1 F300 X54.51901 Y51.54325
G1 F300 X54.57941 Y51.50299
G1 F300 X54.65099 Y51.48874
G1 F300 X54.72254 Y51.50299
G1 F300 X54.78294 Y51.54325
G1 F300 X54.90191 Y51.71485
G1 F300 X55.08484 Y51.89778
G1 F300 X55.29970 Y52.04134
G1 F300 X55.53841 Y52.14022
G1 F300 X55.79178 Y52.19062
G1 F300 X56.05017 Y52.19062
G1 F300 X56.30354 Y52.14022
G1 F300 X56.54225 Y52.04134
G1 F300 X56.75708 Y51.89780
G1 F300 X56.94001 Y51.71487
G1 F300 X57.05901 Y51.54325
G1 F300 X57.11941 Y51.50299
G1 F300 X57.19099 Y51.48874
G1 F300 X57.26254 Y51.50299
G1 F300 X57.32294 Y51.54325
G1 F300 X57.44191 Y51.71485
G1 F300 X57.62492 Y51.89783
G1 F300 X57.83973 Y52.04137
G1 F300 X58.07839 Y52.14022
G1 F300 X58.33178 Y52.19062
G1 F300 X58.59017 Y52.19062
G1 F300 X58.84356 Y52.14022
G1 F300 X59.08225 Y52.04134
G1 F300 X59.29703 Y51.89783
G1 F300 X59.48001 Y51.71485
G1 F300 X59.59901 Y51.54325
G1 F300 X59.65941 Y51.50299
G1 F300 X59.73099 Y51.48874
G1 F300 X59.80254 Y51.50299
G1 F300 X59.86294 Y51.54325
G1 F300 X59.98194 Y51.71485
G1 F300 X60.16490 Y51.89780
G1 F300 X60.37970 Y52.04134
G1 F300 X60.61841 Y52.14022
G1 F300 X60.87178 Y52.19062
G1 F300 X61.13017 Y52.19062
G1 F300 X61.38356 Y52.14022
G1 F300 X61.62222 Y52.04137
G1 F300 X61.83703 Y51.89783
G1 F300 X62.02004 Y51.71485
G1 F300 X62.13901 Y51.54325
G1 F300 X62.19941 Y51.50299
G1 F300 X62.27099 Y51.48874
G1 F300 X62.34254 Y51.50299
G1 F300 X62.40294 Y51.54325
G1 F300 X62.52194 Y51.71487
G1 F300 X62.70484 Y51.89778
G1 F300 X62.91970 Y52.04134
G1 F300 X63.15841 Y52.14022
G1 F300 X63.41178 Y52.19062
G1 F300 X63.67017 Y52.19062
G1 F300 X63.92354 Y52.14022
G1 F300 X64.16225 Y52.04134
G1 F300 X64.37705 Y51.89780
G1 F300 X64.55976 Y51.71513
G1 F300 X64.70332 Y51.50027
G1 F300 X64.80217 Y51.26161
G1 F300 X64.85257 Y51.00820
G1 F300 X64.85257 Y50.74985
G1 F300 X64.80217 Y50.49644
G1 F300 X64.70332 Y50.25775
G1 F300 X64.55976 Y50.04294
G1 F300 X64.37705 Y49.86024
G1 F300 X64.16225 Y49.71671
G1 F300 X63.92359 Y49.61782
G1 F300 X63.67017 Y49.56743
G1 F300 X63.41178 Y49.56743
G1 F300 X63.15836 Y49.61782
G1 F300 X62.91970 Y49.71671
G1 F300 X62.70487 Y49.86024
G1 F300 X62.52194 Y50.04317
G1 F300 X62.40294 Y50.21480
G1 F300 X62.34254 Y50.25506
G1 F300 X62.27099 Y50.26931
G1 F300 X62.19941 Y50.25506
G1 F300 X62.13901 Y50.21480
G1 F300 X62.02001 Y50.04317
G1 F300 X61.83703 Y49.86022
G1 F300 X61.62225 Y49.71671
G1 F300 X61.38359 Y49.61782
G1 F300 X61.13017 Y49.56743
G1 F300 X60.87178 Y49.56743
G1 F300 X60.61836 Y49.61782
G1 F300 X60.37970 Y49.71671
G1 F300 X60.16490 Y49.86024
G1 F300 X59.98194 Y50.04320
G1 F300 X59.86294 Y50.21480
G1 F300 X59.80254 Y50.25506
G1 F300 X59.73099 Y50.26931
G1 F300 X59.65941 Y50.25506
G1 F300 X59.59901 Y50.21480
G1 F300 X59.48001 Y50.04320
G1 F300 X59.29703 Y49.86022
G1 F300 X59.08225 Y49.71671
G1 F300 X58.84359 Y49.61782
G1 F300 X58.59017 Y49.56743
G1 F300 X58.33178 Y49.56743
G1 F300 X58.07836 Y49.61782
G1 F300 X57.83970 Y49.71668
G1 F300 X57.62492 Y49.86022
G1 F300 X57.44194 Y50.04317
G1 F300 X57.32294 Y50.21480
G1 F300 X57.26254 Y50.25506
G1 F300 X57.19099 Y50.26931
G1 F300 X57.11941 Y50.25506
G1 F300 X57.05901 Y50.21480
G1 F300 X56.93998 Y50.04315
G1 F300 X56.75703 Y49.86022
G1 F300 X56.54225 Y49.71671
G1 F300 X56.30359 Y49.61782
G1 F300 X56.05017 Y49.56743
G1 F300 X55.79178 Y49.56743
G1 F300 X55.53836 Y49.61782
G1 F300 X55.29970 Y49.71671
G1 F300 X55.08487 Y49.86024
G1 F300 X54.90194 Y50.04317
G1 F300 X54.78294 Y50.21480
G1 F300 X54.72254 Y50.25506
G1 F300 X54.65099 Y50.26931
G1 F300 X54.57941 Y50.25506
G1 F300 X54.51901 Y50.21480
G1 F300 X54.40001 Y50.04317
G1 F300 X54.21703 Y49.86022
G1 F300 X54.00225 Y49.71671
G1 F300 X53.76359 Y49.61782
G1 F300 X53.51017 Y49.56743
G1 F300 X53.25178 Y49.56743
G1 F300 X52.99836 Y49.61782
G1 F300 X52.75970 Y49.71671
G1 F300 X52.54492 Y49.86022
G1 F300 X52.36194 Y50.04320
G1 F300 X52.24294 Y50.21480
G1 F300 X52.18254 Y50.25506
G1 F300 X52.11099 Y50.26931
G1 F300 X52.03941 Y50.25506
G1 F300 X51.97901 Y50.21480
G1 F300 X51.86001 Y50.04317
G1 F300 X51.67703 Y49.86022
G1 F300 X51.46225 Y49.71668
G1 F300 X51.22361 Y49.61782
G1 F300 X50.97017 Y49.56743
G1 F300 X50.71178 Y49.56743
G1 F300 X50.45836 Y49.61782
G1 F300 X50.21970 Y49.71668
G1 F300 X50.00492 Y49.86022
G1 F300 X49.82194 Y50.04317
G1 F300 X49.70294 Y50.21480
G1 F300 X49.64254 Y50.25506
G1 F300 X49.57099 Y50.26931
G1 F300 X49.49941 Y50.25506
G1 F300 X49.43901 Y50.21480
G1 F300 X49.32001 Y50.04317
G1 F300 X49.13703 Y49.86022
G1 F300 X48.92222 Y49.71668
G1 F300 X48.68359 Y49.61782
G1 F300 X48.43017 Y49.56743
G1 F300 X48.17178 Y49.56743
G1 F300 X47.91836 Y49.61782
G1 F300 X47.67970 Y49.71671
G1 F300 X47.46492 Y49.86022
G1 F300 X47.28194 Y50.04317
G1 F300 X47.16294 Y50.21480
G1 F300 X47.10254 Y50.25506
G1 F300 X47.03099 Y50.26931
G1 F300 X46.95941 Y50.25506
G1 F300 X46.89901 Y50.21480
G1 F300 X46.78001 Y50.04317
G1 F300 X46.59705 Y49.86024
G1 F300 X46.38225 Y49.71671
G1 F300 X46.14359 Y49.61782
G1 F300 X45.89017 Y49.56743
G1 F300 X45.63178 Y49.56743
G1 F300 X45.37836 Y49.61782
G1 F300 X45.13970 Y49.71671
G1 F300 X44.92492 Y49.86022
G1 F300 X44.74222 Y50.04289
G1 F300 X44.59863 Y50.25778
G1 F300 X44.49978 Y50.49644
G1 F300 X44.44938 Y50.74983
;G04 P0 ; dwell for no time -- G64 should not smooth over this point 
G1 F3000 Z3.00000 ; retract 

G1 F3000 X44.83772 Y50.87274 ; rapid move to begin. 
G1 F300 F300.00000
G1 F300 Z-0.07000
;G04 P0 ; dwell for no time -- G64 should not smooth over this point 
G1 F300 F600.00000
G1 F300 X44.83772 Y50.87274
G1 F300 X44.85756 Y50.68699
G1 F300 X44.91722 Y50.50334
G1 F300 X45.01037 Y50.34139
G1 F300 X45.14298 Y50.19265
G1 F300 X45.30478 Y50.07629
G1 F300 X45.47557 Y50.00063
G1 F300 X45.66444 Y49.96047
G1 F300 X45.85126 Y49.96014
G1 F300 X46.04641 Y50.00063
G1 F300 X46.21720 Y50.07629
G1 F300 X46.37899 Y50.19265
G1 F300 X46.50424 Y50.33126
G1 F300 X46.60475 Y50.50334
G1 F300 X46.66279 Y50.68092
G1 F300 X46.68425 Y50.88528
G1 F300 X46.66441 Y51.07103
G1 F300 X46.60475 Y51.25468
G1 F300 X46.51161 Y51.41663
G1 F300 X46.37899 Y51.56537
G1 F300 X46.21720 Y51.68173
G1 F300 X46.04641 Y51.75742
G1 F300 X45.85753 Y51.79755
G1 F300 X45.67072 Y51.79788
G1 F300 X45.47557 Y51.75742
G1 F300 X45.30478 Y51.68173
G1 F300 X45.13853 Y51.56095
G1 F300 X45.01037 Y51.41663
G1 F300 X44.91722 Y51.25468
G1 F300 X44.85756 Y51.07103
G1 F300 X44.83772 Y50.87274
;G04 P0 ; dwell for no time -- G64 should not smooth over this point 
G1 F3000 Z3.00000 ; retract 

G1 F3000 X47.37772 Y50.87274 ; rapid move to begin. 
G1 F300 F300.00000
G1 F300 Z-0.07000
;G04 P0 ; dwell for no time -- G64 should not smooth over this point 
G1 F300 F600.00000
G1 F300 X47.37772 Y50.87274
G1 F300 X47.39756 Y50.68699
G1 F300 X47.45722 Y50.50334
G1 F300 X47.55037 Y50.34139
G1 F300 X47.68298 Y50.19265
G1 F300 X47.84478 Y50.07629
G1 F300 X48.01557 Y50.00063
G1 F300 X48.20444 Y49.96047
G1 F300 X48.39126 Y49.96014
G1 F300 X48.58641 Y50.00063
G1 F300 X48.75720 Y50.07629
G1 F300 X48.91899 Y50.19265
G1 F300 X49.04424 Y50.33126
G1 F300 X49.14475 Y50.50334
G1 F300 X49.20279 Y50.68092
G1 F300 X49.22425 Y50.88528
G1 F300 X49.20441 Y51.07103
G1 F300 X49.14475 Y51.25468
G1 F300 X49.05161 Y51.41663
G1 F300 X48.91899 Y51.56537
G1 F300 X48.75720 Y51.68173
G1 F300 X48.58641 Y51.75742
G1 F300 X48.39753 Y51.79755
G1 F300 X48.21072 Y51.79788
G1 F300 X48.01557 Y51.75742
G1 F300 X47.84478 Y51.68173
G1 F300 X47.67853 Y51.56095
G1 F300 X47.55037 Y51.41663
G1 F300 X47.45722 Y51.25468
G1 F300 X47.39756 Y51.07103
G1 F300 X47.37772 Y50.87274
;G04 P0 ; dwell for no time -- G64 should not smooth over this point 
G1 F3000 Z3.00000 ; retract 

G1 F3000 X49.91772 Y50.87274 ; rapid move to begin. 
G1 F300 F300.00000
G1 F300 Z-0.07000
;G04 P0 ; dwell for no time -- G64 should not smooth over this point 
G1 F300 F600.00000
G1 F300 X49.91772 Y50.87274
G1 F300 X49.93756 Y50.68699
G1 F300 X49.99722 Y50.50334
G1 F300 X50.09037 Y50.34139
G1 F300 X50.22298 Y50.19265
G1 F300 X50.38478 Y50.07629
G1 F300 X50.55557 Y50.00063
G1 F300 X50.74444 Y49.96047
G1 F300 X50.93126 Y49.96014
G1 F300 X51.12641 Y50.00063
G1 F300 X51.29720 Y50.07629
G1 F300 X51.45899 Y50.19265
G1 F300 X51.58424 Y50.33126
G1 F300 X51.68475 Y50.50334
G1 F300 X51.74279 Y50.68092
G1 F300 X51.76425 Y50.88528
G1 F300 X51.74441 Y51.07103
G1 F300 X51.68475 Y51.25468
G1 F300 X51.59161 Y51.41663
G1 F300 X51.45899 Y51.56537
G1 F300 X51.29720 Y51.68173
G1 F300 X51.12641 Y51.75742
G1 F300 X50.93753 Y51.79755
G1 F300 X50.75072 Y51.79788
G1 F300 X50.55557 Y51.75742
G1 F300 X50.38478 Y51.68173
G1 F300 X50.21853 Y51.56095
G1 F300 X50.09037 Y51.41663
G1 F300 X49.99722 Y51.25468
G1 F300 X49.93756 Y51.07103
G1 F300 X49.91772 Y50.87274
;G04 P0 ; dwell for no time -- G64 should not smooth over this point 
G1 F3000 Z3.00000 ; retract 

G1 F3000 X52.45772 Y50.87274 ; rapid move to begin. 
G1 F300 F300.00000
G1 F300 Z-0.07000
;G04 P0 ; dwell for no time -- G64 should not smooth over this point 
G1 F300 F600.00000
G1 F300 X52.45772 Y50.87274
G1 F300 X52.47756 Y50.68699
G1 F300 X52.53722 Y50.50334
G1 F300 X52.63037 Y50.34139
G1 F300 X52.76298 Y50.19265
G1 F300 X52.92478 Y50.07629
G1 F300 X53.09557 Y50.00063
G1 F300 X53.28444 Y49.96047
G1 F300 X53.47126 Y49.96014
G1 F300 X53.66641 Y50.00063
G1 F300 X53.83720 Y50.07629
G1 F300 X53.99899 Y50.19265
G1 F300 X54.12424 Y50.33126
G1 F300 X54.22475 Y50.50334
G1 F300 X54.28279 Y50.68092
G1 F300 X54.30425 Y50.88528
G1 F300 X54.28441 Y51.07103
G1 F300 X54.22475 Y51.25468
G1 F300 X54.13161 Y51.41663
G1 F300 X53.99899 Y51.56537
G1 F300 X53.83720 Y51.68173
G1 F300 X53.66641 Y51.75742
G1 F300 X53.47753 Y51.79755
G1 F300 X53.29072 Y51.79788
G1 F300 X53.09557 Y51.75742
G1 F300 X52.92478 Y51.68173
G1 F300 X52.75853 Y51.56095
G1 F300 X52.63037 Y51.41663
G1 F300 X52.53722 Y51.25468
G1 F300 X52.47756 Y51.07103
G1 F300 X52.45772 Y50.87274
;G04 P0 ; dwell for no time -- G64 should not smooth over this point 
G1 F3000 Z3.00000 ; retract 

G1 F3000 X54.99772 Y50.87274 ; rapid move to begin. 
G1 F300 F300.00000
G1 F300 Z-0.07000
;G04 P0 ; dwell for no time -- G64 should not smooth over this point 
G1 F300 F600.00000
G1 F300 X54.99772 Y50.87274
G1 F300 X55.01756 Y50.68699
G1 F300 X55.07722 Y50.50334
G1 F300 X55.17037 Y50.34139
G1 F300 X55.30298 Y50.19265
G1 F300 X55.46478 Y50.07629
G1 F300 X55.63557 Y50.00063
G1 F300 X55.82444 Y49.96047
G1 F300 X56.01126 Y49.96014
G1 F300 X56.20641 Y50.00063
G1 F300 X56.37720 Y50.07629
G1 F300 X56.53899 Y50.19265
G1 F300 X56.66424 Y50.33126
G1 F300 X56.76475 Y50.50334
G1 F300 X56.82279 Y50.68092
G1 F300 X56.84425 Y50.88528
G1 F300 X56.82441 Y51.07103
G1 F300 X56.76475 Y51.25468
G1 F300 X56.67161 Y51.41663
G1 F300 X56.53899 Y51.56537
G1 F300 X56.37720 Y51.68173
G1 F300 X56.20641 Y51.75742
G1 F300 X56.01753 Y51.79755
G1 F300 X55.83072 Y51.79788
G1 F300 X55.63557 Y51.75742
G1 F300 X55.46478 Y51.68173
G1 F300 X55.29853 Y51.56095
G1 F300 X55.17037 Y51.41663
G1 F300 X55.07722 Y51.25468
G1 F300 X55.01756 Y51.07103
G1 F300 X54.99772 Y50.87274
;G04 P0 ; dwell for no time -- G64 should not smooth over this point 
G1 F3000 Z3.00000 ; retract 

G1 F3000 X57.53772 Y50.87274 ; rapid move to begin. 
G1 F300 F300.00000
G1 F300 Z-0.07000
;G04 P0 ; dwell for no time -- G64 should not smooth over this point 
G1 F300 F600.00000
G1 F300 X57.53772 Y50.87274
G1 F300 X57.55756 Y50.68699
G1 F300 X57.61722 Y50.50334
G1 F300 X57.71037 Y50.34139
G1 F300 X57.84298 Y50.19265
G1 F300 X58.00478 Y50.07629
G1 F300 X58.17557 Y50.00063
G1 F300 X58.36444 Y49.96047
G1 F300 X58.55126 Y49.96014
G1 F300 X58.74641 Y50.00063
G1 F300 X58.91720 Y50.07629
G1 F300 X59.07899 Y50.19265
G1 F300 X59.20424 Y50.33126
G1 F300 X59.30475 Y50.50334
G1 F300 X59.36279 Y50.68092
G1 F300 X59.38425 Y50.88528
G1 F300 X59.36441 Y51.07103
G1 F300 X59.30475 Y51.25468
G1 F300 X59.21161 Y51.41663
G1 F300 X59.07899 Y51.56537
G1 F300 X58.91720 Y51.68173
G1 F300 X58.74641 Y51.75742
G1 F300 X58.55753 Y51.79755
G1 F300 X58.37072 Y51.79788
G1 F300 X58.17557 Y51.75742
G1 F300 X58.00478 Y51.68173
G1 F300 X57.83853 Y51.56095
G1 F300 X57.71037 Y51.41663
G1 F300 X57.61722 Y51.25468
G1 F300 X57.55756 Y51.07103
G1 F300 X57.53772 Y50.87274
;G04 P0 ; dwell for no time -- G64 should not smooth over this point 
G1 F3000 Z3.00000 ; retract 

G1 F3000 X60.07772 Y50.87274 ; rapid move to begin. 
G1 F300 F300.00000
G1 F300 Z-0.07000
;G04 P0 ; dwell for no time -- G64 should not smooth over this point 
G1 F300 F600.00000
G1 F300 X60.07772 Y50.87274
G1 F300 X60.09756 Y50.68699
G1 F300 X60.15722 Y50.50334
G1 F300 X60.25037 Y50.34139
G1 F300 X60.38298 Y50.19265
G1 F300 X60.54478 Y50.07629
G1 F300 X60.71557 Y50.00063
G1 F300 X60.90444 Y49.96047
G1 F300 X61.09126 Y49.96014
G1 F300 X61.28641 Y50.00063
G1 F300 X61.45720 Y50.07629
G1 F300 X61.61899 Y50.19265
G1 F300 X61.74424 Y50.33126
G1 F300 X61.84475 Y50.50334
G1 F300 X61.90279 Y50.68092
G1 F300 X61.92425 Y50.88528
G1 F300 X61.90441 Y51.07103
G1 F300 X61.84475 Y51.25468
G1 F300 X61.75161 Y51.41663
G1 F300 X61.61899 Y51.56537
G1 F300 X61.45720 Y51.68173
G1 F300 X61.28641 Y51.75742
G1 F300 X61.09753 Y51.79755
G1 F300 X60.91072 Y51.79788
G1 F300 X60.71557 Y51.75742
G1 F300 X60.54478 Y51.68173
G1 F300 X60.37853 Y51.56095
G1 F300 X60.25037 Y51.41663
G1 F300 X60.15722 Y51.25468
G1 F300 X60.09756 Y51.07103
G1 F300 X60.07772 Y50.87274
;G04 P0 ; dwell for no time -- G64 should not smooth over this point 
G1 F3000 Z3.00000 ; retract 

G1 F3000 X62.61772 Y50.87274 ; rapid move to begin. 
G1 F300 F300.00000
G1 F300 Z-0.07000
;G04 P0 ; dwell for no time -- G64 should not smooth over this point 
G1 F300 F600.00000
G1 F300 X62.61772 Y50.87274
G1 F300 X62.63756 Y50.68699
G1 F300 X62.69722 Y50.50334
G1 F300 X62.79037 Y50.34139
G1 F300 X62.92298 Y50.19265
G1 F300 X63.08478 Y50.07629
G1 F300 X63.25557 Y50.00063
G1 F300 X63.44444 Y49.96047
G1 F300 X63.63126 Y49.96014
G1 F300 X63.82641 Y50.00063
G1 F300 X63.99720 Y50.07629
G1 F300 X64.15899 Y50.19265
G1 F300 X64.28424 Y50.33126
G1 F300 X64.38475 Y50.50334
G1 F300 X64.44279 Y50.68092
G1 F300 X64.46425 Y50.88528
G1 F300 X64.44441 Y51.07103
G1 F300 X64.38475 Y51.25468
G1 F300 X64.29161 Y51.41663
G1 F300 X64.15899 Y51.56537
G1 F300 X63.99720 Y51.68173
G1 F300 X63.82641 Y51.75742
G1 F300 X63.63753 Y51.79755
G1 F300 X63.45072 Y51.79788
G1 F300 X63.25557 Y51.75742
G1 F300 X63.08478 Y51.68173
G1 F300 X62.91853 Y51.56095
G1 F300 X62.79037 Y51.41663
G1 F300 X62.69722 Y51.25468
G1 F300 X62.63756 Y51.07103
G1 F300 X62.61772 Y50.87274
;G04 P0 ; dwell for no time -- G64 should not smooth over this point 
G1 F3000 Z3.00000 ; retract 

G1 F3000 X67.30938 Y50.74983 ; rapid move to begin. 
G1 F300 F300.00000
G1 F300 Z-0.07000
;G04 P0 ; dwell for no time -- G64 should not smooth over this point 
G1 F300 F600.00000
G1 F300 X67.30938 Y50.74983
G1 F300 X67.30938 Y51.00822
G1 F300 X67.35978 Y51.26164
G1 F300 X67.45863 Y51.50027
G1 F300 X67.60219 Y51.71513
G1 F300 X67.78490 Y51.89780
G1 F300 X67.99970 Y52.04134
G1 F300 X68.23836 Y52.14022
G1 F300 X68.49178 Y52.19062
G1 F300 X68.75017 Y52.19062
G1 F300 X69.00356 Y52.14022
G1 F300 X69.24222 Y52.04137
G1 F300 X69.45703 Y51.89783
G1 F300 X69.64003 Y51.71482
G1 F300 X69.75901 Y51.54325
G1 F300 X69.81941 Y51.50299
G1 F300 X69.89099 Y51.48874
G1 F300 X69.96254 Y51.50299
G1 F300 X70.02294 Y51.54325
G1 F300 X70.14194 Y51.71485
G1 F300 X70.32492 Y51.89783
G1 F300 X70.53973 Y52.04137
G1 F300 X70.77836 Y52.14022
G1 F300 X71.03178 Y52.19062
G1 F300 X71.29017 Y52.19062
G1 F300 X71.54354 Y52.14022
G1 F300 X71.78225 Y52.04134
G1 F300 X71.99703 Y51.89783
G1 F300 X72.18004 Y51.71482
G1 F300 X72.29901 Y51.54325
G1 F300 X72.35941 Y51.50299
G1 F300 X72.43099 Y51.48874
G1 F300 X72.50254 Y51.50299
G1 F300 X72.56294 Y51.54325
G1 F300 X72.68194 Y51.71487
G1 F300 X72.86492 Y51.89783
G1 F300 X73.07970 Y52.04134
G1 F300 X73.31836 Y52.14022
G1 F300 X73.57178 Y52.19062
G1 F300 X73.83017 Y52.19062
G1 F300 X74.08356 Y52.14022
G1 F300 X74.32225 Y52.04134
G1 F300 X74.53705 Y51.89780
G1 F300 X74.72001 Y51.71487
G1 F300 X74.83901 Y51.54325
G1 F300 X74.89941 Y51.50299
G1 F300 X74.97099 Y51.48874
G1 F300 X75.04254 Y51.50299
G1 F300 X75.10294 Y51.54325
G1 F300 X75.22191 Y51.71482
G1 F300 X75.40490 Y51.89780
G1 F300 X75.61970 Y52.04134
G1 F300 X75.85836 Y52.14022
G1 F300 X76.11178 Y52.19062
G1 F300 X76.37017 Y52.19062
G1 F300 X76.62356 Y52.14022
G1 F300 X76.86225 Y52.04134
G1 F300 X77.07708 Y51.89780
G1 F300 X77.26003 Y51.71482
G1 F300 X77.37901 Y51.54325
G1 F300 X77.43941 Y51.50299
G1 F300 X77.51099 Y51.48874
G1 F300 X77.58254 Y51.50299
G1 F300 X77.64294 Y51.54325
G1 F300 X77.76191 Y51.71482
G1 F300 X77.94490 Y51.89780
G1 F300 X78.15973 Y52.04137
G1 F300 X78.39841 Y52.14022
G1 F300 X78.65178 Y52.19062
G1 F300 X78.91017 Y52.19062
G1 F300 X79.16354 Y52.14022
G1 F300 X79.40222 Y52.04137
G1 F300 X79.61703 Y51.89783
G1 F300 X79.80003 Y51.71482
G1 F300 X79.91901 Y51.54325
G1 F300 X79.97941 Y51.50299
G1 F300 X80.05099 Y51.48874
G1 F300 X80.12254 Y51.50299
G1 F300 X80.18294 Y51.54325
G1 F300 X80.30191 Y51.71485
G1 F300 X80.48490 Y51.89786
G1 F300 X80.69973 Y52.04137
G1 F300 X80.93841 Y52.14022
G1 F300 X81.19178 Y52.19062
G1 F300 X81.45017 Y52.19062
G1 F300 X81.70359 Y52.14022
G1 F300 X81.94219 Y52.04137
G1 F300 X82.15705 Y51.89780
G1 F300 X82.34001 Y51.71487
G1 F300 X82.45898 Y51.54325
G1 F300 X82.51941 Y51.50299
G1 F300 X82.59099 Y51.48874
G1 F300 X82.66254 Y51.50299
G1 F300 X82.72294 Y51.54325
G1 F300 X82.84191 Y51.71482
G1 F300 X83.02490 Y51.89780
G1 F300 X83.23970 Y52.04134
G1 F300 X83.47836 Y52.14022
G1 F300 X83.73175 Y52.19062
G1 F300 X83.99015 Y52.19062
G1 F300 X84.24354 Y52.14022
G1 F300 X84.48225 Y52.04137
G1 F300 X84.69705 Y51.89780
G1 F300 X84.88001 Y51.71485
G1 F300 X84.99901 Y51.54325
G1 F300 X85.05941 Y51.50299
G1 F300 X85.13099 Y51.48874
G1 F300 X85.20254 Y51.50299
G1 F300 X85.26294 Y51.54325
G1 F300 X85.38194 Y51.71487
G1 F300 X85.56490 Y51.89780
G1 F300 X85.77970 Y52.04134
G1 F300 X86.01839 Y52.14022
G1 F300 X86.27178 Y52.19062
G1 F300 X86.53017 Y52.19062
G1 F300 X86.78359 Y52.14022
G1 F300 X87.02225 Y52.04134
G1 F300 X87.23703 Y51.89783
G1 F300 X87.41978 Y51.71510
G1 F300 X87.56332 Y51.50027
G1 F300 X87.66217 Y51.26161
G1 F300 X87.71257 Y51.00817
G1 F300 X87.71257 Y50.74988
G1 F300 X87.66217 Y50.49644
G1 F300 X87.56329 Y50.25775
G1 F300 X87.41978 Y50.04294
G1 F300 X87.23708 Y49.86027
G1 F300 X87.02225 Y49.71671
G1 F300 X86.78359 Y49.61782
G1 F300 X86.53017 Y49.56743
G1 F300 X86.27178 Y49.56743
G1 F300 X86.01836 Y49.61782
G1 F300 X85.77970 Y49.71671
G1 F300 X85.56484 Y49.86027
G1 F300 X85.38194 Y50.04320
G1 F300 X85.26294 Y50.21480
G1 F300 X85.20254 Y50.25506
G1 F300 X85.13099 Y50.26931
G1 F300 X85.05941 Y50.25506
G1 F300 X84.99901 Y50.21480
G1 F300 X84.87998 Y50.04315
G1 F300 X84.69708 Y49.86027
G1 F300 X84.48227 Y49.71671
G1 F300 X84.24354 Y49.61782
G1 F300 X83.99012 Y49.56743
G1 F300 X83.73175 Y49.56743
G1 F300 X83.47834 Y49.61782
G1 F300 X83.23970 Y49.71671
G1 F300 X83.02484 Y49.86027
G1 F300 X82.84194 Y50.04320
G1 F300 X82.72294 Y50.21480
G1 F300 X82.66254 Y50.25506
G1 F300 X82.59099 Y50.26931
G1 F300 X82.51941 Y50.25506
G1 F300 X82.45898 Y50.21480
G1 F300 X82.34001 Y50.04320
G1 F300 X82.15700 Y49.86024
G1 F300 X81.94227 Y49.71671
G1 F300 X81.70359 Y49.61782
G1 F300 X81.45015 Y49.56743
G1 F300 X81.19180 Y49.56743
G1 F300 X80.93836 Y49.61782
G1 F300 X80.69970 Y49.71668
G1 F300 X80.48487 Y49.86024
G1 F300 X80.30191 Y50.04320
G1 F300 X80.18294 Y50.21480
G1 F300 X80.12254 Y50.25506
G1 F300 X80.05099 Y50.26931
G1 F300 X79.97941 Y50.25506
G1 F300 X79.91901 Y50.21480
G1 F300 X79.80001 Y50.04317
G1 F300 X79.61708 Y49.86027
G1 F300 X79.40222 Y49.71668
G1 F300 X79.16359 Y49.61782
G1 F300 X78.91017 Y49.56743
G1 F300 X78.65180 Y49.56743
G1 F300 X78.39836 Y49.61782
G1 F300 X78.15973 Y49.71668
G1 F300 X77.94484 Y49.86027
G1 F300 X77.76194 Y50.04320
G1 F300 X77.64294 Y50.21480
G1 F300 X77.58254 Y50.25506
G1 F300 X77.51099 Y50.26931
G1 F300 X77.43941 Y50.25506
G1 F300 X77.37901 Y50.21480
G1 F300 X77.26001 Y50.04320
G1 F300 X77.07708 Y49.86024
G1 F300 X76.86225 Y49.71671
G1 F300 X76.62359 Y49.61782
G1 F300 X76.37017 Y49.56743
G1 F300 X76.11178 Y49.56743
G1 F300 X75.85836 Y49.61782
G1 F300 X75.61970 Y49.71671
G1 F300 X75.40487 Y49.86027
G1 F300 X75.22194 Y50.04320
G1 F300 X75.10294 Y50.21480
G1 F300 X75.04254 Y50.25506
G1 F300 X74.97099 Y50.26931
G1 F300 X74.89941 Y50.25506
G1 F300 X74.83901 Y50.21480
G1 F300 X74.72001 Y50.04320
G1 F300 X74.53710 Y49.86027
G1 F300 X74.32225 Y49.71671
G1 F300 X74.08359 Y49.61782
G1 F300 X73.83017 Y49.56743
G1 F300 X73.57178 Y49.56743
G1 F300 X73.31836 Y49.61782
G1 F300 X73.07970 Y49.71671
G1 F300 X72.86487 Y49.86027
G1 F300 X72.68196 Y50.04317
G1 F300 X72.56294 Y50.21480
G1 F300 X72.50254 Y50.25506
G1 F300 X72.43099 Y50.26931
G1 F300 X72.35941 Y50.25506
G1 F300 X72.29901 Y50.21480
G1 F300 X72.18001 Y50.04317
G1 F300 X71.99710 Y49.86027
G1 F300 X71.78225 Y49.71671
G1 F300 X71.54359 Y49.61782
G1 F300 X71.29015 Y49.56743
G1 F300 X71.03180 Y49.56743
G1 F300 X70.77836 Y49.61782
G1 F300 X70.53973 Y49.71668
G1 F300 X70.32484 Y49.86027
G1 F300 X70.14196 Y50.04317
G1 F300 X70.02294 Y50.21480
G1 F300 X69.96254 Y50.25506
G1 F300 X69.89099 Y50.26931
G1 F300 X69.81941 Y50.25506
G1 F300 X69.75901 Y50.21480
G1 F300 X69.64001 Y50.04320
G1 F300 X69.45708 Y49.86027
G1 F300 X69.24222 Y49.71668
G1 F300 X69.00359 Y49.61782
G1 F300 X68.75017 Y49.56743
G1 F300 X68.49178 Y49.56743
G1 F300 X68.23836 Y49.61782
G1 F300 X67.99970 Y49.71671
G1 F300 X67.78487 Y49.86027
G1 F300 X67.60222 Y50.04292
G1 F300 X67.45866 Y50.25775
G1 F300 X67.35978 Y50.49641
G1 F300 X67.30938 Y50.74983
;G04 P0 ; dwell for no time -- G64 should not smooth over this point 
G1 F3000 Z3.00000 ; retract 

G1 F3000 X67.69772 Y50.87274 ; rapid move to begin. 
G1 F300 F300.00000
G1 F300 Z-0.07000
;G04 P0 ; dwell for no time -- G64 should not smooth over this point 
G1 F300 F600.00000
G1 F300 X67.69772 Y50.87274
G1 F300 X67.71756 Y50.68699
G1 F300 X67.77722 Y50.50334
G1 F300 X67.87037 Y50.34139
G1 F300 X68.00298 Y50.19265
G1 F300 X68.16478 Y50.07629
G1 F300 X68.33557 Y50.00063
G1 F300 X68.52444 Y49.96047
G1 F300 X68.71126 Y49.96014
G1 F300 X68.90641 Y50.00063
G1 F300 X69.07720 Y50.07629
G1 F300 X69.23899 Y50.19265
G1 F300 X69.36424 Y50.33126
G1 F300 X69.46475 Y50.50334
G1 F300 X69.52279 Y50.68092
G1 F300 X69.54425 Y50.88528
G1 F300 X69.52441 Y51.07103
G1 F300 X69.46475 Y51.25468
G1 F300 X69.37161 Y51.41663
G1 F300 X69.23899 Y51.56537
G1 F300 X69.07720 Y51.68173
G1 F300 X68.90641 Y51.75742
G1 F300 X68.71753 Y51.79755
G1 F300 X68.53072 Y51.79788
G1 F300 X68.33557 Y51.75742
G1 F300 X68.16478 Y51.68173
G1 F300 X67.99853 Y51.56095
G1 F300 X67.87037 Y51.41663
G1 F300 X67.77722 Y51.25468
G1 F300 X67.71756 Y51.07103
G1 F300 X67.69772 Y50.87274
;G04 P0 ; dwell for no time -- G64 should not smooth over this point 
G1 F3000 Z3.00000 ; retract 

G1 F3000 X70.23772 Y50.87274 ; rapid move to begin. 
G1 F300 F300.00000
G1 F300 Z-0.07000
;G04 P0 ; dwell for no time -- G64 should not smooth over this point 
G1 F300 F600.00000
G1 F300 X70.23772 Y50.87274
G1 F300 X70.25756 Y50.68699
G1 F300 X70.31722 Y50.50334
G1 F300 X70.41037 Y50.34139
G1 F300 X70.54298 Y50.19265
G1 F300 X70.70478 Y50.07629
G1 F300 X70.87557 Y50.00063
G1 F300 X71.06444 Y49.96047
G1 F300 X71.25126 Y49.96014
G1 F300 X71.44641 Y50.00063
G1 F300 X71.61720 Y50.07629
G1 F300 X71.77899 Y50.19265
G1 F300 X71.90424 Y50.33126
G1 F300 X72.00475 Y50.50334
G1 F300 X72.06279 Y50.68092
G1 F300 X72.08425 Y50.88528
G1 F300 X72.06441 Y51.07103
G1 F300 X72.00475 Y51.25468
G1 F300 X71.91161 Y51.41663
G1 F300 X71.77899 Y51.56537
G1 F300 X71.61720 Y51.68173
G1 F300 X71.44641 Y51.75742
G1 F300 X71.25753 Y51.79755
G1 F300 X71.07072 Y51.79788
G1 F300 X70.87557 Y51.75742
G1 F300 X70.70478 Y51.68173
G1 F300 X70.53853 Y51.56095
G1 F300 X70.41037 Y51.41663
G1 F300 X70.31722 Y51.25468
G1 F300 X70.25756 Y51.07103
G1 F300 X70.23772 Y50.87274
;G04 P0 ; dwell for no time -- G64 should not smooth over this point 
G1 F3000 Z3.00000 ; retract 

G1 F3000 X72.77772 Y50.87274 ; rapid move to begin. 
G1 F300 F300.00000
G1 F300 Z-0.07000
;G04 P0 ; dwell for no time -- G64 should not smooth over this point 
G1 F300 F600.00000
G1 F300 X72.77772 Y50.87274
G1 F300 X72.79756 Y50.68699
G1 F300 X72.85722 Y50.50334
G1 F300 X72.95037 Y50.34139
G1 F300 X73.08298 Y50.19265
G1 F300 X73.24478 Y50.07629
G1 F300 X73.41557 Y50.00063
G1 F300 X73.60444 Y49.96047
G1 F300 X73.79126 Y49.96014
G1 F300 X73.98641 Y50.00063
G1 F300 X74.15720 Y50.07629
G1 F300 X74.31899 Y50.19265
G1 F300 X74.44424 Y50.33126
G1 F300 X74.54475 Y50.50334
G1 F300 X74.60279 Y50.68092
G1 F300 X74.62425 Y50.88528
G1 F300 X74.60441 Y51.07103
G1 F300 X74.54475 Y51.25468
G1 F300 X74.45161 Y51.41663
G1 F300 X74.31899 Y51.56537
G1 F300 X74.15720 Y51.68173
G1 F300 X73.98641 Y51.75742
G1 F300 X73.79753 Y51.79755
G1 F300 X73.61072 Y51.79788
G1 F300 X73.41557 Y51.75742
G1 F300 X73.24478 Y51.68173
G1 F300 X73.07853 Y51.56095
G1 F300 X72.95037 Y51.41663
G1 F300 X72.85722 Y51.25468
G1 F300 X72.79756 Y51.07103
G1 F300 X72.77772 Y50.87274
;G04 P0 ; dwell for no time -- G64 should not smooth over this point 
G1 F3000 Z3.00000 ; retract 

G1 F3000 X75.31772 Y50.87274 ; rapid move to begin. 
G1 F300 F300.00000
G1 F300 Z-0.07000
;G04 P0 ; dwell for no time -- G64 should not smooth over this point 
G1 F300 F600.00000
G1 F300 X75.31772 Y50.87274
G1 F300 X75.33756 Y50.68699
G1 F300 X75.39722 Y50.50334
G1 F300 X75.49037 Y50.34139
G1 F300 X75.62298 Y50.19265
G1 F300 X75.78478 Y50.07629
G1 F300 X75.95557 Y50.00063
G1 F300 X76.14444 Y49.96047
G1 F300 X76.33126 Y49.96014
G1 F300 X76.52641 Y50.00063
G1 F300 X76.69720 Y50.07629
G1 F300 X76.85899 Y50.19265
G1 F300 X76.98424 Y50.33126
G1 F300 X77.08475 Y50.50334
G1 F300 X77.14279 Y50.68092
G1 F300 X77.16425 Y50.88528
G1 F300 X77.14441 Y51.07103
G1 F300 X77.08475 Y51.25468
G1 F300 X76.99161 Y51.41663
G1 F300 X76.85899 Y51.56537
G1 F300 X76.69720 Y51.68173
G1 F300 X76.52641 Y51.75742
G1 F300 X76.33753 Y51.79755
G1 F300 X76.15072 Y51.79788
G1 F300 X75.95557 Y51.75742
G1 F300 X75.78478 Y51.68173
G1 F300 X75.61853 Y51.56095
G1 F300 X75.49037 Y51.41663
G1 F300 X75.39722 Y51.25468
G1 F300 X75.33756 Y51.07103
G1 F300 X75.31772 Y50.87274
;G04 P0 ; dwell for no time -- G64 should not smooth over this point 
G1 F3000 Z3.00000 ; retract 

G1 F3000 X77.85772 Y50.87274 ; rapid move to begin. 
G1 F300 F300.00000
G1 F300 Z-0.07000
;G04 P0 ; dwell for no time -- G64 should not smooth over this point 
G1 F300 F600.00000
G1 F300 X77.85772 Y50.87274
G1 F300 X77.87756 Y50.68699
G1 F300 X77.93722 Y50.50334
G1 F300 X78.03037 Y50.34139
G1 F300 X78.16298 Y50.19265
G1 F300 X78.32478 Y50.07629
G1 F300 X78.49557 Y50.00063
G1 F300 X78.68444 Y49.96047
G1 F300 X78.87126 Y49.96014
G1 F300 X79.06641 Y50.00063
G1 F300 X79.23720 Y50.07629
G1 F300 X79.39412 Y50.18869
G1 F300 X79.52424 Y50.33126
G1 F300 X79.62475 Y50.50334
G1 F300 X79.68276 Y50.68092
G1 F300 X79.70425 Y50.88528
G1 F300 X79.68439 Y51.07103
G1 F300 X79.62475 Y51.25468
G1 F300 X79.53161 Y51.41663
G1 F300 X79.40341 Y51.56095
G1 F300 X79.24804 Y51.67545
G1 F300 X79.06641 Y51.75742
G1 F300 X78.87753 Y51.79755
G1 F300 X78.69072 Y51.79788
G1 F300 X78.49557 Y51.75742
G1 F300 X78.32478 Y51.68173
G1 F300 X78.15853 Y51.56095
G1 F300 X78.03037 Y51.41663
G1 F300 X77.93722 Y51.25468
G1 F300 X77.87756 Y51.07103
G1 F300 X77.85772 Y50.87274
;G04 P0 ; dwell for no time -- G64 should not smooth over this point 
G1 F3000 Z3.00000 ; retract 

G1 F3000 X80.39772 Y50.87274 ; rapid move to begin. 
G1 F300 F300.00000
G1 F300 Z-0.07000
;G04 P0 ; dwell for no time -- G64 should not smooth over this point 
G1 F300 F600.00000
G1 F300 X80.39772 Y50.87274
G1 F300 X80.41756 Y50.68699
G1 F300 X80.47722 Y50.50334
G1 F300 X80.57037 Y50.34139
G1 F300 X80.70295 Y50.19265
G1 F300 X80.86478 Y50.07629
G1 F300 X81.03557 Y50.00063
G1 F300 X81.21824 Y49.96146
G1 F300 X81.41126 Y49.96014
G1 F300 X81.60641 Y50.00063
G1 F300 X81.77720 Y50.07629
G1 F300 X81.93899 Y50.19265
G1 F300 X82.06424 Y50.33126
G1 F300 X82.16475 Y50.50334
G1 F300 X82.22279 Y50.68092
G1 F300 X82.24425 Y50.88528
G1 F300 X82.22441 Y51.07103
G1 F300 X82.16475 Y51.25468
G1 F300 X82.07161 Y51.41663
G1 F300 X81.93899 Y51.56537
G1 F300 X81.77720 Y51.68173
G1 F300 X81.60641 Y51.75742
G1 F300 X81.42373 Y51.79656
G1 F300 X81.23072 Y51.79788
G1 F300 X81.03557 Y51.75742
G1 F300 X80.86478 Y51.68173
G1 F300 X80.69853 Y51.56095
G1 F300 X80.57037 Y51.41663
G1 F300 X80.47722 Y51.25468
G1 F300 X80.41756 Y51.07103
G1 F300 X80.39772 Y50.87274
;G04 P0 ; dwell for no time -- G64 should not smooth over this point 
G1 F3000 Z3.00000 ; retract 

G1 F3000 X82.93772 Y50.87274 ; rapid move to begin. 
G1 F300 F300.00000
G1 F300 Z-0.07000
;G04 P0 ; dwell for no time -- G64 should not smooth over this point 
G1 F300 F600.00000
G1 F300 X82.93772 Y50.87274
G1 F300 X82.95753 Y50.68699
G1 F300 X83.01722 Y50.50334
G1 F300 X83.11037 Y50.34139
G1 F300 X83.24298 Y50.19265
G1 F300 X83.40475 Y50.07629
G1 F300 X83.57557 Y50.00063
G1 F300 X83.75822 Y49.96146
G1 F300 X83.95123 Y49.96014
G1 F300 X84.14638 Y50.00063
G1 F300 X84.31720 Y50.07629
G1 F300 X84.47899 Y50.19265
G1 F300 X84.60424 Y50.33126
G1 F300 X84.70475 Y50.50334
G1 F300 X84.76279 Y50.68092
G1 F300 X84.78425 Y50.88528
G1 F300 X84.76441 Y51.07103
G1 F300 X84.70475 Y51.25468
G1 F300 X84.61161 Y51.41663
G1 F300 X84.47899 Y51.56537
G1 F300 X84.31720 Y51.68173
G1 F300 X84.14638 Y51.75742
G1 F300 X83.96373 Y51.79656
G1 F300 X83.77072 Y51.79788
G1 F300 X83.57557 Y51.75742
G1 F300 X83.40475 Y51.68173
G1 F300 X83.23851 Y51.56095
G1 F300 X83.11037 Y51.41663
G1 F300 X83.01722 Y51.25468
G1 F300 X82.95753 Y51.07103
G1 F300 X82.93772 Y50.87274
;G04 P0 ; dwell for no time -- G64 should not smooth over this point 
G1 F3000 Z3.00000 ; retract 

G1 F3000 X85.47772 Y50.87274 ; rapid move to begin. 
G1 F300 F300.00000
G1 F300 Z-0.07000
;G04 P0 ; dwell for no time -- G64 should not smooth over this point 
G1 F300 F600.00000
G1 F300 X85.47772 Y50.87274
G1 F300 X85.49756 Y50.68699
G1 F300 X85.55722 Y50.50334
G1 F300 X85.65037 Y50.34139
G1 F300 X85.78298 Y50.19265
G1 F300 X85.94478 Y50.07629
G1 F300 X86.11557 Y50.00063
G1 F300 X86.29824 Y49.96146
G1 F300 X86.49126 Y49.96014
G1 F300 X86.68641 Y50.00063
G1 F300 X86.85720 Y50.07629
G1 F300 X87.01899 Y50.19265
G1 F300 X87.14424 Y50.33126
G1 F300 X87.24475 Y50.50334
G1 F300 X87.30279 Y50.68092
G1 F300 X87.32425 Y50.88528
G1 F300 X87.30441 Y51.07103
G1 F300 X87.24475 Y51.25468
G1 F300 X87.15161 Y51.41663
G1 F300 X87.01899 Y51.56537
G1 F300 X86.85720 Y51.68173
G1 F300 X86.68641 Y51.75742
G1 F300 X86.50373 Y51.79656
G1 F300 X86.31072 Y51.79788
G1 F300 X86.11557 Y51.75742
G1 F300 X85.94478 Y51.68173
G1 F300 X85.77853 Y51.56095
G1 F300 X85.65037 Y51.41663
G1 F300 X85.55722 Y51.25468
G1 F300 X85.49756 Y51.07103
G1 F300 X85.47772 Y50.87274
;G04 P0 ; dwell for no time -- G64 should not smooth over this point 
G1 F3000 Z3.00000 ; retract 

G1 F3000 X93.09772 Y50.87274 ; rapid move to begin. 
G1 F300 F300.00000
G1 F300 Z-0.07000
;G04 P0 ; dwell for no time -- G64 should not smooth over this point 
G1 F300 F600.00000
G1 F300 X93.09772 Y50.87274
G1 F300 X93.11756 Y50.68699
G1 F300 X93.17499 Y50.50921
G1 F300 X93.27773 Y50.33126
G1 F300 X93.40298 Y50.19265
G1 F300 X93.55393 Y50.08257
G1 F300 X93.74164 Y49.99900
G1 F300 X93.93072 Y49.96014
G1 F300 X94.11126 Y49.96014
G1 F300 X94.30641 Y50.00063
G1 F300 X94.48804 Y50.08257
G1 F300 X94.63922 Y50.19283
G1 F300 X94.75111 Y50.31902
G1 F300 X95.83086 Y50.31902
G1 F300 X95.94275 Y50.19283
G1 F300 X96.09393 Y50.08257
G1 F300 X96.26973 Y50.00286
G1 F300 X96.45824 Y49.96146
G1 F300 X96.65126 Y49.96014
G1 F300 X96.84641 Y50.00063
G1 F300 X97.01720 Y50.07629
G1 F300 X97.17899 Y50.19265
G1 F300 X97.30424 Y50.33126
G1 F300 X97.40475 Y50.50334
G1 F300 X97.46279 Y50.68092
G1 F300 X97.48425 Y50.88528
G1 F300 X97.46441 Y51.07103
G1 F300 X97.40698 Y51.24881
G1 F300 X97.30424 Y51.42676
G1 F300 X97.17899 Y51.56537
G1 F300 X97.02804 Y51.67545
G1 F300 X96.84034 Y51.75904
G1 F300 X96.65126 Y51.79788
G1 F300 X96.47072 Y51.79788
G1 F300 X96.27557 Y51.75742
G1 F300 X96.09393 Y51.67545
G1 F300 X95.94275 Y51.56519
G1 F300 X95.83086 Y51.43903
G1 F300 X94.75111 Y51.43903
G1 F300 X94.63922 Y51.56519
G1 F300 X94.48804 Y51.67545
G1 F300 X94.31225 Y51.75516
G1 F300 X94.12373 Y51.79656
G1 F300 X93.93072 Y51.79788
G1 F300 X93.73557 Y51.75742
G1 F300 X93.56478 Y51.68173
G1 F300 X93.39853 Y51.56095
G1 F300 X93.27037 Y51.41663
G1 F300 X93.17722 Y51.25468
G1 F300 X93.11756 Y51.07103
G1 F300 X93.09772 Y50.87274
;G04 P0 ; dwell for no time -- G64 should not smooth over this point 
G1 F3000 Z3.00000 ; retract 

G1 F3000 X95.63772 Y48.33274 ; rapid move to begin. 
G1 F300 F300.00000
G1 F300 Z-0.07000
;G04 P0 ; dwell for no time -- G64 should not smooth over this point 
G1 F300 F600.00000
G1 F300 X95.63772 Y48.33274
G1 F300 X95.65756 Y48.14699
G1 F300 X95.71722 Y47.96334
G1 F300 X95.81037 Y47.80139
G1 F300 X95.94298 Y47.65265
G1 F300 X96.10478 Y47.53629
G1 F300 X96.27557 Y47.46063
G1 F300 X96.45824 Y47.42146
G1 F300 X96.65126 Y47.42014
G1 F300 X96.84641 Y47.46063
G1 F300 X97.01720 Y47.53629
G1 F300 X97.17899 Y47.65265
G1 F300 X97.30424 Y47.79126
G1 F300 X97.40475 Y47.96334
G1 F300 X97.46279 Y48.14092
G1 F300 X97.48425 Y48.34528
G1 F300 X97.46441 Y48.53103
G1 F300 X97.40475 Y48.71468
G1 F300 X97.31161 Y48.87663
G1 F300 X97.17899 Y49.02537
G1 F300 X97.01720 Y49.14173
G1 F300 X96.84641 Y49.21742
G1 F300 X96.66373 Y49.25656
G1 F300 X96.47072 Y49.25788
G1 F300 X96.27557 Y49.21742
G1 F300 X96.10478 Y49.14173
G1 F300 X95.93853 Y49.02095
G1 F300 X95.81037 Y48.87663
G1 F300 X95.71722 Y48.71468
G1 F300 X95.65756 Y48.53103
G1 F300 X95.63772 Y48.33274
;G04 P0 ; dwell for no time -- G64 should not smooth over this point 
G1 F3000 Z3.00000 ; retract 

G1 F3000 X93.09772 Y48.33274 ; rapid move to begin. 
G1 F300 F300.00000
G1 F300 Z-0.07000
;G04 P0 ; dwell for no time -- G64 should not smooth over this point 
G1 F300 F600.00000
G1 F300 X93.09772 Y48.33274
G1 F300 X93.11756 Y48.53103
G1 F300 X93.17722 Y48.71468
G1 F300 X93.27037 Y48.87663
G1 F300 X93.39853 Y49.02095
G1 F300 X93.56478 Y49.14173
G1 F300 X93.73557 Y49.21742
G1 F300 X93.93072 Y49.25788
G1 F300 X94.12373 Y49.25656
G1 F300 X94.30641 Y49.21742
G1 F300 X94.47720 Y49.14173
G1 F300 X94.63899 Y49.02537
G1 F300 X94.77161 Y48.87663
G1 F300 X94.86475 Y48.71468
G1 F300 X94.92441 Y48.53103
G1 F300 X94.94425 Y48.34528
G1 F300 X94.92279 Y48.14092
G1 F300 X94.86475 Y47.96334
G1 F300 X94.76424 Y47.79126
G1 F300 X94.63899 Y47.65265
G1 F300 X94.47720 Y47.53629
G1 F300 X94.30641 Y47.46063
G1 F300 X94.11126 Y47.42014
G1 F300 X93.91824 Y47.42146
G1 F300 X93.73557 Y47.46063
G1 F300 X93.56478 Y47.53629
G1 F300 X93.40298 Y47.65265
G1 F300 X93.27037 Y47.80139
G1 F300 X93.17722 Y47.96334
G1 F300 X93.11756 Y48.14699
G1 F300 X93.09772 Y48.33274
;G04 P0 ; dwell for no time -- G64 should not smooth over this point 
G1 F3000 Z3.00000 ; retract 

G1 F3000 X95.63772 Y45.79274 ; rapid move to begin. 
G1 F300 F300.00000
G1 F300 Z-0.07000
;G04 P0 ; dwell for no time -- G64 should not smooth over this point 
G1 F300 F600.00000
G1 F300 X95.63772 Y45.79274
G1 F300 X95.65756 Y45.99103
G1 F300 X95.71722 Y46.17468
G1 F300 X95.81037 Y46.33663
G1 F300 X95.93853 Y46.48095
G1 F300 X96.10478 Y46.60173
G1 F300 X96.27557 Y46.67742
G1 F300 X96.47072 Y46.71788
G1 F300 X96.66373 Y46.71656
G1 F300 X96.84641 Y46.67742
G1 F300 X97.01720 Y46.60173
G1 F300 X97.17899 Y46.48537
G1 F300 X97.31161 Y46.33663
G1 F300 X97.40475 Y46.17468
G1 F300 X97.46441 Y45.99103
G1 F300 X97.48425 Y45.80528
G1 F300 X97.46279 Y45.60092
G1 F300 X97.40475 Y45.42334
G1 F300 X97.30424 Y45.25126
G1 F300 X97.17899 Y45.11265
G1 F300 X97.01720 Y44.99629
G1 F300 X96.84641 Y44.92063
G1 F300 X96.65126 Y44.88014
G1 F300 X96.45824 Y44.88146
G1 F300 X96.27557 Y44.92063
G1 F300 X96.10478 Y44.99629
G1 F300 X95.94298 Y45.11265
G1 F300 X95.81037 Y45.26139
G1 F300 X95.71722 Y45.42334
G1 F300 X95.65756 Y45.60699
G1 F300 X95.63772 Y45.79274
;G04 P0 ; dwell for no time -- G64 should not smooth over this point 
G1 F3000 Z3.00000 ; retract 

G1 F3000 X93.09772 Y45.79274 ; rapid move to begin. 
G1 F300 F300.00000
G1 F300 Z-0.07000
;G04 P0 ; dwell for no time -- G64 should not smooth over this point 
G1 F300 F600.00000
G1 F300 X93.09772 Y45.79274
G1 F300 X93.11756 Y45.99103
G1 F300 X93.17722 Y46.17468
G1 F300 X93.27037 Y46.33663
G1 F300 X93.39853 Y46.48095
G1 F300 X93.56478 Y46.60173
G1 F300 X93.73557 Y46.67742
G1 F300 X93.93072 Y46.71788
G1 F300 X94.12373 Y46.71656
G1 F300 X94.30641 Y46.67742
G1 F300 X94.47720 Y46.60173
G1 F300 X94.63899 Y46.48537
G1 F300 X94.77161 Y46.33663
G1 F300 X94.86475 Y46.17468
G1 F300 X94.92441 Y45.99103
G1 F300 X94.94425 Y45.80528
G1 F300 X94.92279 Y45.60092
G1 F300 X94.86475 Y45.42334
G1 F300 X94.76424 Y45.25126
G1 F300 X94.63899 Y45.11265
G1 F300 X94.47720 Y44.99629
G1 F300 X94.30641 Y44.92063
G1 F300 X94.11126 Y44.88014
G1 F300 X93.91824 Y44.88146
G1 F300 X93.73557 Y44.92063
G1 F300 X93.56478 Y44.99629
G1 F300 X93.40298 Y45.11265
G1 F300 X93.27037 Y45.26139
G1 F300 X93.17722 Y45.42334
G1 F300 X93.11756 Y45.60699
G1 F300 X93.09772 Y45.79274
;G04 P0 ; dwell for no time -- G64 should not smooth over this point 
G1 F3000 Z3.00000 ; retract 

G1 F3000 X95.63772 Y43.25274 ; rapid move to begin. 
G1 F300 F300.00000
G1 F300 Z-0.07000
;G04 P0 ; dwell for no time -- G64 should not smooth over this point 
G1 F300 F600.00000
G1 F300 X95.63772 Y43.25274
G1 F300 X95.65756 Y43.45103
G1 F300 X95.71722 Y43.63468
G1 F300 X95.81037 Y43.79663
G1 F300 X95.93853 Y43.94095
G1 F300 X96.10478 Y44.06173
G1 F300 X96.27557 Y44.13742
G1 F300 X96.47072 Y44.17788
G1 F300 X96.66373 Y44.17656
G1 F300 X96.84641 Y44.13742
G1 F300 X97.01720 Y44.06173
G1 F300 X97.17899 Y43.94537
G1 F300 X97.31161 Y43.79663
G1 F300 X97.40475 Y43.63468
G1 F300 X97.46441 Y43.45103
G1 F300 X97.48425 Y43.26528
G1 F300 X97.46279 Y43.06092
G1 F300 X97.40475 Y42.88334
G1 F300 X97.30424 Y42.71126
G1 F300 X97.17899 Y42.57265
G1 F300 X97.01720 Y42.45629
G1 F300 X96.84641 Y42.38063
G1 F300 X96.65126 Y42.34014
G1 F300 X96.45824 Y42.34146
G1 F300 X96.27557 Y42.38063
G1 F300 X96.10478 Y42.45629
G1 F300 X95.94298 Y42.57265
G1 F300 X95.81037 Y42.72139
G1 F300 X95.71722 Y42.88334
G1 F300 X95.65756 Y43.06699
G1 F300 X95.63772 Y43.25274
;G04 P0 ; dwell for no time -- G64 should not smooth over this point 
G1 F3000 Z3.00000 ; retract 

G1 F3000 X93.09772 Y43.25274 ; rapid move to begin. 
G1 F300 F300.00000
G1 F300 Z-0.07000
;G04 P0 ; dwell for no time -- G64 should not smooth over this point 
G1 F300 F600.00000
G1 F300 X93.09772 Y43.25274
G1 F300 X93.11756 Y43.06699
G1 F300 X93.17722 Y42.88334
G1 F300 X93.27037 Y42.72139
G1 F300 X93.40298 Y42.57265
G1 F300 X93.56478 Y42.45629
G1 F300 X93.73557 Y42.38063
G1 F300 X93.91824 Y42.34146
G1 F300 X94.11126 Y42.34014
G1 F300 X94.30641 Y42.38063
G1 F300 X94.47720 Y42.45629
G1 F300 X94.63899 Y42.57265
G1 F300 X94.76424 Y42.71126
G1 F300 X94.86475 Y42.88334
G1 F300 X94.92279 Y43.06092
G1 F300 X94.94425 Y43.26528
G1 F300 X94.92441 Y43.45103
G1 F300 X94.86475 Y43.63468
G1 F300 X94.77161 Y43.79663
G1 F300 X94.63899 Y43.94537
G1 F300 X94.47720 Y44.06173
G1 F300 X94.30641 Y44.13742
G1 F300 X94.12373 Y44.17656
G1 F300 X93.93072 Y44.17788
G1 F300 X93.73557 Y44.13742
G1 F300 X93.56478 Y44.06173
G1 F300 X93.39853 Y43.94095
G1 F300 X93.27037 Y43.79663
G1 F300 X93.17722 Y43.63468
G1 F300 X93.11756 Y43.45103
G1 F300 X93.09772 Y43.25274
;G04 P0 ; dwell for no time -- G64 should not smooth over this point 
G1 F3000 Z3.00000 ; retract 

G1 F3000 X93.09772 Y40.71274 ; rapid move to begin. 
G1 F300 F300.00000
G1 F300 Z-0.07000
;G04 P0 ; dwell for no time -- G64 should not smooth over this point 
G1 F300 F600.00000
G1 F300 X93.09772 Y40.71274
G1 F300 X93.11756 Y40.52699
G1 F300 X93.17722 Y40.34334
G1 F300 X93.27037 Y40.18139
G1 F300 X93.40298 Y40.03265
G1 F300 X93.56478 Y39.91629
G1 F300 X93.73557 Y39.84063
G1 F300 X93.91824 Y39.80146
G1 F300 X94.11126 Y39.80014
G1 F300 X94.30641 Y39.84063
G1 F300 X94.47720 Y39.91629
G1 F300 X94.63899 Y40.03265
G1 F300 X94.76424 Y40.17126
G1 F300 X94.86475 Y40.34334
G1 F300 X94.92279 Y40.52092
G1 F300 X94.94425 Y40.72528
G1 F300 X94.92441 Y40.91103
G1 F300 X94.86475 Y41.09468
G1 F300 X94.77161 Y41.25663
G1 F300 X94.63899 Y41.40537
G1 F300 X94.47720 Y41.52173
G1 F300 X94.30641 Y41.59742
G1 F300 X94.12373 Y41.63656
G1 F300 X93.93072 Y41.63788
G1 F300 X93.73557 Y41.59742
G1 F300 X93.56478 Y41.52173
G1 F300 X93.39853 Y41.40095
G1 F300 X93.27037 Y41.25663
G1 F300 X93.17722 Y41.09468
G1 F300 X93.11756 Y40.91103
G1 F300 X93.09772 Y40.71274
;G04 P0 ; dwell for no time -- G64 should not smooth over this point 
G1 F3000 Z3.00000 ; retract 

G1 F3000 X95.63772 Y40.71274 ; rapid move to begin. 
G1 F300 F300.00000
G1 F300 Z-0.07000
;G04 P0 ; dwell for no time -- G64 should not smooth over this point 
G1 F300 F600.00000
G1 F300 X95.63772 Y40.71274
G1 F300 X95.65756 Y40.52699
G1 F300 X95.71722 Y40.34334
G1 F300 X95.81037 Y40.18139
G1 F300 X95.94298 Y40.03265
G1 F300 X96.10478 Y39.91629
G1 F300 X96.27557 Y39.84063
G1 F300 X96.45824 Y39.80146
G1 F300 X96.65126 Y39.80014
G1 F300 X96.84641 Y39.84063
G1 F300 X97.01720 Y39.91629
G1 F300 X97.17899 Y40.03265
G1 F300 X97.30424 Y40.17126
G1 F300 X97.40475 Y40.34334
G1 F300 X97.46279 Y40.52092
G1 F300 X97.48425 Y40.72528
G1 F300 X97.46441 Y40.91103
G1 F300 X97.40475 Y41.09468
G1 F300 X97.31161 Y41.25663
G1 F300 X97.17899 Y41.40537
G1 F300 X97.01720 Y41.52173
G1 F300 X96.84641 Y41.59742
G1 F300 X96.66373 Y41.63656
G1 F300 X96.47072 Y41.63788
G1 F300 X96.27557 Y41.59742
G1 F300 X96.10478 Y41.52173
G1 F300 X95.93853 Y41.40095
G1 F300 X95.81037 Y41.25663
G1 F300 X95.71722 Y41.09468
G1 F300 X95.65756 Y40.91103
G1 F300 X95.63772 Y40.71274
;G04 P0 ; dwell for no time -- G64 should not smooth over this point 
G1 F3000 Z3.00000 ; retract 

G1 F3000 X93.09772 Y38.17274 ; rapid move to begin. 
G1 F300 F300.00000
G1 F300 Z-0.07000
;G04 P0 ; dwell for no time -- G64 should not smooth over this point 
G1 F300 F600.00000
G1 F300 X93.09772 Y38.17274
G1 F300 X93.11756 Y37.98699
G1 F300 X93.17722 Y37.80334
G1 F300 X93.27037 Y37.64139
G1 F300 X93.40298 Y37.49265
G1 F300 X93.56478 Y37.37629
G1 F300 X93.73557 Y37.30063
G1 F300 X93.91824 Y37.26146
G1 F300 X94.11126 Y37.26014
G1 F300 X94.30641 Y37.30063
G1 F300 X94.47720 Y37.37629
G1 F300 X94.63899 Y37.49265
G1 F300 X94.76424 Y37.63126
G1 F300 X94.86475 Y37.80334
G1 F300 X94.92279 Y37.98092
G1 F300 X94.94425 Y38.18528
G1 F300 X94.92441 Y38.37103
G1 F300 X94.86475 Y38.55468
G1 F300 X94.77161 Y38.71663
G1 F300 X94.63899 Y38.86537
G1 F300 X94.47720 Y38.98173
G1 F300 X94.30641 Y39.05742
G1 F300 X94.12373 Y39.09656
G1 F300 X93.93072 Y39.09788
G1 F300 X93.73557 Y39.05742
G1 F300 X93.56478 Y38.98173
G1 F300 X93.39853 Y38.86095
G1 F300 X93.27037 Y38.71663
G1 F300 X93.17722 Y38.55468
G1 F300 X93.11756 Y38.37103
G1 F300 X93.09772 Y38.17274
;G04 P0 ; dwell for no time -- G64 should not smooth over this point 
G1 F3000 Z3.00000 ; retract 

G1 F3000 X95.63772 Y38.17274 ; rapid move to begin. 
G1 F300 F300.00000
G1 F300 Z-0.07000
;G04 P0 ; dwell for no time -- G64 should not smooth over this point 
G1 F300 F600.00000
G1 F300 X95.63772 Y38.17274
G1 F300 X95.65756 Y38.37103
G1 F300 X95.71722 Y38.55468
G1 F300 X95.81037 Y38.71663
G1 F300 X95.93853 Y38.86095
G1 F300 X96.10478 Y38.98173
G1 F300 X96.27557 Y39.05742
G1 F300 X96.47072 Y39.09788
G1 F300 X96.66373 Y39.09656
G1 F300 X96.84641 Y39.05742
G1 F300 X97.01720 Y38.98173
G1 F300 X97.17899 Y38.86537
G1 F300 X97.31161 Y38.71663
G1 F300 X97.40475 Y38.55468
G1 F300 X97.46441 Y38.37103
G1 F300 X97.48425 Y38.18528
G1 F300 X97.46279 Y37.98092
G1 F300 X97.40475 Y37.80334
G1 F300 X97.30424 Y37.63126
G1 F300 X97.17899 Y37.49265
G1 F300 X97.01720 Y37.37629
G1 F300 X96.84641 Y37.30063
G1 F300 X96.65126 Y37.26014
G1 F300 X96.45824 Y37.26146
G1 F300 X96.27557 Y37.30063
G1 F300 X96.10478 Y37.37629
G1 F300 X95.94298 Y37.49265
G1 F300 X95.81037 Y37.64139
G1 F300 X95.71722 Y37.80334
G1 F300 X95.65756 Y37.98699
G1 F300 X95.63772 Y38.17274
;G04 P0 ; dwell for no time -- G64 should not smooth over this point 
G1 F3000 Z3.00000 ; retract 

G1 F3000 X95.63772 Y35.63274 ; rapid move to begin. 
G1 F300 F300.00000
G1 F300 Z-0.07000
;G04 P0 ; dwell for no time -- G64 should not smooth over this point 
G1 F300 F600.00000
G1 F300 X95.63772 Y35.63274
G1 F300 X95.65756 Y35.83103
G1 F300 X95.71722 Y36.01468
G1 F300 X95.81037 Y36.17663
G1 F300 X95.93853 Y36.32095
G1 F300 X96.10478 Y36.44173
G1 F300 X96.27557 Y36.51742
G1 F300 X96.47072 Y36.55788
G1 F300 X96.66373 Y36.55656
G1 F300 X96.84641 Y36.51742
G1 F300 X97.01720 Y36.44173
G1 F300 X97.17899 Y36.32537
G1 F300 X97.31161 Y36.17663
G1 F300 X97.40475 Y36.01468
G1 F300 X97.46441 Y35.83103
G1 F300 X97.48425 Y35.64528
G1 F300 X97.46279 Y35.44092
G1 F300 X97.40475 Y35.26334
G1 F300 X97.30424 Y35.09126
G1 F300 X97.17899 Y34.95265
G1 F300 X97.01720 Y34.83629
G1 F300 X96.84641 Y34.76063
G1 F300 X96.65126 Y34.72014
G1 F300 X96.45824 Y34.72146
G1 F300 X96.27557 Y34.76063
G1 F300 X96.10478 Y34.83629
G1 F300 X95.94298 Y34.95265
G1 F300 X95.81037 Y35.10139
G1 F300 X95.71722 Y35.26334
G1 F300 X95.65756 Y35.44699
G1 F300 X95.63772 Y35.63274
;G04 P0 ; dwell for no time -- G64 should not smooth over this point 
G1 F3000 Z3.00000 ; retract 

G1 F3000 X93.09772 Y35.63274 ; rapid move to begin. 
G1 F300 F300.00000
G1 F300 Z-0.07000
;G04 P0 ; dwell for no time -- G64 should not smooth over this point 
G1 F300 F600.00000
G1 F300 X93.09772 Y35.63274
G1 F300 X93.11756 Y35.83103
G1 F300 X93.17722 Y36.01468
G1 F300 X93.27037 Y36.17663
G1 F300 X93.39853 Y36.32095
G1 F300 X93.56478 Y36.44173
G1 F300 X93.73557 Y36.51742
G1 F300 X93.93072 Y36.55788
G1 F300 X94.12373 Y36.55656
G1 F300 X94.30641 Y36.51742
G1 F300 X94.47720 Y36.44173
G1 F300 X94.63899 Y36.32537
G1 F300 X94.77161 Y36.17663
G1 F300 X94.86475 Y36.01468
G1 F300 X94.92441 Y35.83103
G1 F300 X94.94425 Y35.64528
G1 F300 X94.92279 Y35.44092
G1 F300 X94.86475 Y35.26334
G1 F300 X94.76424 Y35.09126
G1 F300 X94.63899 Y34.95265
G1 F300 X94.47720 Y34.83629
G1 F300 X94.30641 Y34.76063
G1 F300 X94.11126 Y34.72014
G1 F300 X93.91824 Y34.72146
G1 F300 X93.73557 Y34.76063
G1 F300 X93.56478 Y34.83629
G1 F300 X93.40298 Y34.95265
G1 F300 X93.27037 Y35.10139
G1 F300 X93.17722 Y35.26334
G1 F300 X93.11756 Y35.44699
G1 F300 X93.09772 Y35.63274
;G04 P0 ; dwell for no time -- G64 should not smooth over this point 
G1 F3000 Z3.00000 ; retract 

G1 F3000 X93.09772 Y33.09274 ; rapid move to begin. 
G1 F300 F300.00000
G1 F300 Z-0.07000
;G04 P0 ; dwell for no time -- G64 should not smooth over this point 
G1 F300 F600.00000
G1 F300 X93.09772 Y33.09274
G1 F300 X93.11756 Y32.90699
G1 F300 X93.17722 Y32.72334
G1 F300 X93.27037 Y32.56139
G1 F300 X93.40298 Y32.41265
G1 F300 X93.56478 Y32.29629
G1 F300 X93.73557 Y32.22063
G1 F300 X93.91824 Y32.18146
G1 F300 X94.11126 Y32.18014
G1 F300 X94.30641 Y32.22063
G1 F300 X94.47720 Y32.29629
G1 F300 X94.63899 Y32.41265
G1 F300 X94.76424 Y32.55126
G1 F300 X94.86475 Y32.72334
G1 F300 X94.92279 Y32.90092
G1 F300 X94.94425 Y33.10528
G1 F300 X94.92441 Y33.29103
G1 F300 X94.86475 Y33.47468
G1 F300 X94.77161 Y33.63663
G1 F300 X94.63899 Y33.78537
G1 F300 X94.47720 Y33.90173
G1 F300 X94.30641 Y33.97742
G1 F300 X94.12373 Y34.01656
G1 F300 X93.93072 Y34.01788
G1 F300 X93.73557 Y33.97742
G1 F300 X93.56478 Y33.90173
G1 F300 X93.39853 Y33.78095
G1 F300 X93.27037 Y33.63663
G1 F300 X93.17722 Y33.47468
G1 F300 X93.11756 Y33.29103
G1 F300 X93.09772 Y33.09274
;G04 P0 ; dwell for no time -- G64 should not smooth over this point 
G1 F3000 Z3.00000 ; retract 

G1 F3000 X95.63772 Y33.09274 ; rapid move to begin. 
G1 F300 F300.00000
G1 F300 Z-0.07000
;G04 P0 ; dwell for no time -- G64 should not smooth over this point 
G1 F300 F600.00000
G1 F300 X95.63772 Y33.09274
G1 F300 X95.65756 Y33.29103
G1 F300 X95.71722 Y33.47468
G1 F300 X95.81037 Y33.63663
G1 F300 X95.93853 Y33.78095
G1 F300 X96.10478 Y33.90173
G1 F300 X96.27557 Y33.97742
G1 F300 X96.47072 Y34.01788
G1 F300 X96.66373 Y34.01656
G1 F300 X96.84641 Y33.97742
G1 F300 X97.01720 Y33.90173
G1 F300 X97.17899 Y33.78537
G1 F300 X97.31161 Y33.63663
G1 F300 X97.40475 Y33.47468
G1 F300 X97.46441 Y33.29103
G1 F300 X97.48425 Y33.10528
G1 F300 X97.46279 Y32.90092
G1 F300 X97.40475 Y32.72334
G1 F300 X97.30424 Y32.55126
G1 F300 X97.17899 Y32.41265
G1 F300 X97.01720 Y32.29629
G1 F300 X96.84641 Y32.22063
G1 F300 X96.65126 Y32.18014
G1 F300 X96.45824 Y32.18146
G1 F300 X96.27557 Y32.22063
G1 F300 X96.10478 Y32.29629
G1 F300 X95.94298 Y32.41265
G1 F300 X95.81037 Y32.56139
G1 F300 X95.71722 Y32.72334
G1 F300 X95.65756 Y32.90699
G1 F300 X95.63772 Y33.09274
;G04 P0 ; dwell for no time -- G64 should not smooth over this point 
G1 F3000 Z3.00000 ; retract 

G1 F3000 X95.63772 Y30.55274 ; rapid move to begin. 
G1 F300 F300.00000
G1 F300 Z-0.07000
;G04 P0 ; dwell for no time -- G64 should not smooth over this point 
G1 F300 F600.00000
G1 F300 X95.63772 Y30.55274
G1 F300 X95.65756 Y30.75103
G1 F300 X95.71722 Y30.93468
G1 F300 X95.81037 Y31.09663
G1 F300 X95.93853 Y31.24095
G1 F300 X96.10478 Y31.36173
G1 F300 X96.27557 Y31.43742
G1 F300 X96.47072 Y31.47788
G1 F300 X96.66373 Y31.47656
G1 F300 X96.84641 Y31.43742
G1 F300 X97.01720 Y31.36173
G1 F300 X97.17899 Y31.24537
G1 F300 X97.31161 Y31.09663
G1 F300 X97.40475 Y30.93468
G1 F300 X97.46441 Y30.75103
G1 F300 X97.48425 Y30.56528
G1 F300 X97.46279 Y30.36092
G1 F300 X97.40475 Y30.18334
G1 F300 X97.30424 Y30.01126
G1 F300 X97.17899 Y29.87265
G1 F300 X97.01720 Y29.75629
G1 F300 X96.84641 Y29.68063
G1 F300 X96.65126 Y29.64014
G1 F300 X96.45824 Y29.64146
G1 F300 X96.27557 Y29.68063
G1 F300 X96.10478 Y29.75629
G1 F300 X95.94298 Y29.87265
G1 F300 X95.81037 Y30.02139
G1 F300 X95.71722 Y30.18334
G1 F300 X95.65756 Y30.36699
G1 F300 X95.63772 Y30.55274
;G04 P0 ; dwell for no time -- G64 should not smooth over this point 
G1 F3000 Z3.00000 ; retract 

G1 F3000 X93.09772 Y30.55274 ; rapid move to begin. 
G1 F300 F300.00000
G1 F300 Z-0.07000
;G04 P0 ; dwell for no time -- G64 should not smooth over this point 
G1 F300 F600.00000
G1 F300 X93.09772 Y30.55274
G1 F300 X93.11756 Y30.36699
G1 F300 X93.17722 Y30.18334
G1 F300 X93.27037 Y30.02139
G1 F300 X93.40298 Y29.87265
G1 F300 X93.56478 Y29.75629
G1 F300 X93.73557 Y29.68063
G1 F300 X93.91824 Y29.64146
G1 F300 X94.11126 Y29.64014
G1 F300 X94.30641 Y29.68063
G1 F300 X94.47720 Y29.75629
G1 F300 X94.63899 Y29.87265
G1 F300 X94.76424 Y30.01126
G1 F300 X94.86475 Y30.18334
G1 F300 X94.92279 Y30.36092
G1 F300 X94.94425 Y30.56528
G1 F300 X94.92441 Y30.75103
G1 F300 X94.86475 Y30.93468
G1 F300 X94.77161 Y31.09663
G1 F300 X94.63899 Y31.24537
G1 F300 X94.47720 Y31.36173
G1 F300 X94.30641 Y31.43742
G1 F300 X94.12373 Y31.47656
G1 F300 X93.93072 Y31.47788
G1 F300 X93.73557 Y31.43742
G1 F300 X93.56478 Y31.36173
G1 F300 X93.39853 Y31.24095
G1 F300 X93.27037 Y31.09663
G1 F300 X93.17722 Y30.93468
G1 F300 X93.11756 Y30.75103
G1 F300 X93.09772 Y30.55274
;G04 P0 ; dwell for no time -- G64 should not smooth over this point 
G1 F3000 Z3.00000 ; retract 

G1 F3000 X93.09772 Y28.01274 ; rapid move to begin. 
G1 F300 F300.00000
G1 F300 Z-0.07000
;G04 P0 ; dwell for no time -- G64 should not smooth over this point 
G1 F300 F600.00000
G1 F300 X93.09772 Y28.01274
G1 F300 X93.11756 Y27.82699
G1 F300 X93.17722 Y27.64334
G1 F300 X93.27037 Y27.48139
G1 F300 X93.40298 Y27.33265
G1 F300 X93.56478 Y27.21629
G1 F300 X93.73557 Y27.14063
G1 F300 X93.91824 Y27.10146
G1 F300 X94.11126 Y27.10014
G1 F300 X94.30641 Y27.14063
G1 F300 X94.47720 Y27.21629
G1 F300 X94.63899 Y27.33265
G1 F300 X94.76424 Y27.47126
G1 F300 X94.86475 Y27.64334
G1 F300 X94.92279 Y27.82092
G1 F300 X94.94425 Y28.02528
G1 F300 X94.92441 Y28.21103
G1 F300 X94.86475 Y28.39468
G1 F300 X94.77161 Y28.55663
G1 F300 X94.63899 Y28.70537
G1 F300 X94.47720 Y28.82173
G1 F300 X94.30641 Y28.89742
G1 F300 X94.12373 Y28.93656
G1 F300 X93.93072 Y28.93788
G1 F300 X93.73557 Y28.89742
G1 F300 X93.56478 Y28.82173
G1 F300 X93.39853 Y28.70095
G1 F300 X93.27037 Y28.55663
G1 F300 X93.17722 Y28.39468
G1 F300 X93.11756 Y28.21103
G1 F300 X93.09772 Y28.01274
;G04 P0 ; dwell for no time -- G64 should not smooth over this point 
G1 F3000 Z3.00000 ; retract 

G1 F3000 X95.63772 Y28.01274 ; rapid move to begin. 
G1 F300 F300.00000
G1 F300 Z-0.07000
;G04 P0 ; dwell for no time -- G64 should not smooth over this point 
G1 F300 F600.00000
G1 F300 X95.63772 Y28.01274
G1 F300 X95.65756 Y27.82699
G1 F300 X95.71722 Y27.64334
G1 F300 X95.81037 Y27.48139
G1 F300 X95.94298 Y27.33265
G1 F300 X96.10478 Y27.21629
G1 F300 X96.27557 Y27.14063
G1 F300 X96.45824 Y27.10146
G1 F300 X96.65126 Y27.10014
G1 F300 X96.84641 Y27.14063
G1 F300 X97.01720 Y27.21629
G1 F300 X97.17899 Y27.33265
G1 F300 X97.30424 Y27.47126
G1 F300 X97.40475 Y27.64334
G1 F300 X97.46279 Y27.82092
G1 F300 X97.48425 Y28.02528
G1 F300 X97.46441 Y28.21103
G1 F300 X97.40475 Y28.39468
G1 F300 X97.31161 Y28.55663
G1 F300 X97.17899 Y28.70537
G1 F300 X97.01720 Y28.82173
G1 F300 X96.84641 Y28.89742
G1 F300 X96.66373 Y28.93656
G1 F300 X96.47072 Y28.93788
G1 F300 X96.27557 Y28.89742
G1 F300 X96.10478 Y28.82173
G1 F300 X95.93853 Y28.70095
G1 F300 X95.81037 Y28.55663
G1 F300 X95.71722 Y28.39468
G1 F300 X95.65756 Y28.21103
G1 F300 X95.63772 Y28.01274
;G04 P0 ; dwell for no time -- G64 should not smooth over this point 
G1 F3000 Z3.00000 ; retract 

G1 F3000 X93.09772 Y25.47274 ; rapid move to begin. 
G1 F300 F300.00000
G1 F300 Z-0.07000
;G04 P0 ; dwell for no time -- G64 should not smooth over this point 
G1 F300 F600.00000
G1 F300 X93.09772 Y25.47274
G1 F300 X93.11756 Y25.28699
G1 F300 X93.17722 Y25.10334
G1 F300 X93.27037 Y24.94139
G1 F300 X93.40298 Y24.79265
G1 F300 X93.56478 Y24.67629
G1 F300 X93.73557 Y24.60063
G1 F300 X93.91824 Y24.56146
G1 F300 X94.11126 Y24.56014
G1 F300 X94.30641 Y24.60063
G1 F300 X94.47720 Y24.67629
G1 F300 X94.63899 Y24.79265
G1 F300 X94.76424 Y24.93126
G1 F300 X94.86475 Y25.10334
G1 F300 X94.92279 Y25.28092
G1 F300 X94.94425 Y25.48528
G1 F300 X94.92441 Y25.67103
G1 F300 X94.86475 Y25.85468
G1 F300 X94.77161 Y26.01663
G1 F300 X94.63899 Y26.16537
G1 F300 X94.47720 Y26.28173
G1 F300 X94.30641 Y26.35742
G1 F300 X94.12373 Y26.39656
G1 F300 X93.93072 Y26.39788
G1 F300 X93.73557 Y26.35742
G1 F300 X93.56478 Y26.28173
G1 F300 X93.39853 Y26.16095
G1 F300 X93.27037 Y26.01663
G1 F300 X93.17722 Y25.85468
G1 F300 X93.11756 Y25.67103
G1 F300 X93.09772 Y25.47274
;G04 P0 ; dwell for no time -- G64 should not smooth over this point 
G1 F3000 Z3.00000 ; retract 

G1 F3000 X95.63772 Y25.47274 ; rapid move to begin. 
G1 F300 F300.00000
G1 F300 Z-0.07000
;G04 P0 ; dwell for no time -- G64 should not smooth over this point 
G1 F300 F600.00000
G1 F300 X95.63772 Y25.47274
G1 F300 X95.65756 Y25.67103
G1 F300 X95.71722 Y25.85468
G1 F300 X95.81037 Y26.01663
G1 F300 X95.93853 Y26.16095
G1 F300 X96.10478 Y26.28173
G1 F300 X96.27557 Y26.35742
G1 F300 X96.47072 Y26.39788
G1 F300 X96.66373 Y26.39656
G1 F300 X96.84641 Y26.35742
G1 F300 X97.01720 Y26.28173
G1 F300 X97.17899 Y26.16537
G1 F300 X97.31161 Y26.01663
G1 F300 X97.40475 Y25.85468
G1 F300 X97.46441 Y25.67103
G1 F300 X97.48425 Y25.48528
G1 F300 X97.46279 Y25.28092
G1 F300 X97.40475 Y25.10334
G1 F300 X97.30424 Y24.93126
G1 F300 X97.17899 Y24.79265
G1 F300 X97.01720 Y24.67629
G1 F300 X96.84641 Y24.60063
G1 F300 X96.65126 Y24.56014
G1 F300 X96.45824 Y24.56146
G1 F300 X96.27557 Y24.60063
G1 F300 X96.10478 Y24.67629
G1 F300 X95.94298 Y24.79265
G1 F300 X95.81037 Y24.94139
G1 F300 X95.71722 Y25.10334
G1 F300 X95.65756 Y25.28699
G1 F300 X95.63772 Y25.47274
;G04 P0 ; dwell for no time -- G64 should not smooth over this point 
G1 F3000 Z3.00000 ; retract 

G1 F3000 X95.63772 Y22.93274 ; rapid move to begin. 
G1 F300 F300.00000
G1 F300 Z-0.07000
;G04 P0 ; dwell for no time -- G64 should not smooth over this point 
G1 F300 F600.00000
G1 F300 X95.63772 Y22.93274
G1 F300 X95.65756 Y23.13103
G1 F300 X95.71722 Y23.31468
G1 F300 X95.81037 Y23.47663
G1 F300 X95.93853 Y23.62095
G1 F300 X96.10478 Y23.74173
G1 F300 X96.27557 Y23.81742
G1 F300 X96.47072 Y23.85788
G1 F300 X96.66373 Y23.85656
G1 F300 X96.84641 Y23.81742
G1 F300 X97.01720 Y23.74173
G1 F300 X97.17899 Y23.62537
G1 F300 X97.31161 Y23.47663
G1 F300 X97.40475 Y23.31468
G1 F300 X97.46441 Y23.13103
G1 F300 X97.48425 Y22.94528
G1 F300 X97.46279 Y22.74092
G1 F300 X97.40475 Y22.56334
G1 F300 X97.30424 Y22.39126
G1 F300 X97.17899 Y22.25265
G1 F300 X97.01720 Y22.13629
G1 F300 X96.84641 Y22.06063
G1 F300 X96.65126 Y22.02014
G1 F300 X96.45824 Y22.02146
G1 F300 X96.27557 Y22.06063
G1 F300 X96.10478 Y22.13629
G1 F300 X95.94298 Y22.25265
G1 F300 X95.81037 Y22.40139
G1 F300 X95.71722 Y22.56334
G1 F300 X95.65756 Y22.74699
G1 F300 X95.63772 Y22.93274
;G04 P0 ; dwell for no time -- G64 should not smooth over this point 
G1 F3000 Z3.00000 ; retract 

G1 F3000 X93.09772 Y22.93274 ; rapid move to begin. 
G1 F300 F300.00000
G1 F300 Z-0.07000
;G04 P0 ; dwell for no time -- G64 should not smooth over this point 
G1 F300 F600.00000
G1 F300 X93.09772 Y22.93274
G1 F300 X93.11756 Y23.13103
G1 F300 X93.17722 Y23.31468
G1 F300 X93.27037 Y23.47663
G1 F300 X93.39853 Y23.62095
G1 F300 X93.56478 Y23.74173
G1 F300 X93.73557 Y23.81742
G1 F300 X93.93072 Y23.85788
G1 F300 X94.12373 Y23.85656
G1 F300 X94.30641 Y23.81742
G1 F300 X94.47720 Y23.74173
G1 F300 X94.63899 Y23.62537
G1 F300 X94.77161 Y23.47663
G1 F300 X94.86475 Y23.31468
G1 F300 X94.92441 Y23.13103
G1 F300 X94.94425 Y22.94528
G1 F300 X94.92279 Y22.74092
G1 F300 X94.86475 Y22.56334
G1 F300 X94.76424 Y22.39126
G1 F300 X94.63899 Y22.25265
G1 F300 X94.47720 Y22.13629
G1 F300 X94.30641 Y22.06063
G1 F300 X94.11126 Y22.02014
G1 F300 X93.91824 Y22.02146
G1 F300 X93.73557 Y22.06063
G1 F300 X93.56478 Y22.13629
G1 F300 X93.40298 Y22.25265
G1 F300 X93.27037 Y22.40139
G1 F300 X93.17722 Y22.56334
G1 F300 X93.11756 Y22.74699
G1 F300 X93.09772 Y22.93274
;G04 P0 ; dwell for no time -- G64 should not smooth over this point 
G1 F3000 Z3.00000 ; retract 

G1 F3000 X93.09772 Y20.39274 ; rapid move to begin. 
G1 F300 F300.00000
G1 F300 Z-0.07000
;G04 P0 ; dwell for no time -- G64 should not smooth over this point 
G1 F300 F600.00000
G1 F300 X93.09772 Y20.39274
G1 F300 X93.11756 Y20.59103
G1 F300 X93.17722 Y20.77468
G1 F300 X93.27037 Y20.93663
G1 F300 X93.39853 Y21.08095
G1 F300 X93.56478 Y21.20173
G1 F300 X93.73557 Y21.27742
G1 F300 X93.93072 Y21.31788
G1 F300 X94.12373 Y21.31656
G1 F300 X94.30641 Y21.27742
G1 F300 X94.47720 Y21.20173
G1 F300 X94.63899 Y21.08537
G1 F300 X94.77161 Y20.93663
G1 F300 X94.86475 Y20.77468
G1 F300 X94.92441 Y20.59103
G1 F300 X94.94425 Y20.40528
G1 F300 X94.92279 Y20.20092
G1 F300 X94.86475 Y20.02334
G1 F300 X94.76424 Y19.85126
G1 F300 X94.63899 Y19.71265
G1 F300 X94.47720 Y19.59629
G1 F300 X94.30641 Y19.52063
G1 F300 X94.11126 Y19.48014
G1 F300 X93.91824 Y19.48146
G1 F300 X93.73557 Y19.52063
G1 F300 X93.56478 Y19.59629
G1 F300 X93.40298 Y19.71265
G1 F300 X93.27037 Y19.86139
G1 F300 X93.17722 Y20.02334
G1 F300 X93.11756 Y20.20699
G1 F300 X93.09772 Y20.39274
;G04 P0 ; dwell for no time -- G64 should not smooth over this point 
G1 F3000 Z3.00000 ; retract 

G1 F3000 X95.63772 Y20.39274 ; rapid move to begin. 
G1 F300 F300.00000
G1 F300 Z-0.07000
;G04 P0 ; dwell for no time -- G64 should not smooth over this point 
G1 F300 F600.00000
G1 F300 X95.63772 Y20.39274
G1 F300 X95.65756 Y20.59103
G1 F300 X95.71722 Y20.77468
G1 F300 X95.81037 Y20.93663
G1 F300 X95.93853 Y21.08095
G1 F300 X96.10478 Y21.20173
G1 F300 X96.27557 Y21.27742
G1 F300 X96.47072 Y21.31788
G1 F300 X96.66373 Y21.31656
G1 F300 X96.84641 Y21.27742
G1 F300 X97.01720 Y21.20173
G1 F300 X97.17899 Y21.08537
G1 F300 X97.31161 Y20.93663
G1 F300 X97.40475 Y20.77468
G1 F300 X97.46441 Y20.59103
G1 F300 X97.48425 Y20.40528
G1 F300 X97.46279 Y20.20092
G1 F300 X97.40475 Y20.02334
G1 F300 X97.30424 Y19.85126
G1 F300 X97.17899 Y19.71265
G1 F300 X97.01720 Y19.59629
G1 F300 X96.84641 Y19.52063
G1 F300 X96.65126 Y19.48014
G1 F300 X96.45824 Y19.48146
G1 F300 X96.27557 Y19.52063
G1 F300 X96.10478 Y19.59629
G1 F300 X95.94298 Y19.71265
G1 F300 X95.81037 Y19.86139
G1 F300 X95.71722 Y20.02334
G1 F300 X95.65756 Y20.20699
G1 F300 X95.63772 Y20.39274
;G04 P0 ; dwell for no time -- G64 should not smooth over this point 
G1 F3000 Z3.00000 ; retract 

G1 F3000 X95.63772 Y17.85274 ; rapid move to begin. 
G1 F300 F300.00000
G1 F300 Z-0.07000
;G04 P0 ; dwell for no time -- G64 should not smooth over this point 
G1 F300 F600.00000
G1 F300 X95.63772 Y17.85274
G1 F300 X95.65756 Y18.05103
G1 F300 X95.71722 Y18.23468
G1 F300 X95.81037 Y18.39663
G1 F300 X95.93853 Y18.54095
G1 F300 X96.10478 Y18.66173
G1 F300 X96.27557 Y18.73742
G1 F300 X96.47072 Y18.77788
G1 F300 X96.66373 Y18.77656
G1 F300 X96.84641 Y18.73742
G1 F300 X97.01720 Y18.66173
G1 F300 X97.17899 Y18.54537
G1 F300 X97.31161 Y18.39663
G1 F300 X97.40475 Y18.23468
G1 F300 X97.46441 Y18.05103
G1 F300 X97.48425 Y17.86528
G1 F300 X97.46279 Y17.66092
G1 F300 X97.40475 Y17.48334
G1 F300 X97.30424 Y17.31126
G1 F300 X97.17899 Y17.17265
G1 F300 X97.01720 Y17.05629
G1 F300 X96.84641 Y16.98063
G1 F300 X96.65126 Y16.94014
G1 F300 X96.45824 Y16.94146
G1 F300 X96.27557 Y16.98063
G1 F300 X96.10478 Y17.05629
G1 F300 X95.94298 Y17.17265
G1 F300 X95.81037 Y17.32139
G1 F300 X95.71722 Y17.48334
G1 F300 X95.65756 Y17.66699
G1 F300 X95.63772 Y17.85274
;G04 P0 ; dwell for no time -- G64 should not smooth over this point 
G1 F3000 Z3.00000 ; retract 

G1 F3000 X95.63772 Y15.31274 ; rapid move to begin. 
G1 F300 F300.00000
G1 F300 Z-0.07000
;G04 P0 ; dwell for no time -- G64 should not smooth over this point 
G1 F300 F600.00000
G1 F300 X95.63772 Y15.31274
G1 F300 X95.65756 Y15.51103
G1 F300 X95.71722 Y15.69468
G1 F300 X95.81037 Y15.85663
G1 F300 X95.93853 Y16.00095
G1 F300 X96.10478 Y16.12173
G1 F300 X96.27557 Y16.19742
G1 F300 X96.47072 Y16.23788
G1 F300 X96.66373 Y16.23656
G1 F300 X96.84641 Y16.19742
G1 F300 X97.01720 Y16.12173
G1 F300 X97.17899 Y16.00537
G1 F300 X97.31161 Y15.85663
G1 F300 X97.40475 Y15.69468
G1 F300 X97.46441 Y15.51103
G1 F300 X97.48425 Y15.32528
G1 F300 X97.46279 Y15.12092
G1 F300 X97.40475 Y14.94334
G1 F300 X97.30424 Y14.77126
G1 F300 X97.17899 Y14.63265
G1 F300 X97.01720 Y14.51629
G1 F300 X96.84641 Y14.44063
G1 F300 X96.65126 Y14.40014
G1 F300 X96.45824 Y14.40146
G1 F300 X96.27557 Y14.44063
G1 F300 X96.10478 Y14.51629
G1 F300 X95.94298 Y14.63265
G1 F300 X95.81037 Y14.78139
G1 F300 X95.71722 Y14.94334
G1 F300 X95.65756 Y15.12699
G1 F300 X95.63772 Y15.31274
;G04 P0 ; dwell for no time -- G64 should not smooth over this point 
G1 F3000 Z3.00000 ; retract 

G1 F3000 X95.63772 Y12.77274 ; rapid move to begin. 
G1 F300 F300.00000
G1 F300 Z-0.07000
;G04 P0 ; dwell for no time -- G64 should not smooth over this point 
G1 F300 F600.00000
G1 F300 X95.63772 Y12.77274
G1 F300 X95.65756 Y12.97103
G1 F300 X95.71722 Y13.15468
G1 F300 X95.81037 Y13.31663
G1 F300 X95.93853 Y13.46095
G1 F300 X96.10478 Y13.58173
G1 F300 X96.27557 Y13.65742
G1 F300 X96.47072 Y13.69788
G1 F300 X96.66373 Y13.69656
G1 F300 X96.84641 Y13.65742
G1 F300 X97.01720 Y13.58173
G1 F300 X97.17899 Y13.46537
G1 F300 X97.31161 Y13.31663
G1 F300 X97.40475 Y13.15468
G1 F300 X97.46441 Y12.97103
G1 F300 X97.48425 Y12.78528
G1 F300 X97.46279 Y12.58092
G1 F300 X97.40475 Y12.40334
G1 F300 X97.30424 Y12.23126
G1 F300 X97.17899 Y12.09265
G1 F300 X97.01720 Y11.97629
G1 F300 X96.84641 Y11.90063
G1 F300 X96.65126 Y11.86014
G1 F300 X96.45824 Y11.86146
G1 F300 X96.27557 Y11.90063
G1 F300 X96.10478 Y11.97629
G1 F300 X95.94298 Y12.09265
G1 F300 X95.81037 Y12.24139
G1 F300 X95.71722 Y12.40334
G1 F300 X95.65756 Y12.58699
G1 F300 X95.63772 Y12.77274
;G04 P0 ; dwell for no time -- G64 should not smooth over this point 
G1 F3000 Z3.00000 ; retract 

G1 F3000 X95.63772 Y10.23274 ; rapid move to begin. 
G1 F300 F300.00000
G1 F300 Z-0.07000
;G04 P0 ; dwell for no time -- G64 should not smooth over this point 
G1 F300 F600.00000
G1 F300 X95.63772 Y10.23274
G1 F300 X95.65756 Y10.43103
G1 F300 X95.71722 Y10.61468
G1 F300 X95.81037 Y10.77663
G1 F300 X95.93853 Y10.92095
G1 F300 X96.10478 Y11.04173
G1 F300 X96.27557 Y11.11742
G1 F300 X96.47072 Y11.15788
G1 F300 X96.66373 Y11.15656
G1 F300 X96.84641 Y11.11742
G1 F300 X97.01720 Y11.04173
G1 F300 X97.17899 Y10.92537
G1 F300 X97.31161 Y10.77663
G1 F300 X97.40475 Y10.61468
G1 F300 X97.46441 Y10.43103
G1 F300 X97.48425 Y10.24528
G1 F300 X97.46279 Y10.04092
G1 F300 X97.40475 Y9.86334
G1 F300 X97.30424 Y9.69126
G1 F300 X97.17899 Y9.55265
G1 F300 X97.01720 Y9.43629
G1 F300 X96.84641 Y9.36063
G1 F300 X96.65126 Y9.32014
G1 F300 X96.45824 Y9.32146
G1 F300 X96.27557 Y9.36063
G1 F300 X96.10478 Y9.43629
G1 F300 X95.94298 Y9.55265
G1 F300 X95.81037 Y9.70139
G1 F300 X95.71722 Y9.86334
G1 F300 X95.65756 Y10.04699
G1 F300 X95.63772 Y10.23274
;G04 P0 ; dwell for no time -- G64 should not smooth over this point 
G1 F3000 Z3.00000 ; retract 

G1 F3000 X96.87498 Y6.47816 ; rapid move to begin. 
G1 F300 F300.00000
G1 F300 Z-0.07000
;G04 P0 ; dwell for no time -- G64 should not smooth over this point 
G1 F300 F600.00000
G1 F300 X96.87498 Y6.47816
G1 F300 X96.93416 Y6.44743
G1 F300 X97.11725 Y6.51222
G1 F300 X97.33805 Y6.64354
G1 F300 X97.52903 Y6.81540
G1 F300 X97.68280 Y7.02124
G1 F300 X97.79535 Y7.25703
G1 F300 X97.81481 Y7.32116
G1 F300 X97.78146 Y7.38502
G1 F300 X97.42512 Y7.38502
G1 F300 X97.31161 Y7.16139
G1 F300 X97.18344 Y7.01710
G1 F300 X97.02804 Y6.90257
G1 F300 X96.87498 Y6.83297
G1 F300 X96.87498 Y6.47816
;G04 P0 ; dwell for no time -- G64 should not smooth over this point 
G1 F3000 Z3.00000 ; retract 

G1 F3000 X94.33498 Y6.47816 ; rapid move to begin. 
G1 F300 F300.00000
G1 F300 Z-0.07000
;G04 P0 ; dwell for no time -- G64 should not smooth over this point 
G1 F300 F600.00000
G1 F300 X94.33498 Y6.47816
G1 F300 X94.39416 Y6.44743
G1 F300 X94.57725 Y6.51222
G1 F300 X94.79802 Y6.64351
G1 F300 X94.98926 Y6.81562
G1 F300 X95.16523 Y7.04544
G1 F300 X95.26559 Y7.09215
G1 F300 X95.34199 Y7.08679
G1 F300 X95.41672 Y7.04544
G1 F300 X95.59271 Y6.81560
G1 F300 X95.78387 Y6.64354
G1 F300 X96.00473 Y6.51222
G1 F300 X96.18781 Y6.44743
G1 F300 X96.24697 Y6.47816
G1 F300 X96.24697 Y6.83300
G1 F300 X96.09393 Y6.90257
G1 F300 X95.94786 Y7.00869
G1 F300 X95.83086 Y7.13902
G1 F300 X94.75111 Y7.13902
G1 F300 X94.63412 Y7.00869
G1 F300 X94.48804 Y6.90257
G1 F300 X94.33498 Y6.83297
G1 F300 X94.33498 Y6.47816
;G04 P0 ; dwell for no time -- G64 should not smooth over this point 
G1 F3000 Z3.00000 ; retract 

G1 F3000 X92.76714 Y7.32116 ; rapid move to begin. 
G1 F300 F300.00000
G1 F300 Z-0.07000
;G04 P0 ; dwell for no time -- G64 should not smooth over this point 
G1 F300 F600.00000
G1 F300 X92.76714 Y7.32116
G1 F300 X92.89915 Y7.02124
G1 F300 X93.05289 Y6.81542
G1 F300 X93.24387 Y6.64354
G1 F300 X93.46473 Y6.51222
G1 F300 X93.64781 Y6.44743
G1 F300 X93.70697 Y6.47816
G1 F300 X93.70697 Y6.83300
G1 F300 X93.55393 Y6.90257
G1 F300 X93.39853 Y7.01710
G1 F300 X93.27037 Y7.16139
G1 F300 X93.15685 Y7.38502
G1 F300 X92.80049 Y7.38502
G1 F300 X92.76714 Y7.32116
;G04 P0 ; dwell for no time -- G64 should not smooth over this point 
G1 F3000 Z3.00000 ; retract 

G1 F3000 X90.06298 Y9.39626 ; rapid move to begin. 
G1 F300 F300.00000
G1 F300 Z-0.07000
;G04 P0 ; dwell for no time -- G64 should not smooth over this point 
G1 F300 F600.00000
G1 F300 X90.06298 Y9.39626
G1 F300 X90.08411 Y9.28557
G1 F300 X90.11769 Y9.22278
G1 F300 X90.19326 Y9.14722
G1 F300 X90.30177 Y9.09977
G1 F300 X90.79369 Y9.08077
G1 F300 X91.28513 Y9.09281
G1 F300 X91.38993 Y9.11364
G1 F300 X91.44294 Y9.14069
G1 F300 X91.53483 Y9.23256
G1 F300 X91.57802 Y9.34282
G1 F300 X91.58299 Y9.60807
G1 F300 X91.65394 Y9.67902
G1 F300 X93.29086 Y9.67902
G1 F300 X93.40275 Y9.55283
G1 F300 X93.55393 Y9.44257
G1 F300 X93.73557 Y9.36063
G1 F300 X93.93072 Y9.32014
G1 F300 X94.11126 Y9.32014
G1 F300 X94.30034 Y9.35900
G1 F300 X94.47720 Y9.43629
G1 F300 X94.63412 Y9.54869
G1 F300 X94.77161 Y9.70139
G1 F300 X94.86475 Y9.86334
G1 F300 X94.92441 Y10.04699
G1 F300 X94.94425 Y10.24528
G1 F300 X94.92441 Y10.43103
G1 F300 X94.86475 Y10.61468
G1 F300 X94.77161 Y10.77663
G1 F300 X94.63899 Y10.92537
G1 F300 X94.48804 Y11.03545
G1 F300 X94.31225 Y11.11516
G1 F300 X94.11126 Y11.15788
G1 F300 X93.91824 Y11.15656
G1 F300 X93.72973 Y11.11516
G1 F300 X93.55393 Y11.03545
G1 F300 X93.40275 Y10.92519
G1 F300 X93.29086 Y10.79903
G1 F300 X91.42198 Y10.79903
G1 F300 X91.30700 Y10.78684
G1 F300 X91.11589 Y10.70767
G1 F300 X91.03034 Y10.63896
G1 F300 X90.57853 Y10.18750
G1 F300 X90.30177 Y10.18024
G1 F300 X90.20304 Y10.13934
G1 F300 X90.14799 Y10.09418
G1 F300 X90.08864 Y10.00533
G1 F300 X90.06796 Y9.93721
G1 F300 X90.06298 Y9.39626
;G04 P0 ; dwell for no time -- G64 should not smooth over this point 
G1 F3000 Z3.00000 ; retract 

G1 F3000 X91.12272 Y12.56171 ; rapid move to begin. 
G1 F300 F300.00000
G1 F300 Z-0.07000
;G04 P0 ; dwell for no time -- G64 should not smooth over this point 
G1 F300 F600.00000
G1 F300 X91.12272 Y12.56171
G1 F300 X91.14174 Y13.11223
G1 F300 X91.16013 Y13.16882
G1 F300 X91.21949 Y13.25767
G1 F300 X91.32755 Y13.32989
G1 F300 X91.43824 Y13.35102
G1 F300 X93.29086 Y13.33903
G1 F300 X93.40278 Y13.46519
G1 F300 X93.56478 Y13.58173
G1 F300 X93.73557 Y13.65742
G1 F300 X93.93072 Y13.69788
G1 F300 X94.12373 Y13.69656
G1 F300 X94.30641 Y13.65742
G1 F300 X94.47720 Y13.58173
G1 F300 X94.63899 Y13.46537
G1 F300 X94.77161 Y13.31663
G1 F300 X94.86475 Y13.15468
G1 F300 X94.92441 Y12.97103
G1 F300 X94.94425 Y12.78528
G1 F300 X94.92279 Y12.58092
G1 F300 X94.86475 Y12.40334
G1 F300 X94.76424 Y12.23126
G1 F300 X94.63899 Y12.09265
G1 F300 X94.47720 Y11.97629
G1 F300 X94.30641 Y11.90063
G1 F300 X94.11126 Y11.86014
G1 F300 X93.91824 Y11.86146
G1 F300 X93.72973 Y11.90286
G1 F300 X93.55393 Y11.98257
G1 F300 X93.40275 Y12.09283
G1 F300 X93.29086 Y12.21902
G1 F300 X92.22950 Y12.21902
G1 F300 X92.22452 Y12.08132
G1 F300 X92.20385 Y12.01320
G1 F300 X92.13615 Y11.91602
G1 F300 X92.04731 Y11.85666
G1 F300 X91.92574 Y11.83101
G1 F300 X91.37327 Y11.83827
G1 F300 X91.27454 Y11.87916
G1 F300 X91.22783 Y11.91602
G1 F300 X91.15561 Y12.02407
G1 F300 X91.13478 Y12.12887
G1 F300 X91.12272 Y12.56171
;G04 P0 ; dwell for no time -- G64 should not smooth over this point 
G1 F3000 Z3.00000 ; retract 

G1 F3000 X91.02574 Y15.91604 ; rapid move to begin. 
G1 F300 F300.00000
G1 F300 Z-0.07000
;G04 P0 ; dwell for no time -- G64 should not smooth over this point 
G1 F300 F600.00000
G1 F300 X91.02574 Y15.91604
G1 F300 X91.04246 Y15.38332
G1 F300 X91.06313 Y15.31520
G1 F300 X91.12249 Y15.22635
G1 F300 X91.17753 Y15.18116
G1 F300 X91.27626 Y15.14027
G1 F300 X91.55305 Y15.13301
G1 F300 X91.84314 Y14.85691
G1 F300 X91.93936 Y14.80418
G1 F300 X92.04400 Y14.77121
G1 F300 X92.15899 Y14.75902
G1 F300 X93.29086 Y14.75902
G1 F300 X93.40275 Y14.63283
G1 F300 X93.55393 Y14.52257
G1 F300 X93.72973 Y14.44286
G1 F300 X93.93072 Y14.40014
G1 F300 X94.12373 Y14.40146
G1 F300 X94.30641 Y14.44063
G1 F300 X94.47720 Y14.51629
G1 F300 X94.63899 Y14.63265
G1 F300 X94.77161 Y14.78139
G1 F300 X94.86475 Y14.94334
G1 F300 X94.92441 Y15.12699
G1 F300 X94.94425 Y15.32528
G1 F300 X94.92441 Y15.51103
G1 F300 X94.86475 Y15.69468
G1 F300 X94.77161 Y15.85663
G1 F300 X94.63899 Y16.00537
G1 F300 X94.48804 Y16.11545
G1 F300 X94.30641 Y16.19742
G1 F300 X94.12373 Y16.23656
G1 F300 X93.93072 Y16.23788
G1 F300 X93.72973 Y16.19516
G1 F300 X93.55393 Y16.11545
G1 F300 X93.40278 Y16.00519
G1 F300 X93.29086 Y15.87903
G1 F300 X92.39094 Y15.87903
G1 F300 X92.13247 Y16.13747
G1 F300 X92.12523 Y16.41423
G1 F300 X92.07779 Y16.52274
G1 F300 X92.00222 Y16.59831
G1 F300 X91.93943 Y16.63189
G1 F300 X91.83461 Y16.65271
G1 F300 X91.28779 Y16.64804
G1 F300 X91.21967 Y16.62736
G1 F300 X91.13082 Y16.56800
G1 F300 X91.05864 Y16.45995
G1 F300 X91.03778 Y16.35515
G1 F300 X91.02574 Y15.91604
;G04 P0 ; dwell for no time -- G64 should not smooth over this point 
G1 F3000 Z3.00000 ; retract 

G1 F3000 X91.02498 Y18.94100 ; rapid move to begin. 
G1 F300 F300.00000
G1 F300 Z-0.07000
;G04 P0 ; dwell for no time -- G64 should not smooth over this point 
G1 F300 F600.00000
G1 F300 X91.02498 Y18.94100
G1 F300 X91.04474 Y19.46223
G1 F300 X91.09219 Y19.57074
G1 F300 X91.16775 Y19.64631
G1 F300 X91.23054 Y19.67989
G1 F300 X91.34124 Y19.70102
G1 F300 X91.82874 Y19.70102
G1 F300 X91.93943 Y19.67989
G1 F300 X92.00222 Y19.64631
G1 F300 X92.07779 Y19.57074
G1 F300 X92.11134 Y19.50795
G1 F300 X92.12993 Y19.41776
G1 F300 X92.23496 Y19.33699
G1 F300 X93.15294 Y18.41903
G1 F300 X93.29086 Y18.41903
G1 F300 X93.40275 Y18.54519
G1 F300 X93.56478 Y18.66173
G1 F300 X93.73557 Y18.73742
G1 F300 X93.93072 Y18.77788
G1 F300 X94.12373 Y18.77656
G1 F300 X94.30641 Y18.73742
G1 F300 X94.47720 Y18.66173
G1 F300 X94.63412 Y18.54933
G1 F300 X94.77161 Y18.39663
G1 F300 X94.86475 Y18.23468
G1 F300 X94.92441 Y18.05103
G1 F300 X94.94425 Y17.85274
G1 F300 X94.92441 Y17.66699
G1 F300 X94.86698 Y17.48921
G1 F300 X94.77161 Y17.32139
G1 F300 X94.63412 Y17.16869
G1 F300 X94.47720 Y17.05629
G1 F300 X94.31225 Y16.98286
G1 F300 X94.11126 Y16.94014
G1 F300 X93.91824 Y16.94146
G1 F300 X93.72973 Y16.98286
G1 F300 X93.55393 Y17.06257
G1 F300 X93.40275 Y17.17283
G1 F300 X93.29086 Y17.29902
G1 F300 X92.91510 Y17.29932
G1 F300 X92.71223 Y17.33966
G1 F300 X92.61492 Y17.39038
G1 F300 X92.52500 Y17.46305
G1 F300 X91.80677 Y18.18129
G1 F300 X91.28779 Y18.18598
G1 F300 X91.21967 Y18.20666
G1 F300 X91.13082 Y18.26602
G1 F300 X91.06313 Y18.36320
G1 F300 X91.04246 Y18.43132
G1 F300 X91.02498 Y18.94100
;G04 P0 ; dwell for no time -- G64 should not smooth over this point 
G1 F3000 Z3.00000 ; retract 

G1 F3000 X86.45572 Y19.90475 ; rapid move to begin. 
G1 F300 F300.00000
G1 F300 Z-0.07000
;G04 P0 ; dwell for no time -- G64 should not smooth over this point 
G1 F300 F600.00000
G1 F300 X86.45572 Y19.90475
G1 F300 X86.45572 Y20.00927
G1 F300 X86.47876 Y20.12401
G1 F300 X86.55298 Y20.27193
G1 F300 X86.55415 Y20.41872
G1 F300 X86.57056 Y20.44943
G1 F300 X86.60129 Y20.46586
G1 F300 X86.78765 Y20.46701
G1 F300 X86.89586 Y20.50462
G1 F300 X87.01300 Y20.51702
G1 F300 X88.69400 Y20.51702
G1 F300 X88.79740 Y20.50711
G1 F300 X88.90273 Y20.47638
G1 F300 X89.00004 Y20.42566
G1 F300 X89.08996 Y20.35299
G1 F300 X89.74195 Y19.70102
G1 F300 X90.01871 Y19.69375
G1 F300 X90.12722 Y19.64631
G1 F300 X90.20931 Y19.56096
G1 F300 X90.23636 Y19.50795
G1 F300 X90.25719 Y19.40315
G1 F300 X90.26923 Y18.91799
G1 F300 X90.25719 Y18.47887
G1 F300 X90.23636 Y18.37407
G1 F300 X90.16415 Y18.26602
G1 F300 X90.07530 Y18.20666
G1 F300 X90.00718 Y18.18598
G1 F300 X89.46623 Y18.18101
G1 F300 X89.35554 Y18.20214
G1 F300 X89.24749 Y18.27435
G1 F300 X89.18363 Y18.37407
G1 F300 X89.16278 Y18.47887
G1 F300 X89.16248 Y18.69655
G1 F300 X88.46202 Y19.39701
G1 F300 X87.01300 Y19.39701
G1 F300 X86.89586 Y19.40940
G1 F300 X86.78765 Y19.44702
G1 F300 X86.60129 Y19.44816
G1 F300 X86.55755 Y19.48405
G1 F300 X86.55298 Y19.64209
G1 F300 X86.48039 Y19.78398
G1 F300 X86.45572 Y19.90475
;G04 P0 ; dwell for no time -- G64 should not smooth over this point 
G1 F3000 Z3.00000 ; retract 

G1 F3000 X86.45572 Y15.84075 ; rapid move to begin. 
G1 F300 F300.00000
G1 F300 Z-0.07000
;G04 P0 ; dwell for no time -- G64 should not smooth over this point 
G1 F300 F600.00000
G1 F300 X86.45572 Y15.84075
G1 F300 X86.45572 Y15.94527
G1 F300 X86.47876 Y16.06001
G1 F300 X86.55298 Y16.20793
G1 F300 X86.55415 Y16.35472
G1 F300 X86.57056 Y16.38543
G1 F300 X86.60129 Y16.40186
G1 F300 X86.78765 Y16.40301
G1 F300 X86.89586 Y16.44062
G1 F300 X87.01300 Y16.45302
G1 F300 X89.18163 Y16.45302
G1 F300 X89.21719 Y16.52274
G1 F300 X89.29275 Y16.59831
G1 F300 X89.35554 Y16.63189
G1 F300 X89.46623 Y16.65302
G1 F300 X89.95374 Y16.65302
G1 F300 X90.06443 Y16.63189
G1 F300 X90.17248 Y16.55967
G1 F300 X90.23184 Y16.47082
G1 F300 X90.25252 Y16.40270
G1 F300 X90.26725 Y15.94527
G1 F300 X90.25252 Y15.38332
G1 F300 X90.23184 Y15.31520
G1 F300 X90.17248 Y15.22635
G1 F300 X90.11744 Y15.18116
G1 F300 X90.00718 Y15.13798
G1 F300 X89.40126 Y15.14027
G1 F300 X89.30253 Y15.18116
G1 F300 X89.25582 Y15.21802
G1 F300 X89.18163 Y15.33301
G1 F300 X87.01300 Y15.33301
G1 F300 X86.89586 Y15.34540
G1 F300 X86.78765 Y15.38302
G1 F300 X86.60129 Y15.38416
G1 F300 X86.55755 Y15.42005
G1 F300 X86.55298 Y15.57809
G1 F300 X86.48039 Y15.71998
G1 F300 X86.45572 Y15.84075
;G04 P0 ; dwell for no time -- G64 should not smooth over this point 
G1 F3000 Z3.00000 ; retract 

G1 F3000 X86.45572 Y11.77675 ; rapid move to begin. 
G1 F300 F300.00000
G1 F300 Z-0.07000
;G04 P0 ; dwell for no time -- G64 should not smooth over this point 
G1 F300 F600.00000
G1 F300 X86.45572 Y11.77675
G1 F300 X86.45572 Y11.88127
G1 F300 X86.47876 Y11.99600
G1 F300 X86.55298 Y12.14393
G1 F300 X86.55415 Y12.29072
G1 F300 X86.59001 Y12.33443
G1 F300 X86.78765 Y12.33901
G1 F300 X86.89586 Y12.37662
G1 F300 X87.01297 Y12.38902
G1 F300 X88.81302 Y12.38902
G1 F300 X89.25948 Y12.83548
G1 F300 X89.25978 Y13.05315
G1 F300 X89.28064 Y13.15795
G1 F300 X89.34449 Y13.25767
G1 F300 X89.44167 Y13.32536
G1 F300 X89.56324 Y13.35102
G1 F300 X90.10418 Y13.34604
G1 F300 X90.17230 Y13.32536
G1 F300 X90.26115 Y13.26600
G1 F300 X90.33334 Y13.15795
G1 F300 X90.35419 Y13.05315
G1 F300 X90.36623 Y12.61404
G1 F300 X90.35419 Y12.12887
G1 F300 X90.34723 Y12.06979
G1 F300 X90.30631 Y11.97106
G1 F300 X90.22422 Y11.88572
G1 F300 X90.11571 Y11.83827
G1 F300 X89.83895 Y11.83101
G1 F300 X89.43659 Y11.42908
G1 F300 X89.35104 Y11.36037
G1 F300 X89.25374 Y11.30965
G1 F300 X89.14840 Y11.27891
G1 F300 X89.04500 Y11.26901
G1 F300 X87.01300 Y11.26901
G1 F300 X86.89586 Y11.28140
G1 F300 X86.78765 Y11.31902
G1 F300 X86.60129 Y11.32016
G1 F300 X86.55755 Y11.35605
G1 F300 X86.55298 Y11.51409
G1 F300 X86.48039 Y11.65598
G1 F300 X86.45572 Y11.77675
;G04 P0 ; dwell for no time -- G64 should not smooth over this point 
G1 F3000 Z3.00000 ; retract 

G1 F3000 X86.45572 Y7.71275 ; rapid move to begin. 
G1 F300 F300.00000
G1 F300 Z-0.07000
;G04 P0 ; dwell for no time -- G64 should not smooth over this point 
G1 F300 F600.00000
G1 F300 X86.45572 Y7.71275
G1 F300 X86.45704 Y7.82974
G1 F300 X86.48039 Y7.93805
G1 F300 X86.55298 Y8.07993
G1 F300 X86.55298 Y8.21501
G1 F300 X86.57056 Y8.25743
G1 F300 X86.61298 Y8.27501
G1 F300 X86.78765 Y8.27501
G1 F300 X86.89586 Y8.31262
G1 F300 X87.00673 Y8.32469
G1 F300 X90.82300 Y8.32502
G1 F300 X91.28513 Y8.31222
G1 F300 X91.40080 Y8.28687
G1 F300 X91.49798 Y8.21918
G1 F300 X91.56186 Y8.11946
G1 F300 X91.58269 Y8.01463
G1 F300 X91.58299 Y7.52126
G1 F300 X91.56186 Y7.41057
G1 F300 X91.52828 Y7.34778
G1 F300 X91.45272 Y7.27221
G1 F300 X91.38993 Y7.23866
G1 F300 X91.28513 Y7.21781
G1 F300 X90.82300 Y7.20501
G1 F300 X87.00673 Y7.20534
G1 F300 X86.89586 Y7.21740
G1 F300 X86.78765 Y7.25502
G1 F300 X86.61298 Y7.25502
G1 F300 X86.57056 Y7.27260
G1 F300 X86.55298 Y7.31501
G1 F300 X86.55298 Y7.45009
G1 F300 X86.48039 Y7.59198
G1 F300 X86.45572 Y7.71275
;G04 P0 ; dwell for no time -- G64 should not smooth over this point 
G1 F3000 Z3.00000 ; retract 

G1 F3000 X90.55772 Y2.61274 ; rapid move to begin. 
G1 F300 F300.00000
G1 F300 Z-0.07000
;G04 P0 ; dwell for no time -- G64 should not smooth over this point 
G1 F300 F600.00000
G1 F300 X90.55772 Y2.61274
G1 F300 X90.57756 Y2.81103
G1 F300 X90.63722 Y2.99468
G1 F300 X90.73037 Y3.15663
G1 F300 X90.85853 Y3.30095
G1 F300 X91.02478 Y3.42173
G1 F300 X91.19557 Y3.49742
G1 F300 X91.39072 Y3.53788
G1 F300 X91.58373 Y3.53656
G1 F300 X91.76641 Y3.49742
G1 F300 X91.93720 Y3.42173
G1 F300 X92.09899 Y3.30537
G1 F300 X92.23161 Y3.15663
G1 F300 X92.32475 Y2.99468
G1 F300 X92.38441 Y2.81103
G1 F300 X92.40425 Y2.62528
G1 F300 X92.38279 Y2.42092
G1 F300 X92.32475 Y2.24334
G1 F300 X92.22424 Y2.07126
G1 F300 X92.09899 Y1.93265
G1 F300 X91.93720 Y1.81629
G1 F300 X91.76641 Y1.74063
G1 F300 X91.57126 Y1.70014
G1 F300 X91.37824 Y1.70146
G1 F300 X91.19557 Y1.74063
G1 F300 X91.02478 Y1.81629
G1 F300 X90.86298 Y1.93265
G1 F300 X90.73037 Y2.08139
G1 F300 X90.63722 Y2.24334
G1 F300 X90.57756 Y2.42699
G1 F300 X90.55772 Y2.61274
;G04 P0 ; dwell for no time -- G64 should not smooth over this point 
G1 F3000 Z3.00000 ; retract 

G1 F3000 X88.01772 Y2.61274 ; rapid move to begin. 
G1 F300 F300.00000
G1 F300 Z-0.07000
;G04 P0 ; dwell for no time -- G64 should not smooth over this point 
G1 F300 F600.00000
G1 F300 X88.01772 Y2.61274
G1 F300 X88.03756 Y2.81103
G1 F300 X88.09722 Y2.99468
G1 F300 X88.19037 Y3.15663
G1 F300 X88.31853 Y3.30095
G1 F300 X88.48478 Y3.42173
G1 F300 X88.65557 Y3.49742
G1 F300 X88.85072 Y3.53788
G1 F300 X89.04373 Y3.53656
G1 F300 X89.22641 Y3.49742
G1 F300 X89.39720 Y3.42173
G1 F300 X89.55899 Y3.30537
G1 F300 X89.69161 Y3.15663
G1 F300 X89.78475 Y2.99468
G1 F300 X89.84441 Y2.81103
G1 F300 X89.86425 Y2.62528
G1 F300 X89.84279 Y2.42092
G1 F300 X89.78475 Y2.24334
G1 F300 X89.68424 Y2.07126
G1 F300 X89.55899 Y1.93265
G1 F300 X89.39720 Y1.81629
G1 F300 X89.22641 Y1.74063
G1 F300 X89.03126 Y1.70014
G1 F300 X88.83824 Y1.70146
G1 F300 X88.65557 Y1.74063
G1 F300 X88.48478 Y1.81629
G1 F300 X88.32298 Y1.93265
G1 F300 X88.19037 Y2.08139
G1 F300 X88.09722 Y2.24334
G1 F300 X88.03756 Y2.42699
G1 F300 X88.01772 Y2.61274
;G04 P0 ; dwell for no time -- G64 should not smooth over this point 
G1 F3000 Z3.00000 ; retract 

G1 F3000 X85.47772 Y2.61274 ; rapid move to begin. 
G1 F300 F300.00000
G1 F300 Z-0.07000
;G04 P0 ; dwell for no time -- G64 should not smooth over this point 
G1 F300 F600.00000
G1 F300 X85.47772 Y2.61274
G1 F300 X85.49756 Y2.81103
G1 F300 X85.55722 Y2.99468
G1 F300 X85.65037 Y3.15663
G1 F300 X85.77853 Y3.30095
G1 F300 X85.94478 Y3.42173
G1 F300 X86.11557 Y3.49742
G1 F300 X86.31072 Y3.53788
G1 F300 X86.50373 Y3.53656
G1 F300 X86.68641 Y3.49742
G1 F300 X86.85720 Y3.42173
G1 F300 X87.01899 Y3.30537
G1 F300 X87.15161 Y3.15663
G1 F300 X87.24475 Y2.99468
G1 F300 X87.30441 Y2.81103
G1 F300 X87.32425 Y2.62528
G1 F300 X87.30279 Y2.42092
G1 F300 X87.24475 Y2.24334
G1 F300 X87.14424 Y2.07126
G1 F300 X87.01899 Y1.93265
G1 F300 X86.85720 Y1.81629
G1 F300 X86.68641 Y1.74063
G1 F300 X86.49126 Y1.70014
G1 F300 X86.29824 Y1.70146
G1 F300 X86.11557 Y1.74063
G1 F300 X85.94478 Y1.81629
G1 F300 X85.78298 Y1.93265
G1 F300 X85.65037 Y2.08139
G1 F300 X85.55722 Y2.24334
G1 F300 X85.49756 Y2.42699
G1 F300 X85.47772 Y2.61274
;G04 P0 ; dwell for no time -- G64 should not smooth over this point 
G1 F3000 Z3.00000 ; retract 

G1 F3000 X82.93772 Y2.61274 ; rapid move to begin. 
G1 F300 F300.00000
G1 F300 Z-0.07000
;G04 P0 ; dwell for no time -- G64 should not smooth over this point 
G1 F300 F600.00000
G1 F300 X82.93772 Y2.61274
G1 F300 X82.95753 Y2.42699
G1 F300 X83.01722 Y2.24334
G1 F300 X83.11037 Y2.08139
G1 F300 X83.24298 Y1.93265
G1 F300 X83.40475 Y1.81629
G1 F300 X83.57557 Y1.74063
G1 F300 X83.75822 Y1.70146
G1 F300 X83.95123 Y1.70014
G1 F300 X84.14638 Y1.74063
G1 F300 X84.31720 Y1.81629
G1 F300 X84.47899 Y1.93265
G1 F300 X84.60424 Y2.07126
G1 F300 X84.70475 Y2.24334
G1 F300 X84.76279 Y2.42092
G1 F300 X84.78425 Y2.62528
G1 F300 X84.76441 Y2.81103
G1 F300 X84.70475 Y2.99468
G1 F300 X84.61161 Y3.15663
G1 F300 X84.47899 Y3.30537
G1 F300 X84.31720 Y3.42173
G1 F300 X84.14638 Y3.49742
G1 F300 X83.96373 Y3.53656
G1 F300 X83.77072 Y3.53788
G1 F300 X83.57557 Y3.49742
G1 F300 X83.40475 Y3.42173
G1 F300 X83.23851 Y3.30095
G1 F300 X83.11037 Y3.15663
G1 F300 X83.01722 Y2.99468
G1 F300 X82.95753 Y2.81103
G1 F300 X82.93772 Y2.61274
;G04 P0 ; dwell for no time -- G64 should not smooth over this point 
G1 F3000 Z3.00000 ; retract 

G1 F3000 X80.39772 Y2.61274 ; rapid move to begin. 
G1 F300 F300.00000
G1 F300 Z-0.07000
;G04 P0 ; dwell for no time -- G64 should not smooth over this point 
G1 F300 F600.00000
G1 F300 X80.39772 Y2.61274
G1 F300 X80.41756 Y2.42699
G1 F300 X80.47722 Y2.24334
G1 F300 X80.57037 Y2.08139
G1 F300 X80.70295 Y1.93265
G1 F300 X80.86478 Y1.81629
G1 F300 X81.03557 Y1.74063
G1 F300 X81.21824 Y1.70146
G1 F300 X81.41126 Y1.70014
G1 F300 X81.60641 Y1.74063
G1 F300 X81.77720 Y1.81629
G1 F300 X81.93899 Y1.93265
G1 F300 X82.06424 Y2.07126
G1 F300 X82.16475 Y2.24334
G1 F300 X82.22279 Y2.42092
G1 F300 X82.24425 Y2.62528
G1 F300 X82.22441 Y2.81103
G1 F300 X82.16475 Y2.99468
G1 F300 X82.07161 Y3.15663
G1 F300 X81.93899 Y3.30537
G1 F300 X81.77720 Y3.42173
G1 F300 X81.60641 Y3.49742
G1 F300 X81.42373 Y3.53656
G1 F300 X81.23072 Y3.53788
G1 F300 X81.03557 Y3.49742
G1 F300 X80.86478 Y3.42173
G1 F300 X80.69853 Y3.30095
G1 F300 X80.57037 Y3.15663
G1 F300 X80.47722 Y2.99468
G1 F300 X80.41756 Y2.81103
G1 F300 X80.39772 Y2.61274
;G04 P0 ; dwell for no time -- G64 should not smooth over this point 
G1 F3000 Z3.00000 ; retract 

G1 F3000 X77.85772 Y2.61274 ; rapid move to begin. 
G1 F300 F300.00000
G1 F300 Z-0.07000
;G04 P0 ; dwell for no time -- G64 should not smooth over this point 
G1 F300 F600.00000
G1 F300 X77.85772 Y2.61274
G1 F300 X77.87756 Y2.42699
G1 F300 X77.93722 Y2.24334
G1 F300 X78.03037 Y2.08139
G1 F300 X78.16298 Y1.93265
G1 F300 X78.32478 Y1.81629
G1 F300 X78.49557 Y1.74063
G1 F300 X78.68444 Y1.70047
G1 F300 X78.87126 Y1.70014
G1 F300 X79.06641 Y1.74063
G1 F300 X79.23720 Y1.81629
G1 F300 X79.39412 Y1.92869
G1 F300 X79.52424 Y2.07126
G1 F300 X79.62475 Y2.24334
G1 F300 X79.68276 Y2.42092
G1 F300 X79.70425 Y2.62528
G1 F300 X79.68439 Y2.81103
G1 F300 X79.62475 Y2.99468
G1 F300 X79.53161 Y3.15663
G1 F300 X79.40341 Y3.30095
G1 F300 X79.24804 Y3.41545
G1 F300 X79.06641 Y3.49742
G1 F300 X78.87753 Y3.53755
G1 F300 X78.69072 Y3.53788
G1 F300 X78.49557 Y3.49742
G1 F300 X78.32478 Y3.42173
G1 F300 X78.15853 Y3.30095
G1 F300 X78.03037 Y3.15663
G1 F300 X77.93722 Y2.99468
G1 F300 X77.87756 Y2.81103
G1 F300 X77.85772 Y2.61274
;G04 P0 ; dwell for no time -- G64 should not smooth over this point 
G1 F3000 Z3.00000 ; retract 

G1 F3000 X75.31772 Y2.61274 ; rapid move to begin. 
G1 F300 F300.00000
G1 F300 Z-0.07000
;G04 P0 ; dwell for no time -- G64 should not smooth over this point 
G1 F300 F600.00000
